/* XPM */
static char *_ad6fa0f33574d1b9b9af6dc7c342bd7yUi71newup8cTbEd[] = {
/* columns rows colors chars-per-pixel */
"32 32 204 2 ",
"   c None",
".  c #020102",
"X  c #000009",
"o  c #1B0E00",
"O  c #1B1100",
"+  c #000013",
"@  c #00001E",
"#  c #0F0A12",
"$  c #100B1F",
"%  c #230C00",
"&  c #331E00",
"*  c #1F231D",
"=  c #392601",
"-  c #3E3114",
";  c #000125",
":  c #070F25",
">  c #00043D",
",  c #000031",
"<  c #1A2929",
"1  c #1F213D",
"2  c #352222",
"3  c #411F00",
"4  c #442800",
"5  c #482900",
"6  c #442400",
"7  c #542500",
"8  c #582A00",
"9  c #4D2F0E",
"0  c #643803",
"q  c #763E00",
"w  c #5A531E",
"e  c #6F4300",
"r  c #734500",
"t  c #764A00",
"y  c #794300",
"u  c #6C5E00",
"i  c #7E7300",
"p  c #001057",
"a  c #182B4A",
"s  c #0B254C",
"d  c #20364E",
"f  c #1A396D",
"g  c #2F455F",
"h  c #3D4E5D",
"j  c #384868",
"k  c #2A496E",
"l  c #4F5F55",
"z  c #556253",
"x  c #6E6E55",
"c  c #4B5B77",
"v  c #52576F",
"b  c #75726F",
"n  c #814600",
"m  c #8B5400",
"M  c #895900",
"N  c #925600",
"B  c #B15F00",
"V  c #8F6810",
"C  c #A56803",
"Z  c #A57500",
"A  c #B97300",
"S  c #9D732F",
"D  c #927E30",
"F  c #AB6521",
"G  c #B77835",
"H  c #C67308",
"J  c #CF7404",
"K  c #D77200",
"L  c #C06F19",
"P  c #C37516",
"I  c #D07D14",
"U  c #EF7300",
"Y  c #F37800",
"T  c #857656",
"R  c #AF7341",
"E  c #AA6E45",
"W  c #7D8468",
"Q  c #B78500",
"!  c #B39210",
"~  c #948024",
"^  c #BB863D",
"/  c #B89C3C",
"(  c #AB912A",
")  c #C98700",
"_  c #DB8B00",
"`  c #D28400",
"'  c #D49D00",
"]  c #C9990A",
"[  c #EB8B00",
"{  c #E68700",
"}  c #F68300",
"|  c #F58C00",
" . c #FD8B00",
".. c #E49200",
"X. c #F69200",
"o. c #FB9200",
"O. c #F59900",
"+. c #FD9B00",
"@. c #EC9E1A",
"#. c #DFA80C",
"$. c #ECAB00",
"%. c #F6A300",
"&. c #FEA500",
"*. c #FEAA00",
"=. c #FCA509",
"-. c #F6AF00",
";. c #FFB401",
":. c #FFBC03",
">. c #FFBE0F",
",. c #FFAC17",
"<. c #FFBD1C",
"1. c #ECB009",
"2. c #CD842C",
"3. c #CA8221",
"4. c #C78432",
"5. c #D38C34",
"6. c #FBB429",
"7. c #EAAC36",
"8. c #FFC201",
"9. c #FFCA06",
"0. c #FFD206",
"q. c #FFD517",
"w. c #FFDA1A",
"e. c #FBC019",
"r. c #FFC132",
"t. c #F7CC30",
"y. c #FFD930",
"u. c #FDCE29",
"i. c #FFE339",
"p. c #8A8241",
"a. c #B49257",
"s. c #B9A258",
"d. c #A7A35F",
"f. c #989869",
"g. c #9A9579",
"h. c #808779",
"j. c #A59969",
"k. c #B7A364",
"l. c #BAA26D",
"z. c #A9A074",
"x. c #A8A27C",
"c. c #A3A064",
"v. c #D89F40",
"b. c #CBA545",
"n. c #D8BB56",
"m. c #CFB04F",
"M. c #FFBE44",
"N. c #F2B848",
"B. c #E1B251",
"V. c #ECB547",
"C. c #CE9463",
"Z. c #C29B76",
"A. c #C1AE74",
"S. c #D6C247",
"D. c #FAC84B",
"F. c #E7CA58",
"G. c #F7D056",
"H. c #EBC46B",
"J. c #F5C764",
"K. c #F8D069",
"L. c #4F6987",
"P. c #61708C",
"I. c #6F7A9B",
"U. c #616D8B",
"Y. c #546FA4",
"T. c #6979A7",
"R. c #7E8396",
"E. c #728AAF",
"W. c #919182",
"Q. c #909591",
"!. c #B9AE80",
"~. c #A5A795",
"^. c #B8B695",
"/. c #ACB390",
"(. c #98A4BE",
"). c #ACB3B7",
"_. c #CAB39E",
"`. c #D5CC91",
"'. c #F8D797",
"]. c #EFD08E",
"[. c #93A3CD",
"{. c #A1ACC3",
"}. c #AFCCFF",
"|. c #B1D1FE",
" X c #D3C9CC",
".X c #C0C8D0",
"XX c #D8D3DC",
"oX c #EBDFD0",
"OX c #C8D7E5",
"+X c #DDDCE4",
"@X c #CCDBFB",
"#X c #C0D8FF",
"$X c #C3C7E3",
"%X c #DCE6FB",
"&X c #DCE8FF",
"*X c #D6E4FF",
"=X c #D9E2EE",
"-X c #E2EBFB",
";X c #E5E9F6",
":X c #E3F2FF",
">X c #EAF4FF",
",X c #F3FAFF",
"<X c #FFFFFF",
"1X c #F0F3F8",
/* pixels */
"                          ].J.M.D.J.                            ",
"                      H.6.&.+.|  .+.&.6.H.                      ",
"                    D.*.[ m 6 o o 5 N [ *.M.                    ",
"                  =.+.m . @ a z l s , # t o.=.                  ",
"                  :.0 @ d d.N.r.r.V.c.k p 9 +.                  ",
"                t.) X w u.*. .} }  .&.e.p.p C >.                ",
"              F.:.6 : b.5.G ^ ^ ^ ^ G 2.v.g 2 +.G.              ",
"            K.:.n h 1X<X:X>X>X>X>X>X>X:X,X<Xc 7 &.D.            ",
"      B.J.,.[ 8 < >X<X<X<X<X<X<X<X<X<X<X<X<X,Xj 3 J ,.K.        ",
"      m *.8 X . Q.<X<X<X%X@X@X@X@X@X@X&X<X<X<X).k a 0 &.C 0     ",
"        8.- ; ( '.<X<XOXf.s.k.k.k.k.s.f.OX<X<X].b.E.b *.        ",
"        -.V $ ..].<X,XA.| +.+.+.+.+.+.X./.}.|._.{ P.l.+.        ",
"        ' ! @ B '.<X,XC.U O.X.X.X.X.X.o.@./ / 7.I Y.m._         ",
"        Z 1.@ q '.<X<XXXR 3.4.4.4.4.4.4.2.J | &.S Y.6.Z         ",
"          8.* 7 ].<X<X<X>X%X-X-X-X-X-X-X>X$XE | T I.;.M         ",
"          8.w % b.:X<X<X<X<X<X<X<X<X<X<X<X<X=XL x W.;.          ",
"          $.V @ ) /.#X-X&X&X&X&X&X&X*X>X<X<X<XZ.v s.%.          ",
"          ) #.; N ;.a.x.z.z.z.z.z.z.j.g.OX<X<X~.j 7.`           ",
"          M 9.: 9  .K ..&.O.O.O.O.O.+...!.,X<X(.c <.C           ",
"            8.= v oX.Xa.} +.X.X.X.X.+.Y C.,X<X{.x :.            ",
"            -.u I.<X<X XF H P P P P H F  X<X<X[.D &.            ",
"            Q Q R.<X<X<X;XXX+X+X+X+XXX;X<X<X<X(.] Q             ",
"            r ;.x >X<X<X<X<X<X<X<X<X<X<X<X<X>Xh.;.t             ",
"              :.i U.<X<X>X>X,X>X>X,X>X>X<X<XT.~ ;.              ",
"              A w.< 1 g.`.^.~.~.~.~.^.`.j.j g q.A               ",
"                :.S.< . r &.;.O.O.;.%.y + f m.8.                ",
"                r 9.G.h + % C ;.;.C o > L.F.0.C                 ",
"                  0 ;.i.j.s + 5 5 ; f z.y.;.m                   ",
"                    & _ q.D.W > > W D.0._ 4                     ",
"                        r %.w.n.n.q.O.e .                       ",
"                          O N ;.;.N o                           ",
"                              = =                               "
};
