/* XPM */
static char *a17624ac0ac34447c27b6f3752f3c4d4OI5lqf0mBi49moCj[] = {
/* columns rows colors chars-per-pixel */
"128 128 256 2 ",
"   c None",
".  c #000001",
"X  c #01010A",
"o  c #0C0A08",
"O  c #150D04",
"+  c #1C1306",
"@  c #010213",
"#  c #01011C",
"$  c #080A17",
"%  c #0D1219",
"&  c #141414",
"*  c #1D1D1C",
"=  c #16161A",
"-  c #130E18",
";  c #2B1B03",
":  c #251704",
">  c #211D1C",
",  c #271B11",
"<  c #2E1804",
"1  c #372406",
"2  c #21211D",
"3  c #292817",
"4  c #372A19",
"5  c #000121",
"6  c #060C25",
"7  c #171926",
"8  c #0B132D",
"9  c #1D2026",
"0  c #242423",
"q  c #2B2B2B",
"w  c #272828",
"e  c #343433",
"r  c #3A3A3A",
"t  c #2D2C31",
"y  c #201E23",
"u  c #472C03",
"i  c #4B3105",
"p  c #533501",
"a  c #5B3903",
"s  c #513111",
"d  c #62340E",
"f  c #663909",
"g  c #623C01",
"h  c #6B2F08",
"j  c #4A3C31",
"k  c #611C00",
"l  c #3F403D",
"z  c #56431D",
"x  c #6A4403",
"c  c #7C4E01",
"v  c #744A04",
"b  c #674616",
"n  c #78500A",
"m  c #43423E",
"M  c #58452D",
"N  c #6B4E27",
"B  c #7A6C28",
"V  c #32334E",
"C  c #2F3666",
"Z  c #1A2455",
"A  c #403F46",
"S  c #3C4453",
"D  c #38456E",
"F  c #4C4C4B",
"G  c #464646",
"H  c #55544E",
"J  c #484A5F",
"K  c #484B56",
"L  c #545453",
"P  c #5C5C5C",
"I  c #575658",
"U  c #505052",
"Y  c #645B54",
"T  c #6D6B59",
"R  c #4A4C64",
"E  c #504E66",
"W  c #514E68",
"Q  c #535167",
"!  c #565568",
"~  c #4F5775",
"^  c #686766",
"/  c #666773",
"(  c #757574",
")  c #7C7B7A",
"_  c #797978",
"`  c #72726E",
"'  c #5C6370",
"]  c #883A00",
"[  c #894000",
"{  c #894D08",
"}  c #835401",
"|  c #8B5802",
" . c #945A00",
".. c #975E19",
"X. c #A65900",
"o. c #AD5000",
"O. c #9A6301",
"+. c #956F17",
"@. c #A56900",
"#. c #AB6C00",
"$. c #A26500",
"%. c #B66A02",
"&. c #B47200",
"*. c #BA7600",
"=. c #BE7900",
"-. c #A97613",
";. c #9C6C33",
":. c #C56B00",
">. c #C37C00",
",. c #C67500",
"<. c #D47D00",
"1. c #DA7700",
"2. c #DB6700",
"3. c #EA7600",
"4. c #E57C00",
"5. c #EA7D00",
"6. c #E57500",
"7. c #E56A00",
"8. c #D95F00",
"9. c #877859",
"0. c #8B7760",
"q. c #877864",
"w. c #827F7B",
"e. c #887265",
"r. c #A17B61",
"t. c #7D877F",
"y. c #B2922F",
"u. c #AD9928",
"i. c #CC8200",
"p. c #C88D06",
"a. c #D38500",
"s. c #D68800",
"d. c #DC8C00",
"f. c #DB8200",
"g. c #D29512",
"h. c #E68400",
"j. c #EB8300",
"k. c #E58C00",
"l. c #E98B00",
"z. c #F28C00",
"x. c #F38500",
"c. c #E59200",
"v. c #EB9500",
"b. c #ED9800",
"n. c #E3960C",
"m. c #F49500",
"M. c #F39B00",
"N. c #FA9E00",
"B. c #FB9502",
"V. c #E29A17",
"C. c #FEA300",
"Z. c #FFAA01",
"A. c #F8A60A",
"S. c #FEB706",
"D. c #FAAB13",
"F. c #FCB417",
"G. c #E8A912",
"H. c #C79431",
"J. c #D2AF31",
"K. c #FCBB24",
"L. c #EBB224",
"P. c #D2A71A",
"I. c #FFC507",
"U. c #FEC818",
"Y. c #FFD816",
"T. c #FFD608",
"R. c #FEE518",
"E. c #FDC729",
"W. c #FECD34",
"Q. c #FFD436",
"!. c #FFD63C",
"~. c #F7D22B",
"^. c #FFEC2F",
"/. c #D6D836",
"(. c #948959",
"). c #AD914E",
"_. c #85837C",
"`. c #91876F",
"'. c #A6926D",
"]. c #A79479",
"[. c #ACAB6C",
"{. c #9DA653",
"}. c #C9AA59",
"|. c #FDDD49",
" X c #FDE958",
".X c #FFF858",
"XX c #FDF148",
"oX c #FEF867",
"OX c #FFFD7B",
"+X c #FEFA73",
"@X c #F7F06D",
"#X c #D6CF5E",
"$X c #4E5689",
"%X c #586988",
"&X c #576B94",
"*X c #787C87",
"=X c #697997",
"-X c #6C748C",
";X c #667CA4",
":X c #7375A9",
">X c #605F8B",
",X c #7F8C84",
"<X c #7C828A",
"1X c #768398",
"2X c #7382AD",
"3X c #848483",
"4X c #808B82",
"5X c #898988",
"6X c #969595",
"7X c #8E928E",
"8X c #ADAE96",
"9X c #9498A5",
"0X c #A2A2A8",
"qX c #A8A8A6",
"wX c #B7B7B7",
"eX c #B4B3A8",
"rX c #9CA196",
"tX c #D4BE8A",
"yX c #BAC49E",
"uX c #D4D093",
"iX c #DBEB9E",
"pX c #FFFF83",
"aX c #FFFF8C",
"sX c #FFFF99",
"dX c #E8EB92",
"fX c #D2D2AE",
"gX c #E3D8A8",
"hX c #E5E7AA",
"jX c #FEFFA4",
"kX c #FAFEAB",
"lX c #FFFFBC",
"zX c #F9FDB4",
"xX c #E9EFB2",
"cX c #DCDEAB",
"vX c #B5B8CB",
"bX c #98A6D5",
"nX c #BAC2DF",
"mX c #C8C9C7",
"MX c #D4D4D6",
"NX c #D7DBDD",
"BX c #D6D7D9",
"VX c #CED0D4",
"CX c #FEFEC4",
"ZX c #E5E6D7",
"AX c #CFDBEA",
"SX c #DCE9F3",
"DX c #E8E9E5",
"FX c #EAEBE9",
"GX c #E4E6E6",
"HX c #ECFEFF",
"JX c #E7F5FC",
"KX c #F5F5F4",
"LX c #FFFFFF",
"PX c #F7FBF9",
"IX c #F2F2EC",
"UX c #E2DCD1",
/* pixels */
"                                                                                                                        gXgXxXUXxXgXgXuX                                                                                                                        ",
"                                                                                                              gXhXzXkXjXsXpX+X@X+XpXaXsXkXzXxXcX                                                                                                                ",
"                                                                                                        uXzXkXaX@X|.K.D.M.m.v.m.v.m.M.A.F.W. XOXsXzXhX                                                                                                          ",
"                                                                                                    hXkXaX|.K.M.j.5.5.h.h.l.l.l.l.l.h.h.5.5.h.z.D.W.@XsXzXhX                                                                                                    ",
"                                                                                              tXxXjX@XK.m.5.5.h.c.v.v.b.v.v.v.v.v.v.b.b.b.v.c.l.h.5.j.A.!.OXjXxX                                                                                                ",
"                                                                                            xXsX XD.j.5.l.c.b.b.v.v.v.v.v.v.v.v.v.v.v.v.v.v.v.b.b.v.l.h.5.l.F. XjXxXtX                                                                                          ",
"                                                                                        hXsX XA.5.4.l.v.b.v.v.v.v.b.M.M.N.C.C.C.C.C.N.M.M.M.v.v.v.v.v.b.v.l.4.j.A. XjXxX                                                                                        ",
"                                                                                    uXjXoXA.5.4.c.v.b.v.v.v.M.N.C.C.N.M.v.c.k.k.k.c.v.M.M.C.C.C.M.v.v.v.v.b.v.c.4.5.A. XjXhX                                                                                    ",
"                                                                                  kXpXK.j.4.c.b.v.v.v.b.N.C.N.v.k.i.=.#.O. .} c } | O.#.*.>.d.c.M.C.C.M.v.v.v.v.b.c.4.5.D.oXkXuX                                                                                ",
"                                                                              uXjX|.z.4.l.b.v.v.v.M.C.C.v.d.>.@.| x u ; : O o o o O + ; 1 a c  .&.i.k.M.C.N.M.v.v.b.b.c.4.j.K.pXxX                                                                              ",
"                                                                            zXOXD.3.h.v.b.v.v.M.C.N.c.i.&.| a ; o . . . . . . . . . . . . . . + u x O.*.a.v.C.C.M.v.v.b.b.k.3.m.|.sXgX                                                                          ",
"                                                                           XoXm.6.c.b.v.v.M.C.N.k.i.@.x 1 o . . . . o & = * 0 0 0 0 * = & X . . . . + i c #.i.k.N.C.M.v.v.b.v.h.3.K.pXJ.                                                                        ",
"                                                                          I.z.h.v.b.v.v.N.C.c.i.#.x ; . . . X & * w q t e e e e e r e e e e q 0 & . . . X 1 v #.>.c.C.C.v.v.v.b.c.4.C.S.                                                                        ",
"                                                                        P.F.l.v.v.v.M.C.v.a.&.v ; . . . & 2 w q q t q w * $ X X X $ = w e r r r l r w & . . X 1 v #.i.c.C.N.v.v.b.c.m.F.                                                                        ",
"                                                                        L.D.l.v.v.C.C.d.=.| 1 . . . & 0 q q q q 0 % . . $ 7 G ^ U t 7 @ . $ 0 e r G G G r 2 X . X 1 c &.a.M.C.M.v.v.v.E.P.                                                                      ",
"                                                                        E.M.k.M.C.v.i.#.a X . . & 0 w w w w = . . - K 7XfXzXlXzXlXlXxX8X( V # X % q r m F U G q X . X s O.>.d.C.N.v.l.F.L.                                                                      ",
"                                                                      J.E.l.v.M.d.>.| ; . . & 0 q w w 0 % . X G rXxXlXsXoX!.K.D.F.W. XpXkXlXfX3XV # $ w l G F I F q . . & x &.i.v.M.l.M.Q.                                                                      ",
"                                                                      W.F.l.N.s.#.x . . o 2 w 0 0 w & . @ ! fXCXsX XF.m.5.5.h.h.h.h.h.l.C.E.oXjXCXeXI 6 # t G G U P L 2 . . u  .&.M.M.l.~.J.                                                                    ",
"                                                                    y.^.m.c.M.M.| . . & w w 0 0 = . X ^ xXlX+XF.l.5.h.l.c.v.v.b.b.v.v.l.h.5.j.M.W.OXlXcX/ 7 6 r G F I ^ G & . , s.M.M.h.D.|.                                                                    ",
"                                                                    |.U.h.v.b.C.u . 2 w 0 0 0 . . U fXlX.XA.j.5.l.v.b.b.v.v.v.v.v.v.v.v.b.b.c.h.5.j.F.oXkXcX^ 8 7 G F F ^ ^ w . &.C.b.c.j.^.J.                                                                  ",
"                                                                  y.XXm.l.M.M.d.O 6 w * 0 * . q eXlXoXA.5.h.c.b.b.v.v.v.v.v.v.v.v.v.v.v.v.v.v.b.b.l.4.5.A..XkXfXI 8 V H F P ( Z x N.v.M.h.F..X                                                                  ",
"                                                                   XE.4.b.b.C. .# 9 > 2 = X ^ CXaXF.5.4.c.b.b.v.v.v.v.v.v.v.v.v.v.v.v.v.v.v.v.v.v.b.b.c.4.5.D.+XlXrXV V H F ^ ~ 4 f.b.M.c.j.^.#X                                                                ",
"                                                                #XXXz.k.M.v.M.p # 0 * 0 # 4 oX|.x.4.k.b.b.v.v.v.v.v.v.v.v.v.v.v.v.v.v.v.v.v.v.v.v.v.v.b.b.c.4.5.E.pX}.Z K L I ' 8 X.N.M.b.h.N..X                                                                ",
"                                                                +XF.4.b.M.M.i.o 6 0 * 2 5 +.T.5.h.v.b.v.v.v.v.v.v.v.v.v.v.v.v.v.v.v.v.v.v.v.v.v.v.v.v.v.v.b.v.l.6.Z.I.G S H I ` Z p M.v.M.v.3.E.+X                                                              ",
"                                                              +X!.3.c.M.v.N.c @ 0 * 0 6 5 /.Y.B.C.C.C.C.C.C.C.C.C.C.C.C.C.C.C.C.C.C.C.C.C.C.C.C.C.C.C.C.C.C.C.Z.N.N.R.T C H I ^ ! X =.b.M.b.k.x..X#X                                                            ",
"                                                            @X.Xx.l.b.M.v.s.O # w 0 0 @ s T.a.,.<.<.<.<.<.<.<.<.<.<.<.<.<.<.<.<.<.<.<.<.<.<.<.<.<.<.<.<.<.<.<.<.<.:.Z.P.C U P I ( 8 a v.v.M.v.h.m.+X#X                                                          ",
"                                                          dXoXm.h.v.M.v.M.c X w * . . . O.%.s a d d d d d d d d d d d d d d d d d d d d d d d d d d d d d d d d d s h 1.s 8 j I ( R . =.c.M.M.v.4.D.pX#X                                                        ",
"                                                        dX+XB.4.v.M.M.c.>.O 6 o . * ` wXUXVXMXMXMXMXMXMXMXMXMXMXMXMXMXMXMXMXMXMXMXMXMXMXMXMXMXMXMXMXMXMXMXMXMXMXMXBXVXfXfX<XG 0 F 5X6 u c.c.N.v.v.3.F.aXuX                                                      ",
"                                                      kXoXm.4.v.b.C.c.k.p X . o 6XKXLXLXLXLXLXLXLXLXLXLXLXLXLXLXLXLXLXLXLXLXLXLXLXLXLXLXLXLXLXLXLXLXLXLXLXLXLXLXLXLXLXLXLXLXKX6Xw U ' .  .k.v.N.v.v.6.D.pXiX                                                    ",
"                                                  gXjX|.x.4.v.b.C.c.d.| . . e BXLXLXLXLXLXLXLXLXLXLXLXLXLXLXLXLXLXLXLXLXLXLXLXLXLXLXLXLXLXLXLXLXLXLXLXLXLXLXLXLXLXLXLXLXLXLXLXLXMXG L V . =.d.M.N.v.v.6.B.oXkX[.                                                ",
"                                              uXkXOXF.3.h.v.M.C.v.s.@.o . m LXLXLXLXLXLXLXLXLXLXLXLXLXLXLXLXLXLXLXLXLXLXLXLXLXLXLXLXLXLXLXLXLXLXLXLXLXLXLXLXLXLXLXLXLXLXLXLXLXLXLXIXP U # ; >.s.N.N.v.v.4.j.W.sXxX                                              ",
"                                          gXkXpXW.z.4.k.b.N.C.k.i.O.O . 0 KXLXLXLXLXLXLXLXLXLXLXLXLXLXLXLXLXLXLXLXLXLXLXLXLXLXLXLXLXLXLXLXLXLXLXLXLXLXLXLXLXLXLXLXLXLXLXLXLXLXLXLXLXGXI G X 1 *.i.M.C.M.v.l.3.A. XjXhX                                          ",
"                                    hXxXjX+XE.z.6.h.b.C.C.M.s.=.c o . X MXLXLXLXLXLXLXLXLXLXLXLXLXLXLXLXLXLXLXLXLXLXLXLXLXLXLXLXLXLXLXLXLXLXLXLXLXLXLXLXLXLXLXLXLXLXLXLXLXLXLXLXLXLXLXmXI G . 1 #.>.c.C.C.b.c.4.5.F.oXjXhX                                      ",
"                            uXCXzXjXOX|.D.j.6.l.M.C.C.M.d.>.O.u . . . ) LXLXLXLXLXLXLXLXLXLXLXLXLXLXLXLXLXLXLXLXLXLXLXLXLXLXLXLXLXLXLXLXLXLXLXLXLXLXLXLXLXLXLXLXLXLXLXLXLXLXLXLXLXLXLXLX5X^ G . & n &.i.b.C.C.M.k.4.j.F. XsXzXgX                                ",
"                          B.L.@X|.F.z.3.j.m.C.C.C.v.s.>.O.g O . X . o KXLXLXLXLXLXLXLXLXLXLXLXLXLXLXLXLXLXLXLXLXLXLXLXLXLXLXLXLXLXLXLXLXLXLXLXLXLXLXLXLXLXLXLXLXLXLXLXLXLXLXLXLXLXLXLXLXGXU 5XF . X s | *.s.b.C.C.M.l.4.5.A.!.OXlXdX                            ",
"                            1.j.j.4.l.M.C.M.v.d.>.#.| p O . . o 0 . ^ LXLXLXLXLXLXLXLXLXLXLXLXLXLXLXLXLXLXLXLXLXLXLXLXLXLXLXLXLXLXLXLXLXLXLXLXLXLXLXLXLXLXLXLXLXLXLXLXLXLXLXLXLXLXLXLXLXLX_ F 6X^ o . $ s  .&.i.c.N.C.C.v.4.3.m.F.n.m.                          ",
"                            >.N.c.b.C.s.@.&.$.} a ; X . . X = w & . mXLXLXLXLXLXLXLXLXLXLXLXLXLXLXLXLXLXLXLXLXLXLXLXLXLXLXLXLXLXLXLXLXLXLXLXLXLXLXLXLXLXLXLXLXLXLXLXLXLXLXLXLXLXLXLXLXLXLXmXm ` 6X5Xr . . % s n $.=.a.k.b.M.v.l.j.f.a                           ",
"                            O.Z.v.b.M.c.c 1 : X . . . X & 0 0 0 . = KXLXLXLXLXLXLXLXLXLXLXLXLXLXLXLXLXLXLXLXLXLXLXLXLXLXLXLXLXLXLXLXLXLXLXLXLXLXLXLXLXLXLXLXLXLXLXLXLXLXLXLXLXLXLXLXLXLXLXFXL P ( 5X6X( w . . @ 4 b c c ,.N.M.v.C.d..                           ",
"                            x C.M.v.c.I.-.. . . X o = 0 0 0 0 = . V LXLXLXLXLXLXLXLXLXLXLXLXLXLXLXLXLXLXLXLXLXLXLXLXLXLXLXLXLXLXLXLXLXLXLXLXLXLXLXLXLXLXLXLXLXLXLXLXLXLXLXLXLXLXLXLXLXLXLXLX/ C ( ( ) 6X6X( e X . X # n A.M.v.v.C.&.                            ",
"                            i C.M.v.l.S.g.X @ = 0 0 0 0 0 & . . 3 `.LXLXLXLXLXLXLXLXLXLXLXLXLXLXLXLXKXFXFXFXFXFXFXFXFXFXFXFXFXFXFXFXFXFXFXFXFXFXFXFXFXFXFXKXLXLXLXLXLXLXLXLXLXLXLXLXLXLXLXLX[.9.~ ! ( _ 3X6X0X3XH 7 X +.T.c.v.M.C.}                             ",
"                              c.M.b.c.C.Z.> 6 0 * * 0 $ . . 0 6XXX}.JXLXLXLXLXLXLXLXLXLXLXLXLXLXZX9X! R E E E E E E E E E E E E E E E E E E E E E E E E R ' 0XZXLXLXLXLXLXLXLXLXLXLXLXLXLXJX).R.fX-XW ' _ ) 5X6XqX9X%Xg.C.c.v.M.C.a                             ",
"                              >.C.v.c.N.S.s 5 > * * & % I 8XCXsXm.r.HXLXLXLXLXLXLXLXLXLXLXLXLXfX~ V ` 4X4X,X,X,X,X,X,X,X,X,X,X,X,X,X,X,X,X,X,X,X,X,X,X4X4X` V ' mXLXLXLXLXLXLXLXLXLXLXLXLXHX`.6.oXzXeX*X-X) _.3X_.9X9XD.N.c.b.M.M.1                             ",
"                              $.Z.v.v.m.I.n 5 * * = @ +.aXjX!.B.8.].HXLXLXLXLXLXLXLXLXLXLXLXmX>X! uXsXaXpXpXpXpXpXpXpXpXpXpXpXpXpXpXpXpXpXpXpXpXpXpXpXpXpXsXuXP >XmXLXLXLXLXLXLXLXLXLXLXLXHX].8.z.W.aXOXy.>X3X3X5X2X`.C.M.c.v.N.a.                              ",
"                              c Z.v.b.l.I.+.5 * * * 5 n Z.m.5.z.1.'.HXLXLXLXLXLXLXLXLXLXLXZX:X^ oX.XA.m.m.m.m.m.m.m.m.m.m.m.m.m.m.m.m.m.m.m.m.m.m.m.m.m.m.A..X@X^ 2XDXLXLXLXLXLXLXLXLXLXLXHX].1.l.5.m.C.H.=X<X3X5X2X).C.v.v.v.Z.#.                              ",
"                              u C.b.b.c.S.p.# = * 2 6 , z.z.b.M.4.'.HXLXLXLXLXLXLXLXLXLXPXnX-X/.^.3.4.l.l.l.l.l.l.l.l.l.l.l.l.l.l.l.l.l.l.l.l.l.l.l.l.l.l.4.3.^./.-XvXKXLXLXLXLXLXLXLXLXLXHX].1.M.b.z.6.N =X5X3X5X;XH.C.c.v.v.Z.|                               ",
"                                c.N.v.c.Z.G.= # > 2 6 $ a.C.b.M.4.'.HXLXLXLXLXLXLXLXLXLXKXbX{.T.x.l.b.b.b.b.b.b.b.b.b.b.b.b.b.b.b.b.b.b.b.b.b.b.b.b.b.b.b.b.h.x.R.{.bXPXLXLXLXLXLXLXLXLXLXHX].1.M.b.C.f.e =X5X3X5X=XV.C.c.b.b.C.p                               ",
"                                s.C.v.v.N.S.4 5 2 * % # &.C.b.M.4.'.HXLXLXLXLXLXLXLXLXLXHXbXp.Z.l.v.v.v.v.v.v.v.v.v.v.v.v.v.v.v.v.v.v.v.v.v.v.v.v.v.v.v.v.v.v.l.Z.p.vXLXIXKXKXKXKXKXKXIXKXLX].1.M.M.M.,.U 1X3X_.1X3XM.N.c.v.M.v.                                ",
"                                &.C.v.v.m.I.b 5 2 * * # | C.v.M.4.'.HXLXLXLXLXLXLXLXLXLXHXqX1.B.v.v.v.v.v.v.v.v.v.v.v.v.v.v.v.v.v.v.v.v.v.v.v.v.v.v.v.v.v.v.v.v.B.7.0XbXI ' ' ' / / / ! ! bX].7.M.M.B. .' 7X_._.2X`.C.M.v.v.C.d.                                ",
"                                c C.v.v.v.I.+.5 * * 2 5 x C.v.M.4.'.HXLXLXLXLXLXLXLXLXLXLX8X:.M.v.v.v.v.v.v.v.v.v.v.v.v.v.v.v.v.v.v.v.v.v.v.v.v.v.v.v.v.v.v.v.c.m.F.7X&X_ _ _ _ _ _ _ _ ( &XrXF.m.v.N.n %X6X) 3X;X).Z.v.v.v.C.*.                                ",
"                                p C.M.v.c.S.p.5 % > 2 5 1 m.M.N.4.'.HXLXLXLXLXLXLXLXLXLXLXeX%.M.M.v.v.v.v.v.v.v.v.v.v.v.v.v.v.v.v.v.v.v.v.v.v.v.v.v.v.v.v.v.v.c.h.|.sXaXaXaXaXaXaXaXaXaXaXaXsXW.j.v.m.b %X5X_.3X;XH.C.v.v.v.C.|                                 ",
"                                  M.M.b.l.Z.G.- # 2 * 6 - a.C.M.4.'.HXLXLXLXLXLXLXLXLXLXLXnX .m.M.v.v.v.v.v.v.v.v.v.v.v.v.v.v.v.v.v.v.v.v.v.v.v.v.v.v.v.v.v.v.v.c.l.A.A.A.A.A.A.A.A.A.A.A.A.A.l.v.M.<.M =X3X_.<X=XV.C.c.v.M.C.a                                 ",
"                                  i.N.b.c.C.S.4 # > * 7 # &.Z.M.4.'.HXLXLXLXLXLXLXLXLXLXLXJX..1.Z.b.v.v.v.v.v.v.v.v.v.v.v.v.v.v.v.v.v.v.v.v.v.v.v.v.v.v.v.v.v.v.v.l.h.h.h.h.h.h.h.h.h.h.h.h.h.c.b.C.%.K 7Xw._.1X*XA.N.c.v.M.N.1                                 ",
"                                  @.C.b.v.M.I.b 5 * * * # | C.M.4.'.HXLXLXLXLXLXLXLXLXLXLXLXqXh v.Z.M.M.M.M.M.M.M.M.M.M.M.M.M.M.M.M.M.M.M.M.M.M.M.M.M.M.M.M.M.M.M.M.M.M.b.b.v.v.b.v.v.b.v.v.b.v.v.C.X.D 7Xw._.1X`.Z.M.c.b.N.a.                                  ",
"                                  } Z.v.b.v.I.+.5 * * * 5 p C.N.4.'.HXLXLXLXLXLXLXLXLXLXLXLXLXe.k <.C.C.C.C.C.C.C.C.C.C.C.C.C.C.C.C.C.C.C.C.C.C.C.C.C.C.C.C.C.C.C.C.C.C.Z.C.N.v.v.v.v.v.v.v.v.v.b.m.{ $X5Xw.3X2X).Z.M.c.v.C.#.                                  ",
"                                  p C.b.b.c.S.p.# = * 2 6 , M.C.1.'.HXLXLXLXLXLXLXLXLXLXLXLXLXLXw.k h [ [ [ ] [ [ [ [ [ [ [ [ [ [ [ [ [ [ [ [ [ [ [ [ [ [ [ [ [ [ [ ] [ X.,.M.Z.N.v.v.v.v.v.v.v.M.l.M =X3X) 3X;XH.C.c.v.v.Z.|                                   ",
"                                    c.M.b.c.Z.A.= $ * 2 6 $ s.C.1.'.HXLXLXLXLXLXLXLXLXLXLXLXLXLXLXVX`.9.0.0.0.0.0.0.0.0.0.0.0.0.0.0.0.0.0.0.0.0.0.0.0.0.0.0.0.0.0.0.`.0.Y s h X.C.C.v.v.v.v.v.v.N.f.j 1X_.) <X=XV.C.c.b.v.C.a                                   ",
"                                    i.C.v.c.N.S.4 5 2 * 7 # $.Z.5.'.JXLXLXLXLXLXLXLXLXLXLXLXLXLXLXLXLXLXLXLXLXLXLXLXLXLXLXLXLXLXLXLXLXLXLXLXLXLXLXLXLXLXLXLXLXLXLXLXLXLXLXNX6Xs h d.Z.M.v.v.v.b.N.*.K 1X_.w.1X*XM.C.c.b.N.v.                                    ",
"                                    O.C.v.v.m.I.b 5 > * y # v Z.x.(.JXLXLXLXLXLXLXLXLXLXLXLXLXLXLXLXLXLXLXLXLXLXLXLXLXLXLXLXLXLXLXLXLXLXLXLXLXLXLXLXLXLXLXLXLXLXLXLXLXLXLXLXLXJX` k <.Z.M.v.v.M.M. .! 5X) _.;X`.C.M.c.v.C.a.                                    ",
"                                    x C.b.v.c.I.+.5 * * 2 5 i Z.B.;.AXLXLXLXLXLXLXLXLXLXLXLXLXLXLXLXLXLXLXLXLXLXLXLXLXLXLXLXLXLXLXLXLXLXLXLXLXLXLXLXLXLXLXLXLXLXLXLXLXLXLXLXLXLXLX6Xk <.Z.m.v.M.B.n %X5X_ _.;X).Z.v.v.v.Z.#.                                    ",
"                                    u C.M.v.l.S.g.# % > 2 6 + k.C.p.nXPXLXLXLXLXLXLXLXLXLXLXLXLXLXLXLXLXLXLXLXLXLXLXLXLXLXLXLXLXLXLXLXLXLXLXLXLXLXLXLXLXLXLXLXLXLXLXLXLXLXLXLXLXLXLX6Xk l.C.m.v.m.z %X3X) 3X=XH.Z.v.v.v.C.}                                     ",
"                                      c.M.v.c.Z.S.> # 2 * % @ %.S.c.9XSXLXLXLXLXLXLXLXLXLXLXLXLXLXLXLXLXLXLXLXLXLXLXLXLXLXLXLXLXLXLXLXLXLXLXLXLXLXLXLXLXLXLXLXLXLXLXLXLXLXLXLXLXLXLXLXe.] M.C.M.<.m -Xw.w.<X=XV.C.c.v.M.C.p                                     ",
"                                      *.N.v.c.N.I.s # 2 * 7 #  .Z.S.(.nXPXLXLXLXLXLXLXLXLXLXLXLXLXLXLXLXLXLXLXLXLXLXLXLXLXLXLXLXLXLXLXLXLXLXLXLXLXLXLXLXLXLXLXLXLXLXLXLXLXLXLXLXLXLXLXJXN %.C.C.$.K 5X_ w.=X*XC.N.c.v.M.M.                                      ",
"                                       .C.v.v.v.I.B 5 * * * 5 g B.I.u.2XGXLXLXLXLXLXLXLXLXLXLXLXLXLXLXLXLXLXLXLXLXLXLXLXLXLXLXLXLXLXLXLXLXLXLXLXLXLXLXLXLXLXLXLXLXLXLXLXLXLXLXLXLXLXLXLXwX[ v.Z. .D 5X_ w.=X`.Z.M.c.b.N.a.                                      ",
"                                      g C.v.b.l.I.u.# = * 2 5 1 l.D.R.` bXIXLXLXLXLXLXLXLXLXLXLXLXLXLXLXLXLXLXLXLXLXLXLXLXLXLXLXLXLXLXLXLXLXLXLXLXLXLXLXLXLXLXLXLXLXLXLXLXLXLXLXLXLXLXLXHX;.:.N.n ~ 5X_ ) ;X).Z.v.v.v.C.@.                                      ",
"                                      ; v.M.M.k.S.G.$ % * 2 6 $ a.x.^./.$XvXPXLXLXLXLXLXLXLXLXLXLXLXLXLXLXLXLXLXLXLXLXLXLXLXLXLXLXLXLXLXLXLXLXLXLXLXLXLXLXLXLXLXLXLXLXLXLXLXLXLXLXLXLXLXLXrX%.l.M -Xw._ <X;XH.Z.c.v.v.Z.c                                       ",
"                                        i.C.v.c.C.S.4 # 2 * 7 # @.B.B.XX{.$XvXPXLXLXLXLXLXLXLXLXLXLXLXLXLXLXLXLXLXLXLXLXLXLXLXLXLXLXLXLXLXLXLXLXLXLXLXLXLXLXLXLXLXLXLXLXLXLXLXLXLXLXLXLXLXAX%.1.r =Xw._ *X=XV.C.c.v.v.C.p                                       ",
"                                        #.C.v.v.m.I.b 5 2 * y # v C.3.F..X(.$X0XIXLXLXLXLXLXLXLXLXLXLXLXLXLXLXLXLXLXLXLXLXLXLXLXLXLXLXLXLXLXLXLXLXLXLXLXLXLXLXLXLXLXLXLXLXLXLXLXLXLXLXLXLXJX;.%.S *X_ _ =X) C.C.c.b.M.k.                                        ",
"                                        v C.v.v.v.I.+.# * * 2 5 u C.b.3.K.+X`.C -XwXFXLXLXLXLXLXLXLXLXLXLXLXLXLXLXLXLXLXLXLXLXLXLXLXLXLXLXLXLXLXLXLXLXLXLXLXLXLXLXLXLXLXLXLXLXLXLXLXLXLXLXHX}.] ~ 3X_ ) =X(.Z.M.v.v.C.>.                                        ",
"                                        1 N.M.v.c.S.g.# % * 2 6 & d.M.v.3.K.OXyX! C ! *X9XqX0X0X0X0X0X0X0X0X0X0X0X0X0X0X0X0X0X0X0X0X0X0X0X0X0X0X0X0X0X0X9XwXZXLXLXLXLXLXLXLXLXLXLXLXLXLXLXLX}.k %X3X( w.&X).Z.v.v.v.C.$.                                        ",
"                                          k.M.v.l.Z.F.* # 2 * 7 @ &.C.b.v.4.A.oXsXyX_ R J R J J J J J J J J J J J J J J J J J J J J J J J J J J J R J R J V W qXIXLXLXLXLXLXLXLXLXLXLXLXLXLX}.u %X_._ *X=XH.Z.c.v.v.C.v                                         ",
"                                          &.C.b.c.M.U.s # > * y # } C.v.M.v.4.j.K.oXaXkXhXiXiXiXiXiXiXiXiXiXiXiXiXiXiXiXiXiXiXiXiXiXiXiXiXiXiXiXiXiXiXiXiXuX` C 9XFXLXLXLXLXLXLXLXLXLXLXLXLX(.4 *X_ _ -X-XG.C.c.v.M.N.u                                         ",
"                                          } C.v.v.c.I.+.# * * > # u M.b.M.v.b.l.5.j.M.K.Q.Q.Q.Q.Q.Q.Q.Q.Q.Q.Q.Q.Q.Q.Q.Q.Q.Q.Q.Q.Q.Q.Q.Q.Q.Q.Q.Q.Q.Q.Q.Q.Q. XpX{.~ 0XKXLXLXLXLXLXLXLXLXLXLXLXP w 5X( w.-X_ Z.N.c.v.N.c.                                          ",
"                                          p C.v.b.l.I.P.# % * 2 6 & k.N.v.v.v.b.v.c.h.4.4.5.5.5.5.5.5.5.5.5.5.5.5.5.5.5.5.5.5.5.5.5.5.5.5.5.5.5.5.5.5.5.5.3.D..X{.:XMXLXLXLXLXLXLXLXLXLXLXLX/ r 3X( ) =X(.S.M.c.v.C.*.                                          ",
"                                          : d.M.M.l.Z.F.> # * > 7 @ &.C.v.v.v.v.b.b.b.v.v.v.v.v.v.v.v.v.v.v.v.v.v.v.v.v.v.v.v.v.v.v.v.v.v.v.v.v.v.v.v.v.v.c.6.D.^.`.bXKXLXLXLXLXLXLXLXLXLXLX5XL _ _ _ &XH.S.c.v.b.C.|                                           ",
"                                            =.C.v.c.B.U.s # 2 * 7 5 v Z.Z.Z.C.C.C.C.C.C.Z.Z.N.v.v.v.v.v.v.v.v.v.v.v.v.v.v.v.v.v.v.v.v.v.v.v.v.v.v.v.v.v.v.b.v.5.I.u.bXPXLXLXLXLXLXLXLXLXLXLX6XI ( _ *X&XG.Z.k.v.v.C.g                                           ",
"                                            | C.v.v.v.T.+.# * * 0 @ : z.,.:.:.:.:.:.:.:.:.,.d.M.v.v.v.v.v.v.v.v.v.v.v.v.v.v.v.v.v.v.v.v.v.v.v.v.v.v.v.v.v.v.v.c.N.h.0XJXLXLXLXLXLXLXLXLXLXLX6XL ( _ -X_ S.C.c.M.M.c.:                                           ",
"                                            i N.M.v.k.I.g.# % * = 7 q ..b d b b b b b b z f *.N.M.v.v.v.v.v.v.v.v.v.v.v.v.v.v.v.v.v.v.v.v.v.v.v.v.v.v.v.v.v.v.v.m.1.rXHXLXLXLXLXLXLXLXLXLXLX6XL ( _ &X(.S.m.c.v.C.=.                                            ",
"                                            + c.M.v.l.Z.U.* 5 * . ) PXSXGXGXGXGXGXGXGXGXJX8X:.m.b.v.v.v.v.v.v.v.v.v.v.v.v.v.v.v.v.v.v.v.v.v.v.v.v.v.v.v.v.v.v.b.M.:.8XLXLXLXLXLXLXLXLXLXLXLX6XL ( _ &XH.S.l.v.v.C.|                                             ",
"                                              &.C.b.c.M.Y.z 5 * . _ LXLXLXLXLXLXLXLXLXLXLXvXX.B.M.v.v.v.v.v.v.v.v.v.v.v.v.v.v.v.v.v.v.v.v.v.v.v.v.v.v.v.v.v.v.M.B.X.eXLXLXLXLXLXLXLXLXLXLXLX6XL _ -X/ F.Z.k.b.M.M.u                                             ",
"                                              } C.v.v.c.U.+.5 = . ` LXLXLXLXLXLXLXLXLXLXLXAX{ l.C.v.v.v.v.v.v.v.v.v.v.v.v.v.v.v.v.v.v.v.v.v.v.v.v.v.v.v.v.v.v.C.l.{ AXLXLXLXLXLXLXLXLXLXLXLX6XL _ &X0.I.M.c.b.N.d.O                                             ",
"                                              p C.v.b.l.S.P.# $ . ` LXLXLXLXLXLXLXLXLXLXLXLX0.o.Z.C.v.v.v.v.v.v.v.v.v.v.v.v.v.v.v.v.v.v.v.v.v.v.v.v.v.v.v.v.C.Z.o.q.LXLXLXLXLXLXLXLXLXLXLXLX6XU _ &Xy.S.c.v.M.C.#.                                              ",
"                                              O s.M.M.l.Z.U.4 # . ` LXLXLXLXLXLXLXLXLXLXLXLXAXd o.Z.Z.C.C.C.C.C.C.C.C.C.C.C.C.C.C.C.C.C.C.C.C.C.C.C.C.C.C.Z.Z.o.d SXLXLXLXLXLXLXLXLXLXLXLXLX6XU -X%XL.S.l.v.v.C.x                                               ",
"                                                #.C.v.c.m.Y.N # . ( LXLXLXLXLXLXLXLXLXLXLXLXLXmXs h :.f.<.<.<.<.<.<.<.<.<.<.<.<.<.<.<.<.<.<.<.<.<.<.<.<.f.:.h s mXLXLXLXLXLXLXLXLXLXLXLXLXLX6XH &Xq.I.C.k.M.M.c.:                                               ",
"                                                v C.v.b.l.Y.u.# . _ LXLXLXLXLXLXLXLXLXLXLXLXLXLXGXe.d g f f f f f f f f f f f f f f f f f f f f f f f f g d e.GXLXLXLXLXLXLXLXLXLXLXLXLXLXLX6XU &X).I.v.c.b.C.&.                                                ",
"                                                ; v.M.v.k.S.E.% . ) LXLXLXLXLXLXLXLXLXLXLXLXLXLXLXLXFXMXNXNXNXNXNXNXNXNXNXNXNXNXNXNXNXNXNXNXNXNXNXNXNXNXMXFXLXLXLXLXLXLXLXLXLXLXLXLXLXLXLXLX6XK %XL.S.l.M.v.C.c                                                 ",
"                                                  >.N.v.c.B.R.z . ( LXLXLXLXLXLXLXLXLXLXLXLXLXLXLXLXLXLXLXLXLXLXLXLXLXLXLXLXLXLXLXLXLXLXLXLXLXLXLXLXLXLXLXLXLXLXLXLXLXLXLXLXLXLXLXLXLXLXLXLX3XD ( I.C.k.M.M.v.;                                                 ",
"                                                  | C.m.v.l.Y.u.. L LXLXLXLXLXLXLXLXLXLXLXLXLXLXLXLXLXLXLXLXLXLXLXLXLXLXLXLXLXLXLXLXLXLXLXLXLXLXLXLXLXLXLXLXLXLXLXLXLXLXLXLXLXLXLXLXLXLXLXKX( D ).I.v.c.b.N.=.                                                  ",
"                                                  p N.v.M.l.S.~.. 7 KXLXLXLXLXLXLXLXLXLXLXLXLXLXLXLXLXLXLXLXLXLXLXLXLXLXLXLXLXLXLXLXLXLXLXLXLXLXLXLXLXLXLXLXLXLXLXLXLXLXLXLXLXLXLXLXLXLXLXDX! R E.S.l.v.v.C.c                                                   ",
"                                                  + d.M.M.k.N.^.4 X mXLXLXLXLXLXLXLXLXLXLXLXLXLXLXLXLXLXLXLXLXLXLXLXLXLXLXLXLXLXLXLXLXLXLXLXLXLXLXLXLXLXLXLXLXLXLXLXLXLXLXLXLXLXLXLXLXLXPXwXD T Y.N.k.M.v.b.1                                                   ",
"                                                    @.C.v.v.l.Y.u.. 3XKXPXLXLXLXLXLXLXLXLXLXLXLXLXLXLXLXLXLXLXLXLXLXLXLXLXLXLXLXLXLXLXLXLXLXLXLXLXLXLXLXLXLXLXLXLXLXLXLXLXLXLXLXLXLXLXLXFX3XC }.I.l.c.M.M.*.                                                    ",
"                                                    x C.v.M.l.I.~.. w NXFXLXLXLXLXLXLXLXLXLXLXLXLXLXLXLXLXLXLXLXLXLXLXLXLXLXLXLXLXLXLXLXLXLXLXLXLXLXLXLXLXLXLXLXLXLXLXLXLXLXLXLXLXLXLXFXmX! R E.S.l.M.v.C.c                                                     ",
"                                                    + d.M.M.l.B.^.z . 6XGXKXLXLXLXLXLXLXLXLXLXLXLXLXLXLXLXLXLXLXLXLXLXLXLXLXLXLXLXLXLXLXLXLXLXLXLXLXLXLXLXLXLXLXLXLXLXLXLXLXLXLXLXLXKXMX7XC (.Y.B.k.M.b.v.1                                                     ",
"                                                      #.C.b.v.l.Y.J.. w mXBXLXLXLXLXLXLXLXLXLXLXLXLXLXLXLXLXLXLXLXLXLXLXLXLXLXLXLXLXLXLXLXLXLXLXLXLXLXLXLXLXLXLXLXLXLXLXLXLXLXLXLXLXBXqXK D J.I.l.v.b.N.*.                                                      ",
"                                                      g N.v.M.h.D.^.> . ^ MXMXLXLXLXLXLXLXLXLXLXLXLXLXLXLXLXLXLXLXLXLXLXLXLXLXLXLXLXLXLXLXLXLXLXLXLXLXLXLXLXLXLXLXLXLXLXLXLXLXLXLXMXqXP D / Y.A.l.M.v.N.x                                                       ",
"                                                      + d.M.M.l.z.^.(.X . _ mXmXLXLXLXLXLXLXLXLXLXLXLXLXLXLXLXLXLXLXLXLXLXLXLXLXLXLXLXLXLXLXLXLXLXLXLXLXLXLXLXLXLXLXLXLXLXLXLXLXmXqX^ F $X).Y.l.c.M.v.c.+                                                       ",
"                                                        $.N.v.b.h.U.XX6 . . ( wXwXGXLXLXLXLXLXLXLXLXLXLXLXLXLXLXLXLXLXLXLXLXLXLXLXLXLXLXLXLXLXLXLXLXLXLXLXLXLXLXLXLXLXLXLXLXGXwX6XP F ' ~ ~.I.h.b.b.N.@.                                                        ",
"                                                        a M.v.M.k.z.XXB @ o . F 7X0XwXMXNXGXDXDXFXFXFXFXFXFXFXDXDXFXFXFXFXFXFXFXFXFXFXFXFXFXFXFXFXFXFXDXFXFXFXFXFXDXGXGXVXwX7X( L F ` ~ 9.R.B.k.M.v.M.a                                                         ",
"                                                        o i.M.M.v.4.U.oX% $ * . * L ` ) 5X<X%X~ W E Q Q Q Q Q Q Q Q Q Q Q Q Q Q Q Q Q Q Q Q Q Q Q Q Q Q Q Q Q E ~ $X=X) ` P I G L ^ / D /.Y.h.v.M.M.i.o                                                         ",
"                                                          c N.v.M.k.x..X[.. % 0 o . & w w N ).[.7X4X,X,X_.4X,X4X4X4X4X4X4X4X4X4X4X4X4X4X4X4X4X4X4X,X_.4X4Xt.4X7XrX{.+.j S F F P ^ ^ D T ^.N.l.M.v.N.}                                                           ",
"                                                          : d.v.M.b.h.A.pXT . = w * & o X : a.R.oXpXpXpXpXpXpXpXpXpXpXpXpXpXpXpXpXpXpXpXpXpXpXpXpXpXpXpXpXpXpX+X^.S.-.K K I P P ^ ! C /.Y.h.v.M.v.c.;                                                           ",
"                                                          .  .M.b.M.v.3.F.sXH . = 0 0 0 0 # @ k :.f.M.C.N.m.m.m.m.m.m.m.m.m.m.m.m.m.m.m.m.m.m.m.m.m.m.B.C.N.f.:.] > 8 e P I I ^ P Z [..XB.h.b.b.M.@..                                                           ",
"                                                            ; d.v.M.b.c.3.Q.jXH . = 0 0 0 = . . ;  .:.<.B.B.h.h.l.l.l.l.l.l.l.l.l.l.l.l.l.l.l.l.h.l.B.B.f.:.X.u X . o F P I ^ I Z `.OXF.5.v.M.c.b.u                                                             ",
"                                                            . | v.v.N.v.c.3.Q.jXT . & w 0 w 0 o . o x &.i.b.C.M.v.v.b.b.b.b.b.b.b.b.b.b.b.b.v.v.C.C.b.i.&.n + . . r ^ P I P S Z rXaXE.3.c.M.M.M.&..                                                             ",
"                                                              O >.d.M.M.v.k.3.W.jX`.. X 0 0 0 w & . . 1  .=.s.N.C.M.v.v.v.v.v.v.v.v.v.v.v.v.M.C.M.s.*.| 1 X . * U ^ I L I V V uXaXK.3.l.v.M.v.b.p                                                               ",
"                                                              . u s.d.C.M.v.l.3.K.jX8XX . 0 0 0 q 0 X . o a @.>.c.C.N.b.v.v.v.v.v.v.v.v.M.C.C.d.>.O.a X . X r P I F L S 8 ! hXOXD.3.c.v.M.M.b.&..                                                               ",
"                                                                . g s.d.C.M.v.c.3.D.aXcXt . & w 0 w w & . . : v &.a.v.C.N.v.v.v.v.v.v.C.C.c.i.#.x + . . 0 F I F F F 9 Z 6XjX Xm.4.v.v.b.C.k.v.u                                                                 ",
"                                                                  . v s.k.C.M.v.v.6.m.+XlXT . . 0 w 0 q 0 o . . 1 | *.s.v.C.N.v.v.N.C.v.a.&.c ; . . & r L F G F e 8 Q cXsXW.5.h.v.v.M.C.k.d.c .                                                                 ",
"                                                                  . . v i.d.C.M.v.v.4.5.!.lX8X= . = w 0 w q * . . . u | *.s.M.C.C.b.s.&.| 1 X . o q F F G G r 8 t rXlXoXM.3.l.b.v.M.C.d.a.} .                                                                   ",
"                                                                    . . x i.d.C.M.v.v.l.3.D.aXxXP . . 0 w 0 q w & . . o i  .=.d.d.=.| i X . . 0 G F r m m 7 8 ^ xXaXE.j.4.v.v.v.N.C.s.>.v . .                                                                   ",
"                                                                      . . a >.a.N.N.v.v.c.4.z. XlXeXw . % w w w e w & . . o p $.@.a o . . = r G r r m w # V fXzX Xm.3.k.v.v.b.C.M.a.&.p . .                                                                     ",
"                                                                        . . u &.i.v.C.M.v.v.h.3.D.pXCX_.X . = q w q e 0 o . . + + . . & t r r r r w # 9 6XlXOXF.3.h.v.v.v.N.C.c.i.O.; . .                                                                       ",
"                                                                          . . ; O.i.c.C.M.v.b.c.4.z.!.jXcXI . . y q w e e 0 o . . o w r r e r q # 6 ` xXsXW.x.3.l.v.v.M.C.M.s.=.v o . .                                                                         ",
"                                                                            . . o v >.s.M.C.v.v.v.h.3.M.oXlXyXr . X 0 q q e e * * e e e e q @ @ I fXzX Xm.3.l.v.v.v.N.C.k.i.$.u . .                                                                             ",
"                                                                                . . i #.i.v.C.M.v.v.v.4.5.F.OXCX8Xe . X 0 t q e e t t w @ X A yXlXoXA.3.h.v.v.v.M.C.M.a.*.v O . .                                                                               ",
"                                                                                  . . : } >.d.M.C.b.v.b.c.4.j.K.aXCX8Xe . X 0 t e q @ X r 8XlXOXF.j.4.c.v.v.M.C.N.d.>. .1 . . .                                                                                 ",
"                                                                                    . . . p @.i.c.C.N.v.v.v.l.3.l.W.sXCX8Xe . X $ . t rXCXaXE.j.4.l.v.v.v.N.C.c.i.#.g . . .                                                                                     ",
"                                                                                        . . : c *.s.M.C.M.v.v.v.l.3.z.W.aXCX8Xt 7 7XCXsXW.z.3.l.v.v.v.M.C.M.s.*.c ; . . .                                                                                       ",
"                                                                                          . . . u  .>.d.N.C.M.v.v.v.l.3.z.W.aXCXCXsX!.z.3.l.v.v.v.M.C.M.d.>. .u . . .                                                                                           ",
"                                                                                              . . o g @.i.c.C.C.b.v.v.v.l.3.z.W.|.M.3.h.v.v.v.M.C.C.k.i.$.a . . .                                                                                               ",
"                                                                                                . . . : v &.a.v.C.N.v.v.v.v.l.5.5.h.v.b.v.b.C.C.c.i.#.x + . . .                                                                                                 ",
"                                                                                                    . . . ; c &.a.v.C.N.v.v.v.v.v.v.v.v.N.C.v.a.&.c ; . . .                                                                                                     ",
"                                                                                                        . . . u | =.s.v.C.N.b.v.v.v.N.C.v.a.*.} 1 . . .                                                                                                         ",
"                                                                                                          . . . . u | *.s.v.C.N.M.C.M.s.=.| u . . .                                                                                                             ",
"                                                                                                              . . . . u | *.s.b.M.d.=. .i . . . .                                                                                                               ",
"                                                                                                                  . . . . u } =.a.O.p o . . .                                                                                                                   ",
"                                                                                                                      . . . . i x O . . .                                                                                                                       ",
"                                                                                                                          . . . . . .                                                                                                                           ",
"                                                                                                                              . .                                                                                                                               "
};
