/* XPM */
static char *d188c3ac031a4f56f2f37f13cfebc430sUJtHCOeON0wR3f6[] = {
/* columns rows colors chars-per-pixel */
"16 16 220 2 ",
"   c #EEAB3C",
".  c #DCAB4A",
"X  c #B3A560",
"o  c #B4A359",
"O  c #BAB376",
"+  c #CEC67F",
"@  c #CCBA68",
"#  c #CBBD6C",
"$  c #F4C85D",
"%  c #FFCA52",
"&  c #E9A93B",
"*  c #F4BD54",
"=  c #B8A05C",
"-  c #7A6E48",
";  c #AEB35A",
":  c #CFC36D",
">  c #FFCF67",
",  c #FFC850",
"<  c #E4A539",
"1  c #F1B954",
"2  c #E3C66E",
"3  c #D2C962",
"4  c #E8D578",
"5  c #FFCE69",
"6  c #FFC74F",
"7  c #FBDA77",
"8  c #FFDC59",
"9  c black",
"0  c #452B00",
"q  c #1D0B00",
"w  c #7B4E00",
"e  c #6F4300",
"r  c #744400",
"t  c #835200",
"y  c #613B00",
"u  c #553100",
"i  c #261400",
"p  c #382100",
"a  c #8A6100",
"s  c #865E00",
"d  c #392300",
"f  c #462C00",
"g  c #513000",
"h  c #4D2E00",
"j  c #3A2300",
"k  c #3E2600",
"l  c #4E2C00",
"z  c #4C2A00",
"x  c #442100",
"c  c #030000",
"v  c #1D1100",
"b  c #070000",
"n  c #0F0600",
"m  c #130800",
"M  c #311900",
"N  c #FBF29A",
"B  c #FFD24B",
"V  c #D68F19",
"C  c #D9911B",
"Z  c #FFD34E",
"A  c #FAEC91",
"S  c #D8B043",
"D  c #F2C646",
"F  c #CD9215",
"G  c #CB8A10",
"H  c #EEF975",
"J  c #FAB540",
"K  c #F6BA5A",
"L  c #FFF98B",
"P  c #FFF340",
"I  c #FAD42C",
"U  c #FFF486",
"Y  c #81561A",
"T  c #B78328",
"R  c None",
"E  c #DA9A2A",
"W  c #CB9630",
"Q  c #9F7125",
"!  c #633C00",
"~  c #411C00",
"^  c black",
"/  c #7D5800",
"(  c #967503",
")  c #B39242",
"_  c #412200",
"`  c #987002",
"'  c #A77F1E",
"]  c #B78005",
"[  c #A56C00",
"{  c #B37F00",
"}  c #945A00",
"|  c #5A3300",
" . c #926800",
".. c #A77911",
"X. c #472700",
"o. c #AF7900",
"O. c #A77200",
"+. c #583B00",
"@. c #5C3A00",
"#. c #9F7004",
"$. c #A27800",
"%. c black",
"&. c #130000",
"*. c #644201",
"=. c #6C4600",
"-. c #0D0100",
";. c #A37F0B",
":. c #A37D0B",
">. c #0E0000",
",. c #DC9915",
"<. c #431E00",
"1. c #363029",
"2. c #35302C",
"3. c #44210C",
"4. c #D28911",
"5. c #240900",
"6. c #6E5919",
"7. c #E79718",
"8. c #E39316",
"9. c #755E28",
"0. c #24050A",
"q. c #5C3D12",
"w. c #8D8F90",
"e. c #FFEB9C",
"r. c #ECBD90",
"t. c #ECBE91",
"y. c #FFE690",
"u. c #A0A3A9",
"i. c #4E3426",
"p. c #2E1000",
"a. c #8490AB",
"s. c white",
"d. c #E2F9FF",
"f. c #D9F9FF",
"g. c #DAF9FF",
"h. c #E0F8FF",
"j. c #99ACCF",
"k. c #3C2319",
"l. c #7C4F00",
"z. c #3B2707",
"x. c #FFFFE9",
"c. c #E1E0DD",
"v. c #C8851E",
"b. c #DD9520",
"n. c #DD931F",
"m. c #CF8B21",
"M. c #C8D7D2",
"N. c #F8F4DA",
"B. c #82746A",
"V. c #A77C40",
"C. c #713E00",
"Z. c #FFFFE2",
"A. c #E7DBDB",
"S. c #D86F05",
"D. c #E98400",
"F. c #E78409",
"G. c #EA860D",
"H. c #BB7C25",
"J. c #E08B03",
"K. c #B59361",
"L. c #573300",
"P. c #D5CEAC",
"I. c #E7F2FF",
"U. c #E6F2FF",
"Y. c #E5F3FF",
"T. c #ECFCFF",
"R. c #F4E7E0",
"E. c #D0863A",
"W. c #948357",
"Q. c #694806",
"!. c #93681A",
"~. c #E4D199",
"^. c #D3D7C9",
"/. c #D1D3C2",
"(. c #CFD0BA",
"). c #CBD0C0",
"_. c #BCC0D9",
"`. c #977844",
"'. c #6F570F",
"]. c #826060",
"[. c #EE9D2F",
"{. c #D56E00",
"}. c #E37800",
"|. c #E57800",
" X c #CC5C00",
".X c #F0D8B9",
"XX c #BFE2FF",
"oX c #A28230",
"OX c #BACED9",
"+X c #FDFAFF",
"@X c #D9A67A",
"#X c #E5AE70",
"$X c #E3AE71",
"%X c #DCA578",
"&X c #FEF6FA",
"*X c #D3E3EE",
"=X c #A5A679",
"-X c #D7E0FF",
";X c #E1FFFF",
":X c #E3FFFF",
">X c #DCE6FF",
",X c #B4B293",
"<X c #C5AA11",
"1X c #2A3648",
"2X c #947847",
"3X c #FDC74D",
"4X c #FBC449",
"5X c #937444",
"6X c #2E4370",
"7X c #CFB72F",
"8X c #C9AE1D",
"9X c #41431C",
"0X c #6C3300",
"qX c #6B3404",
"wX c #474731",
"eX c #CEB12F",
"rX c #E2BE29",
"tX c #7D7E47",
"yX c #7F804E",
"uX c #E3BD29",
/* pixels */
"  . X o O N B V C Z A + @ # $ % ",
"& * = - S ,.<.1.2.3.4.D ; : > , ",
"< 1 2 3 F 5.6.7.8.9.0.G H 4 5 6 ",
"J K L P q.w.e.r.t.y.u.i.I U 7 8 ",
"Y T R p.a.s.d.f.g.h.s.j.k.E W Q ",
"9 ! l.z.x.c.v.b.n.m.M.N.B.V.~ ^ ",
"0 / ( C.Z.A.S.D.F.G.H.J.K.) _ q ",
"w e ` L.P.s.I.U.Y.T.R.E.W.' r t ",
"y u ] Q.!.~.^./.(.).s._.`.[ i p ",
"a s { '.].[.{.}.|. X.XXXoX} d f ",
"g h |  .OX+X@X#X$X%X&X*X..X.j k ",
"l z x o.=X-Xs.;X:Xs.>X,XO.9 9 c ",
"v v c +.<X1X2X3X4X5X6X7X@.9 b b ",
"9 9 9 9 #.8X9X0XqXwXeX$.%.9 c c ",
"c c 9 n &.*.rXtXyXuX=.^ 9 9 9 9 ",
"c c 9 m M 9 -.;.:.>.9 9 9 9 9 9 "
};
