/* XPM */
static char *ff87f62df1454874ef987d5557517f6ejMfikB86D6STCVLj[] = {
/* columns rows colors chars-per-pixel */
"48 48 231 2 ",
"   c None",
".  c #010100",
"X  c #01010C",
"o  c #0B0600",
"O  c #1B1101",
"+  c #000113",
"@  c #00011B",
"#  c #05091B",
"$  c #131114",
"%  c #2B0D02",
"&  c #281904",
"*  c #361F12",
"=  c #3A2500",
"-  c #352400",
";  c #38321D",
":  c #3D3506",
">  c #000025",
",  c #030D27",
"<  c #0B1524",
"1  c #111B31",
"2  c #17253B",
"3  c #242428",
"4  c #3A373D",
"5  c #11210F",
"6  c #432B01",
"7  c #4B3202",
"8  c #533301",
"9  c #5A3600",
"0  c #403013",
"q  c #643B00",
"w  c #53470E",
"e  c #6A4504",
"r  c #744B00",
"t  c #764800",
"y  c #7C5400",
"u  c #654F17",
"i  c #79670C",
"p  c #474D34",
"a  c #765B21",
"s  c #1B2545",
"d  c #172A52",
"f  c #223449",
"g  c #283451",
"h  c #313C57",
"j  c #2C2F4F",
"k  c #364C50",
"l  c #3C5169",
"z  c #374B74",
"x  c #465D5F",
"c  c #4E5052",
"v  c #6D6A57",
"b  c #4B556A",
"n  c #465375",
"m  c #454D65",
"M  c #5A6962",
"N  c #4F6563",
"B  c #666768",
"V  c #697471",
"C  c #5D6055",
"Z  c #835400",
"A  c #885900",
"S  c #995C01",
"D  c #964F00",
"F  c #AA5100",
"G  c #B35B01",
"H  c #9A6600",
"J  c #8B6813",
"K  c #A56A01",
"L  c #BC6C00",
"P  c #B36500",
"I  c #AE7400",
"U  c #A57909",
"Y  c #B57500",
"T  c #BB7500",
"R  c #B67E02",
"E  c #9A5A2C",
"W  c #8D6733",
"Q  c #8F732A",
"!  c #AC7425",
"~  c #AD7537",
"^  c #AF7735",
"/  c #B77439",
"(  c #AE7128",
")  c #CA6600",
"_  c #C47C00",
"`  c #C87A07",
"'  c #DA7A00",
"]  c #DA7200",
"[  c #E57E00",
"{  c #CE7929",
"}  c #9C7665",
"|  c #A37F68",
" . c #816E4C",
".. c #7B8C36",
"X. c #768567",
"o. c #7B8676",
"O. c #BB8B0F",
"+. c #BB8412",
"@. c #AD8000",
"#. c #A48826",
"$. c #C98200",
"%. c #C58200",
"&. c #D78701",
"*. c #D99A1A",
"=. c #DE9B07",
"-. c #EC8C00",
";. c #E68900",
":. c #F68C00",
">. c #FC8B00",
",. c #F48401",
"<. c #E49200",
"1. c #E99200",
"2. c #EF9B00",
"3. c #F59300",
"4. c #FC9300",
"5. c #F49D00",
"6. c #FD9C00",
"7. c #F2980B",
"8. c #D3A90D",
"9. c #F5A200",
"0. c #FEA301",
"q. c #FFAA00",
"w. c #FFAE0E",
"e. c #FBA509",
"r. c #FFB300",
"t. c #FFBC01",
"y. c #F3B000",
"u. c #E6A917",
"i. c #FEAA14",
"p. c #FEB616",
"a. c #E6AC12",
"s. c #C69535",
"d. c #DB9324",
"f. c #CDA235",
"g. c #D4A835",
"h. c #D5AC2E",
"j. c #F3AA27",
"k. c #F0B52E",
"l. c #FFC300",
"z. c #FFCB00",
"x. c #FFCE09",
"c. c #FFC71A",
"v. c #FFD504",
"b. c #FFC427",
"n. c #FDC93A",
"m. c #F2CF36",
"M. c #82905C",
"N. c #AB9D4F",
"B. c #AE9650",
"V. c #9EA05F",
"C. c #BCBA42",
"Z. c #B2A357",
"A. c #BDA850",
"S. c #B4A355",
"D. c #9C8D6C",
"F. c #8B9471",
"G. c #939A78",
"H. c #878970",
"J. c #AB8D78",
"K. c #AC8E77",
"L. c #B08F70",
"P. c #9BA068",
"I. c #ABAD74",
"U. c #D6B348",
"Y. c #F2BA45",
"T. c #CE9A66",
"R. c #CEBC6F",
"E. c #D9B568",
"W. c #CDBE75",
"Q. c #CFA76B",
"!. c #E6BC6B",
"~. c #DEC945",
"^. c #FDC94C",
"/. c #FED048",
"(. c #F6C754",
"). c #EECC5A",
"_. c #D6C763",
"`. c #F1CA63",
"'. c #F8D569",
"]. c #F1D677",
"[. c #EECF62",
"{. c #415E81",
"}. c #5C6885",
"|. c #536991",
" X c #676F87",
".X c #5577AF",
"XX c #5A7CB5",
"oX c #6279A7",
"OX c #788797",
"+X c #6A8084",
"@X c #748AAF",
"#X c #949C83",
"$X c #94948C",
"%X c #969696",
"&X c #898F8D",
"*X c #B49F99",
"=X c #8AA088",
"-X c #8A9DAE",
";X c #8E91A3",
":X c #8FA1AF",
">X c #B2A5AD",
",X c #A4AFB5",
"<X c #B1B8AC",
"1X c #E6DB8A",
"2X c #E8DC96",
"3X c #EBE69C",
"4X c #E4E4A8",
"5X c #9BAACE",
"6X c #ABB4C7",
"7X c #A5B2D2",
"8X c #A9B5D5",
"9X c #B5B6CA",
"0X c #94AFED",
"qX c #BCC1CF",
"wX c #C1C1CE",
"eX c #CAC8CF",
"rX c #D5C9D0",
"tX c #E8D7C5",
"yX c #CCD3EC",
"uX c #D2D5EC",
"iX c #CDD3EF",
"pX c #DAEAFB",
"aX c #C9E2FF",
"sX c #E3EBFA",
"dX c #F0EFFA",
"fX c #E7F1FE",
"gX c #EAF4FF",
"hX c #EFFFFF",
"jX c #F5FDFF",
"kX c #FFFFFF",
"lX c #F6F6F5",
/* pixels */
"                                          2X].'.].].2X                                          ",
"                                    1X(.j.5.:.:.:.3.7.j.`.2X                                    ",
"                                1XY.7.:.6.q.0.6.6.q.q.6.:.7.Y.1X                                ",
"                              '.7.>.q.q.T r 8 = 6 9 y _ q.q.>.7.(.                              ",
"                            k.,.q.q.H & X X X + + X + + & S q.q.,.k.                            ",
"                          *.5.q._ & + X @ f M H.H.N f , , < & K q.4.*.                          ",
"                          k.q.S X + @ k F.!.^.b.n.^.E.F.l s 2 , q 6.p.                          ",
"                          c.-.$ @ 2 F.'.b.4.,.;.;.,.4.b.[.G.z m s Y t.U.                        ",
"                        m.q.K > # C.m.4.4.6.0.0.0.0.6.4.4.c.~.c z a 6.k.                        ",
"                      _.e.q.7 . : &.G L L L L L L L L L T G ;.a d 4 ;.0.).                      ",
"                    1Xi.q.H X V tXrXqXwXwXwXwXwXwXwXwXwXwXqXeXtX$Xs 8 q.4.[.                    ",
"                2X(.e.q.T . 6XkXkXkXkXkXkXkXkXkXkXkXkXkXkXkXkXkXkXeX, t q.6.Y.3X                ",
"            3X^.p.0.3.A . &XkXkXkXkXkXkXkXkXkXkXkXkXkXkXkXkXkXkXkXkX,X# 9 <.0.w.(.4X            ",
"        S ` e.] P r O . 3 lXkXkXkXkXkXkXkXkXkXkXkXkXkXkXkXkXkXkXkXkXlX Xg $ q ` [ i.*.+.        ",
"          Z l.R X + + . o.kXkXkXkXkXdXyXuXuXuXuXuXuXuXuXyXdXkXkXkXkXkX$X}.}.h # U t.S           ",
"            r.=.< # p N.!.kXkXkXkXiXOXG.#X#X#X#X#X#X#X#XG.OXuXkXkXkXkXE.A.%X%X@X*.r.r           ",
"            5.r.; @ #.t.T.jXkXkXjX=X8.w.w.w.w.w.w.w.w.w.w.8.=XjXkXkXkXT.6.s.|.%Xe.6.            ",
"            &.l.u > e 4.Q.jXkXkXpXs.4.;.-.-.-.-.-.-.-.-.;.4.U.0X7X7X0XQ.>.W XXD.q.-.            ",
"            Y z.J > 0 4.Q.jXkXkXsX{ 6.2.2.2.2.2.2.2.2.2.2.3.j.I.N.N.P.U.4.v XXB.r.$.            ",
"            A z.U > $ &.E.jXkXkXkXD.) 6.4.4.4.4.4.4.4.4.4.3.4.6.q.0.6.0.&.B @Xs.r.H             ",
"              t.=.< @ P !.jXkXkXkXsX} ( ~ ~ ~ ~ ~ ~ ~ ~ ~ ~ ~ ( G -.5.6.` }.OXd.r.r             ",
"              q.r.; > D !.jXkXkXkXkXjXsXfXfXfXfXfXfXfXfXfXfXgXfX6XE ;.q.! |.&Xe.q.              ",
"              &.l.u > t g.pXkXkXkXkXkXkXkXkXkXkXkXkXkXkXkXkXkXkXkXyXE 6.W .XD.q.<.              ",
"              K z.J > * =.,XkXkXkXkXkXkXkXkXkXkXkXkXkXkXkXkXkXkXkXkX9X)  ..XB.r._               ",
"              A t.O.> # &.C.0XkXkXkXkXkXkXkXkXkXkXkXkXkXkXkXkXkXkXkXkX/ C oXs.r.H               ",
"                q.a.3 > S t.V.@X5X8X7X7X7X7X7X7X7X7X7X7X5XyXkXkXkXkXkXL.c OX*.q.y               ",
"                1.t.w > e q.e.g.Z.Z.Z.Z.Z.Z.Z.Z.Z.Z.Z.Z.A.X.8XkXkXkXkXH.b H.0.0.                ",
"                T z.i > * 5.4.>.6.q.0.0.0.0.0.0.0.0.0.0.6.y.P.sXkXkXkX&Xn D.q.<.                ",
"                Z z.+.@ 3 ^ ( ! E &.5.1.1.1.1.1.1.1.1.1.1.>.d.pXkXkXkX%Xn B.t.I                 ",
"                  q.a.. B kXsXgXaX/ 6.9.5.5.5.5.5.5.5.5.9.5./ gXkXkXkX%Xb u.r.r                 ",
"                  <.x.- b kXkXkXkX*XF [ ' ' ' ' ' ' ' ' [ F *XkXkXkXkX;XC r.6.                  ",
"                  I v.e n kXkXkXkXkX>X| K.J.J.J.J.J.J.K.| >XkXkXkXkXkX@XQ t.$.                  ",
"                  r l.@.M kXkXkXkXkXkXkXkXkXkXkXkXkXkXkXkXkXkXkXkXkXkXOXO.t.Z                   ",
"                    0.y.p uXkXkXkXkXkXkXkXkXkXkXkXkXkXkXkXkXkXkXkXkXaXv q.q.                    ",
"                    _ x.i }.kXkXkXkXkXkXkXkXkXkXkXkXkXkXkXkXkXkXkXkXoXQ l.$.                    ",
"                    y r.8.5 ;XkXkXkXkXkXkXkXkXkXkXkXkXkXkXkXkXkXlX&Xk u.q.y                     ",
"                      3.c.... c $X<X,X-X:X:X:X:X:X:X:X-X-X,X<X$XB j M.t.5.                      ",
"                      I q./.k . . 8 h.n.g.f.g.g.g.g.f.g.n.h.e 3 j {.m.q.I                       ",
"                      = 9.0.).N X X % P q.q.4.:.:.4.q.q.G % 3 j {._.q.q.7                       ",
"                        e r.6.(.X., + + 7 $.r.q.q.r._ 6 # 2 h +X).e.r.I                         ",
"                          e q.6.n.I.f + @ X q 5.2.9 + , 1 l I.n.6.r.R o                         ",
"                            8 2.0.i.[.X.2 + @ & & # , g o.).i.6.q.Z .                           ",
"                              & %.q.6.n.R.M 1 + + 2 V R.b.6.q.&.=                               ",
"                                . r 9.q.e./.W.x x W./.0.q.9.r .                                 ",
"                                    O K 0.6.e.^.^.e.6.0.H O                                     ",
"                                      . = Y q.6.6.q.Y - .                                       ",
"                                          . - $.&.= .                                           ",
"                                              o o                                               "
};
