/* XPM */
static char *_8e45714e71f40e9b1905dee4b970ff95LiKVod9himJyoHC[] = {
/* columns rows colors chars-per-pixel */
"256 256 256 2 ",
"   c None",
".  c #010101",
"X  c #01010B",
"o  c #0C0B0B",
"O  c #0A0704",
"+  c #140D04",
"@  c #1A1207",
"#  c #020213",
"$  c #01031C",
"%  c #030B1E",
"&  c #0A0B17",
"*  c #0D111C",
"=  c #141413",
"-  c #13141C",
";  c #1D1D1C",
":  c #17181B",
">  c #120E19",
",  c #271903",
"<  c #221E1C",
"1  c #311E01",
"2  c #382403",
"3  c #21211E",
"4  c #2C2417",
"5  c #362916",
"6  c #040821",
"7  c #181923",
"8  c #0F1427",
"9  c #1F2024",
"0  c #232323",
"q  c #2B2B2B",
"w  c #272628",
"e  c #282836",
"r  c #333333",
"t  c #3B3B3B",
"y  c #383638",
"u  c #33302F",
"i  c #201E26",
"p  c #452C03",
"a  c #4C3104",
"s  c #573802",
"d  c #503413",
"f  c #6E3300",
"g  c #633D02",
"h  c #753900",
"j  c #763701",
"k  c #662F05",
"l  c #433932",
"z  c #684303",
"x  c #764B02",
"c  c #7E5101",
"v  c #694514",
"b  c #775317",
"n  c #4E4539",
"m  c #6B472D",
"M  c #6A492A",
"N  c #71542A",
"B  c #674F20",
"V  c #373A47",
"C  c #2F3450",
"Z  c #293052",
"A  c #443C4C",
"S  c #3B4251",
"D  c #3C4767",
"F  c #444443",
"G  c #4C4C4B",
"H  c #484648",
"J  c #494A58",
"K  c #545453",
"L  c #5B5B5B",
"P  c #56565A",
"I  c #515050",
"U  c #645C55",
"Y  c #6D6656",
"T  c #4B4A60",
"R  c #474C66",
"E  c #585766",
"W  c #5B5A65",
"Q  c #4F5673",
"!  c #615F69",
"~  c #625F62",
"^  c #5A6275",
"/  c #636264",
"(  c #6A6A6A",
")  c #666977",
"_  c #757574",
"`  c #7C7C7B",
"'  c #787878",
"]  c #72716C",
"[  c #3F403D",
"{  c #823D00",
"}  c #885601",
"|  c #945E00",
" . c #985802",
".. c #8C4E08",
"X. c #A85A01",
"o. c #9C6300",
"O. c #976204",
"+. c #966C16",
"@. c #A26600",
"#. c #A66900",
"$. c #AB6C00",
"%. c #AB6502",
"&. c #B46A00",
"*. c #B37200",
"=. c #BC7500",
"-. c #BE7900",
";. c #B7780C",
":. c #A87215",
">. c #906C33",
",. c #A67328",
"<. c #975F27",
"1. c #C47B00",
"2. c #C77901",
"3. c #D67A00",
"4. c #CB6E03",
"5. c #E17800",
"6. c #8B7953",
"7. c #817E7B",
"8. c #877B66",
"9. c #B78617",
"0. c #B38F33",
"q. c #AFA232",
"w. c #CC8200",
"e. c #C6860C",
"r. c #D38600",
"t. c #D68900",
"y. c #DC8C00",
"u. c #DC8300",
"i. c #D29615",
"p. c #EB8600",
"a. c #E28D00",
"s. c #EA8B00",
"d. c #E38400",
"f. c #F18C00",
"g. c #F58900",
"h. c #E59200",
"j. c #EC9500",
"k. c #EF9800",
"l. c #E79B0C",
"z. c #F29402",
"x. c #F39B01",
"c. c #F99E00",
"v. c #F79C09",
"b. c #E49B13",
"n. c #FCA402",
"m. c #FEAB02",
"M. c #F5A209",
"N. c #F9A60A",
"B. c #FEB709",
"V. c #F9AC13",
"C. c #FCB717",
"Z. c #EAAB10",
"A. c #C9952C",
"S. c #D3AC2F",
"D. c #F4BB25",
"F. c #D6B016",
"G. c #FFC30D",
"H. c #FEC718",
"J. c #FDD51B",
"K. c #FDC828",
"L. c #FED627",
"P. c #FED738",
"I. c #F4CC32",
"U. c #FEEA33",
"Y. c #E7D626",
"T. c #938452",
"R. c #A9894B",
"E. c #83817C",
"W. c #958A6C",
"Q. c #ADA56C",
"!. c #CCB251",
"~. c #CEB674",
"^. c #F7D846",
"/. c #FEE549",
"(. c #FFE355",
"). c #FFEC55",
"_. c #FEEB5B",
"`. c #FFF55A",
"'. c #FAF64B",
"]. c #D7CB76",
"[. c #FFF867",
"{. c #FEFC77",
"}. c #F5EC6B",
"|. c #DCD360",
" X c #5B6986",
".X c #6A7488",
"XX c #777C87",
"oX c #6A7996",
"OX c #6B748E",
"+X c #646B93",
"@X c #807F80",
"#X c #7D8188",
"$X c #788397",
"%X c #6E809F",
"&X c #7683A4",
"*X c #838384",
"=X c #8A8A8C",
"-X c #858689",
";X c #898C92",
":X c #979797",
">X c #93948E",
",X c #B8BD93",
"<X c #ABA98B",
"1X c #8D94B0",
"2X c #A8A8A7",
"3X c #BFB8AA",
"4X c #B7B4AC",
"5X c #AAB2BA",
"6X c #BAB9B9",
"7X c #ACACB3",
"8X c #A29D92",
"9X c #C2BBA6",
"0X c #C0BEBF",
"qX c #C9BB89",
"wX c #BAC190",
"eX c #BFC993",
"rX c #BDC09D",
"tX c #BAC2BE",
"yX c #D5CD8F",
"uX c #E4D997",
"iX c #E2D78D",
"pX c #FEFD87",
"aX c #EAE799",
"sX c #FFFF94",
"dX c #FEFF9B",
"fX c #F4F59B",
"gX c #EAE98B",
"hX c #CEC9B1",
"jX c #EBE7A7",
"kX c #FCFEA4",
"lX c #FBFEAA",
"zX c #F4F6A8",
"xX c #FEFEB4",
"cX c #FCFDBA",
"vX c #EEECAE",
"bX c #E5DDA2",
"nX c #AFB7CA",
"mX c #93A0C9",
"MX c #BAC4D2",
"NX c #CCCCCC",
"BX c #C8C7C5",
"VX c #D1D1CF",
"CX c #D5D2C9",
"ZX c #D8D9D8",
"AX c #C7CDD5",
"SX c #ECECD3",
"DX c #CBD6E7",
"FX c #E8E8E8",
"GX c #E8F7FE",
"HX c #F4F4F4",
"JX c #FFFFFF",
"KX c #F5F9FC",
"LX c #EAEEF3",
"PX c #DAE5ED",
"IX c #C0BEC0",
"UX c #7E807C",
/* pixels */
"                                                                                                                                                                                                                                                      yXyXuXhXhXuXyXyX                                                                                                                                                                                                                                                          ",
"                                                                                                                                                                                                                                          yXyXuXuXuXbXjXjXvXvXvXvXjXjXjXbXuXuXyXyXyX                                                                                                                                                                                                                                            ",
"                                                                                                                                                                                                                                  yXuXuXjXvXxXxXxXxXlXlXkXdXdXdXdXkXkXlXxXxXxXxXzXvXbXbXyXyX                                                                                                                                                                                                                                    ",
"                                                                                                                                                                                                                          qXuXjXvXzXlXlXkXsXpX{.[.[._.)././././././.).)._.[.{.pXsXdXkXlXxXzXvXjXyXyX                                                                                                                                                                                                                            ",
"                                                                                                                                                                                                                    uXaXjXvXzXlXdXsX{._./.P.K.D.C.V.N.M.v.x.v.v.x.v.M.M.N.V.C.K.I.^.(._.{.sXdXlXzXvXjXuXyXqX                                                                                                                                                                                                                    ",
"                                                                                                                                                                                                              yXiXjXzXlXkXsX{._.P.K.C.N.v.z.f.s.p.p.s.s.p.p.s.s.s.s.s.s.p.p.s.s.z.z.v.V.C.K.P._.{.sXkXlXzXjXuXyX                                                                                                                                                                                                                ",
"                                                                                                                                                                                                          yXaXzXlXkXpX[./.P.C.M.z.p.p.p.p.p.s.s.s.s.s.s.j.j.j.j.j.j.j.j.s.s.s.s.s.p.p.p.p.f.z.M.C.I./._.pXdXlXzXjXyX~.                                                                                                                                                                                                          ",
"                                                                                                                                                                                                    ~.uXzXzXkXsX[./.K.V.v.f.p.p.s.s.s.j.j.j.j.j.j.j.j.j.j.j.j.j.j.j.j.j.j.j.j.j.j.j.j.j.s.s.s.p.p.z.x.V.K./.[.pXkXlXzXaXyX                                                                                                                                                                                                      ",
"                                                                                                                                                                                                yXuXzXlXdXpX_.K.V.v.f.p.p.s.s.s.j.j.j.j.j.k.j.j.k.j.j.j.j.j.j.j.j.j.j.j.j.k.k.k.j.k.j.j.j.j.j.s.s.s.s.p.p.z.V.K./.{.sXkXzXaXiX~.                                                                                                                                                                                                ",
"                                                                                                                                                                                            ~.iXzXlXdX[.^.H.M.f.p.p.p.s.j.j.j.j.j.j.j.j.j.j.j.j.j.j.j.j.j.j.j.j.j.j.j.j.j.j.j.j.j.j.j.j.j.j.j.j.j.j.j.s.s.p.p.p.v.C.I.).pXkXlXjXiX~.                                                                                                                                                                                            ",
"                                                                                                                                                                                        ~.uXzXlXsX[.P.C.z.p.p.s.s.j.j.j.j.j.j.j.j.j.j.j.j.j.j.j.j.j.j.j.j.j.j.j.j.j.j.j.j.j.j.j.j.j.j.j.j.j.j.j.j.j.j.j.j.j.s.s.p.p.z.M.K./.{.dXlXzXuX~.                                                                                                                                                                                        ",
"                                                                                                                                                                                    ].uXzXkXpX[.K.N.z.p.p.s.s.j.j.j.k.j.j.j.j.j.j.j.j.j.j.j.j.j.j.j.j.j.j.j.j.j.j.j.j.j.j.j.j.j.j.j.j.j.j.j.j.j.j.j.j.j.j.j.j.j.j.s.s.p.p.x.C.P.[.sXkXzXuXyX                                                                                                                                                                                    ",
"                                                                                                                                                                                ~.iXzXlXsX[.K.N.z.p.p.s.s.j.j.j.j.j.j.j.j.j.j.j.j.j.j.j.j.j.j.j.j.j.k.k.x.x.x.x.x.k.x.k.k.j.j.j.j.j.j.j.j.j.j.j.j.j.j.j.j.j.j.k.j.j.j.s.s.p.p.z.V.P.[.sXlXzXiX~.                                                                                                                                                                                ",
"                                                                                                                                                                              yXaXkXsX[.P.V.f.p.s.s.j.j.j.j.j.j.j.j.j.j.j.j.j.j.j.j.j.j.x.x.x.x.x.x.c.c.c.c.c.c.c.c.c.c.c.c.x.x.x.x.k.j.j.j.j.j.j.j.j.j.j.j.j.j.j.j.j.j.j.j.s.s.p.f.V.P.[.sXkXzXyX~.                                                                                                                                                                            ",
"                                                                                                                                                                          ].aXkXsX[.P.N.f.p.s.s.j.j.j.j.j.j.j.j.j.j.j.j.j.j.j.k.k.x.x.x.c.c.c.c.x.x.x.k.j.j.j.j.j.j.j.x.x.x.c.c.c.c.c.x.x.x.x.k.j.j.j.j.j.j.j.j.j.j.j.j.j.j.j.j.s.s.p.f.N.P.[.sXkXfXiX                                                                                                                                                                          ",
"                                                                                                                                                                      ~.iXfXdX{./.C.z.p.s.s.j.j.j.j.j.j.j.j.j.j.j.j.j.j.j.x.x.c.c.c.c.x.x.j.h.y.t.w.w.1.-.-.-.-.-.-.1.1.w.r.t.y.h.j.x.c.c.c.c.c.x.x.j.j.j.j.j.j.j.j.j.j.j.j.j.j.j.j.s.s.p.f.V.P.[.dXlXaX].                                                                                                                                                                      ",
"                                                                                                                                                                    ].aXkXpX).K.v.p.p.s.j.j.j.j.j.j.j.j.j.j.j.j.j.j.x.x.x.c.c.x.j.h.t.r.1.-.=.*.$.#.#.@.o.O.O.O.O.o.o.@.#.$.$.*.=.-.1.r.t.h.j.x.c.c.x.x.x.k.j.j.j.j.j.j.j.j.j.j.j.j.j.j.s.s.p.z.C.P.{.dXzXiX].                                                                                                                                                                  ",
"                                                                                                                                                                ~.iXfXsX[.P.N.g.p.s.j.j.j.j.j.j.j.j.j.j.j.j.j.x.x.x.c.c.x.j.y.r.1.=.$.@.o.O.| | | } } c x x x x x x c } } } | | | O.o.@.$.=.1.r.y.j.x.c.c.x.x.x.k.j.j.j.j.j.j.j.j.j.j.j.j.j.s.p.p.z.C./.pXkXfXiX                                                                                                                                                                ",
"                                                                                                                                                              ].fXkXpX/.C.f.p.s.j.j.j.j.j.j.j.j.j.j.j.j.k.x.c.c.c.x.j.a.r.=.$.@.o.o.O.| } x z s a p 2 2 , , , , , , 1 2 p p a s z c } | O.o.o.@.$.=.w.y.j.x.c.c.c.x.k.j.j.j.j.j.j.j.j.j.j.j.j.j.s.p.p.v.K._.sXkXaX~.                                                                                                                                                            ",
"                                                                                                                                                          !.iXfXsX[.K.v.p.p.s.j.j.k.j.j.j.j.j.j.j.j.j.x.x.c.c.x.a.w.=.$.$.@.o.| c x g a 2 , + o O O O X X X X X X X X O O O o o @ , 2 a z x c } | @.#.$.*.w.y.j.x.c.c.x.k.j.j.j.j.j.j.j.j.j.j.j.j.j.s.p.g.N.P.{.dXfXiX~.                                                                                                                                                        ",
"                                                                                                                                                        ~.gXdX{./.C.f.p.s.j.j.j.j.j.j.j.j.j.j.j.k.x.c.c.x.j.t.1.*.$.o.O.| } z p 2 , + O X X X . . . . . . . . . . . . . . . . . X X X o @ , 2 p z c } | o.@.$.-.w.h.k.c.c.c.x.j.j.j.j.j.j.j.j.j.k.j.j.s.p.p.z.C.).pXdXgX~.                                                                                                                                                      ",
"                                                                                                                                                      iXdXsX[.K.v.p.p.s.j.j.j.j.j.j.j.j.j.j.k.x.c.c.x.j.t.-.$.o.o.o.| x a , + X X X . . . . . . . . . . . . . . . . . . . . . . . . . X X X X X = 1 p z } O.o.O.@.*.w.y.j.c.c.c.x.k.j.j.j.j.j.j.j.j.j.j.j.s.p.p.M.P.[.sXkXaX                                                                                                                                                    ",
"                                                                                                                                                    !.pXpX_.C.f.p.s.j.j.j.j.j.j.j.j.j.j.j.x.c.c.x.h.r.*.#.@.@.| c s 1 o X X . . . . . . . O o o o = = = : ; : : ; ; : = = = o o o O . . . . . X X X X o , a x } O.@.@.$.-.t.j.x.c.c.x.j.j.j.j.j.j.j.j.j.j.j.j.s.p.f.C.).pXsX|.                                                                                                                                                  ",
"                                                                                                                                                  ;.I.'.P.V.g.p.s.j.j.j.j.j.j.j.j.j.j.x.c.c.x.h.w.*.$.#.o.| z p , o X X . . . . . O o o = : ; ; 0 w w q q q q q q q q q q w 0 0 ; ; : = o O . . . . . X X o @ 2 s c | @.#.$.=.r.j.c.c.c.x.j.j.j.j.j.j.j.j.j.j.j.s.p.p.V.P.`.P.e.                                                                                                                                                ",
"                                                                                                                                                  e.B.B.v.p.s.j.j.j.j.j.j.j.j.j.j.k.x.c.c.j.r.=.#.@.@.| z 2 + X . . . . . . O o = ; ; 0 w q q q q q q q q u u u r r r r r r r r r q q q w 0 : = o . . . . X X X o , a c O.o.o.$.=.r.j.c.c.x.x.j.j.j.j.j.j.j.j.j.j.j.s.p.v.C.G.i.                                                                                                                                                ",
"                                                                                                                                                  b.B.n.s.s.j.j.j.j.j.j.j.j.j.k.x.c.c.j.t.-.#.#.$.O.z 2 O X X . . . . O o : ; 0 w q q q q q q q q q q q q q q q q q q r u u r u r r r r r r r q w ; = o . . . . X X # @ p x O.@.@.#.=.t.j.c.c.x.k.j.j.j.j.j.j.j.j.j.j.s.p.c.B.l.                                                                                                                                                ",
"                                                                                                                                                  V.C.M.j.j.j.j.j.j.j.j.j.j.x.c.c.x.a.1.$.#.$.O.z 2 + X . . . . . o = ; 0 w q q q q q q q q q q q q w w w 0 9 9 0 0 w q q q q q u r r r r r r t t t r q ; = o . . . X X # @ p x | @.#.$.-.t.k.c.c.x.j.j.j.j.j.j.j.j.j.j.s.v.V.V.;.                                                                                                                                              ",
"                                                                                                                                                9.D.C.v.j.j.j.j.j.j.j.j.j.x.c.c.h.w.*.#.$.o.x 2 + X . . . . O o : ; w q q q q q q w w w w q q w 0 7 : - - & & & & > - - 7 0 q q q u u u r r r r t t t t t r q ; = O . . X X # = 2 x O.@.@.$.1.y.x.c.c.x.j.j.j.j.j.j.j.j.j.x.V.H.i.                                                                                                                                              ",
"                                                                                                                                                i.K.C.x.j.j.j.j.j.j.j.x.c.c.x.t.-.#.@.#.} a + X . . . . O = ; 0 w q q q w w w w q q q w 7 : : - - > & & & - 7 7 7 - > > > - - 7 7 9 w q r r r r r r t t F F F t r w : O . . X X # = a c o.@.@.*.w.h.c.c.x.j.j.j.j.j.j.j.j.j.V.K.F.                                                                                                                                              ",
"                                                                                                                                                F.K.V.z.j.j.j.j.j.j.x.c.c.j.w.$.#.$.O.s @ X . . . . O = ; 0 q q w w w w w w w w 0 7 ; : = X X # & i u F U ] W.W.W.] K F u i 6 # # & : 0 w w q r r r r t t t t F H F t q ; o . . X # # @ d } @.#.#.*.t.k.c.c.x.k.j.j.j.j.j.j.N.K.D.9.                                                                                                                                            ",
"                                                                                                                                              9.D.K.N.j.j.j.j.j.j.x.c.x.t.*.#.$.#.x 1 O X . . . O = ; 0 w w w w 0 0 0 0 0 0 0 9 - & # # & 7 y U W.<XyXbXvXSXSXSXSXSXvXbXyX<XW.U l w * % % - 9 q r r r r r t t t F H H H F r ; o . . X # # , s | #.#.$.1.a.x.c.x.j.j.j.j.j.j.v.C.K.i.                                                                                                                                            ",
"                                                                                                                                              A.L.C.v.j.j.j.j.x.c.c.j.w.$.#.$.| s + X . . . O = ; 0 w w w w 0 w 0 0 0 w 3 - & # # # - t Y 8XhXvXcXSXcXxXlXdXpXpXsXkXlXxXcXcXcXvXhX<X8.G w 8 * 8 7 9 q r t t t t t t F H H H H r 3 o . . X # & 5 x o.#.@.*.r.j.c.c.x.k.j.j.j.z.V.K.D.                                                                                                                                            ",
"                                                                                                                                              D.L.V.z.j.j.j.x.c.c.y.-.$.$.$.c , . . . . . o : 0 w w w 0 0 0 w w w 0 : - & X X > y Y <XbXcXSXSXlXsX{.[.(.^.I.K.D.K.P./.).[.{.sXlXcXSXcXjX<X8.G e * * 7 w e r y t t t t F F H G I H r ; O . . X # = d | $.#.$.1.a.c.x.x.j.j.j.j.M.K.I.9.                                                                                                                                          ",
"                                                                                                                                            9.I.K.N.j.j.j.x.x.j.r.*.$.*.O.a + X . . . o : ; 0 w w 0 0 0 0 0 0 0 7 - # X # i U Q.bXcXSXcXdXpX[.^.K.C.N.M.x.z.f.g.f.z.x.M.N.C.K.^.[.{.dXxXSXSXvXqX8.H i 8 8 i u y t t t V F F H H K K H r ; O . . # # < z @.$.#.*.r.j.x.x.j.j.j.v.K.P.S.                                                                                                                                          ",
"                                                                                                                                            S.P.C.v.j.j.j.c.j.w.$.$.*.} 2 X . . . O = ; 0 w 0 0 0 0 0 0 0 0 ; & X X # q ] ,XvXcXxXkXpX_.P.C.N.x.f.s.p.p.s.s.s.s.s.s.s.s.p.p.f.x.N.C.K.(.{.sXlXcXcXbXQ.U e 8 8 7 e t [ F F F F H H G K K G r : . . X # > d } $.@.#.1.j.x.x.j.s.z.C.P.I.                                                                                                                                          ",
"                                                                                                                                            I.P.V.z.s.j.x.x.y.-.#.#.x , . . . . o : 0 w w 0 0 0 0 0 0 0 : > # X & y 8.yXxXcXlXpX_.P.D.N.z.s.p.s.s.s.s.j.j.j.j.j.j.j.j.j.s.s.s.s.p.s.z.v.C.K.(.{.dXxXxXjX<X] t 7 7 e e y n F F H H H H K L K H w o . . X # 4 x O.@.=.y.x.x.j.j.j.M.K.P.A.                                                                                                                                        ",
"                                                                                                                                          A.P.K.M.j.j.j.x.j.a.t.-.g + . . . O = ; w w 0 0 0 0 0 0 0 : - # X & l W.bXcXcXdX[./.K.N.z.p.p.s.s.s.j.j.j.j.j.j.j.j.j.j.j.j.j.j.j.j.j.j.s.s.s.p.z.v.C.P.`.pXlXcXxXyXW.A i 7 e r t F H H H H H G K L K n 3 O . X # = z =.r.y.j.x.j.j.s.z.C.U.S.                                                                                                                                        ",
"                                                                                                                                          I.P.C.z.s.j.k.j.j.j.j.-., . . . o ; 0 w 0 0 0 3 3 0 0 0 - # X # y W.uXcXxXsX[.P.C.v.s.p.s.s.s.j.j.j.j.j.j.j.j.j.j.j.j.j.j.j.j.j.j.j.j.j.j.j.s.s.s.s.p.z.M.K./.{.dXxXcXyXW.H e 8 e t F H H H H H G K L L K r = . . # 5 =.j.h.h.k.j.j.s.s.N.P.^.A.                                                                                                                                      ",
"                                                                                                                                        0./.P.N.j.s.j.x.j.j.j.j.o.+ . . = ; 0 0 0 0 0 0 0 0 0 ; & X X w 8.yXxXxXsX_.L.C.v.p.s.s.s.j.j.k.j.j.j.j.j.j.j.j.j.j.j.j.j.j.j.j.j.j.j.j.j.k.k.j.j.j.j.s.s.s.f.v.C.P.[.dXxXxXyXW.H e e e t H H H H G G K L L L H 0 O . + o.j.h.h.j.x.j.j.s.v.K./.S.                                                                                                                                      ",
"                                                                                                                                        ^.'.K.z.s.j.k.x.j.h.j.h.x . X - 3 w 0 3 ; ; 0 0 0 ; - X X - U yXxXxXsX_.L.V.z.p.s.s.j.j.j.k.j.j.j.j.j.j.j.j.j.j.j.j.j.j.j.j.j.j.j.j.j.j.j.j.j.j.j.j.j.j.j.s.s.p.g.z.C.P._.sXxXlXyX8.V e e y S H G G G G I K L ( L r & X z y.h.h.j.x.k.j.s.s.V.U./.A.                                                                                                                                    ",
"                                                                                                                                      A./.P.V.s.s.j.k.x.h.y.j.t.a X & 0 w 0 0 ; 7 0 0 3 ; & . # n Q.vXxXsX[.P.N.z.p.s.s.j.j.j.j.j.j.j.j.j.j.j.j.j.j.j.j.j.j.j.j.j.j.j.j.j.j.j.j.j.j.j.j.j.j.j.j.j.j.j.s.s.s.p.z.V.P.[.sXlXzXyX] V e e V H G G G G I K L ( ( V 6 p 1.j.a.h.x.k.j.j.s.v.K.'.^.                                                                                                                                    ",
"                                                                                                                                      ^.'.D.z.s.j.j.x.x.h.t.j.*., $ 8 w 0 ; ; ; 9 0 0 - X X q W.jXxXkX{.P.V.z.p.s.s.j.j.j.j.j.j.j.j.j.j.j.j.j.j.j.j.j.j.j.j.j.j.j.j.j.j.j.j.j.j.j.j.j.j.j.j.j.j.j.j.j.j.j.j.s.s.p.z.V.P.[.sXlXzXqXY e e V H G G K K K K L ( ! Z < @.j.y.h.k.x.j.j.s.j.V.U.'.A.                                                                                                                                  ",
"                                                                                                                                    S.'.U.V.s.s.j.k.x.j.h.t.a.} o 6 7 0 < ; ; ; 3 ; - $ 8 I yXxXlXpX/.C.v.p.p.s.j.j.j.j.j.j.j.j.j.j.j.j.j.j.j.j.j.j.j.j.j.j.j.j.j.j.j.j.j.j.j.j.j.j.j.j.j.j.j.j.j.j.j.j.j.j.j.j.s.p.p.z.C.P.{.dXlXaXW.J C V G I I K K K K ~ ) D 7 x y.t.y.j.x.k.j.j.s.z.K.'.^.                                                                                                                                  ",
"                                                                                                                                    ^.'.K.z.s.j.j.x.x.h.a.h.w.a # 8 0 ; ; ; ; 0 7 - # 7 T.aXxXsX_.K.v.p.s.s.j.j.j.j.j.j.j.j.j.j.j.j.j.j.j.j.j.j.j.j.j.j.j.j.j.j.j.j.j.j.j.j.j.j.j.j.j.j.j.j.j.j.j.j.j.j.j.j.j.j.j.j.s.s.p.z.C./.{.kXlXyX] V V G I K K K K L / T 8 p 1.t.y.j.x.x.j.j.s.s.N.U.`.!.                                                                                                                                ",
"                                                                                                                                  !.`.P.N.s.s.j.j.x.x.a.y.j.$., # 7 0 ; ; ; ; 0 ; & # M _.pX{.^.V.f.p.s.s.j.j.j.j.j.j.j.j.j.j.j.j.j.j.j.j.j.j.j.j.j.j.j.j.j.j.j.j.j.j.j.j.j.j.j.j.j.j.j.j.j.j.j.j.j.j.j.j.j.j.j.j.j.j.j.s.p.p.v.K.[.sXsX|.Y V S G K K K K K / W e = | y.y.a.j.x.j.j.j.s.z.D.'.}.0.                                                                                                                              ",
"                                                                                                                                !._.`.C.z.s.j.j.k.x.j.y.t.h.c O $ 7 0 < ; ; 3 0 ; $ > :.U.U.K.v.p.p.s.j.j.j.j.j.j.j.j.j.j.j.j.j.j.j.j.j.j.j.j.j.j.j.j.j.j.j.j.j.j.j.j.j.j.j.j.j.j.j.j.j.j.j.j.j.j.j.j.j.j.j.j.j.j.j.j.j.j.s.p.p.f.C.^.'.U.0.F C G K K K K K / / C $ g t.y.t.j.x.k.j.j.s.p.v.P.[.|.                                                                                                                              ",
"                                                                                                                                |.[.P.v.s.s.j.j.x.x.j.y.t.1.p X * 9 0 ; ; ; < ; : 6 5 i.H.B.z.p.s.j.j.j.j.j.j.j.j.j.j.j.j.j.j.j.j.j.j.j.j.j.j.j.j.j.j.j.j.j.j.j.j.j.j.j.j.j.j.j.j.j.j.j.j.j.j.j.j.j.j.j.j.j.j.j.j.j.j.j.j.j.j.s.p.p.v.B.G.F.n Z J K K K K K L ( T 8 1 =.t.t.h.x.x.k.j.j.s.s.C.'.[.!.                                                                                                                            ",
"                                                                                                                              !.[./.V.p.s.j.j.j.x.j.y.t.y.O.@ # 7 0 ; ; ; ; 0 ; * 6 v D.H.n.s.s.j.j.j.j.j.j.j.j.j.j.j.j.j.j.j.j.j.j.j.j.j.j.j.j.j.j.j.j.j.j.j.j.j.j.j.j.j.j.j.j.j.j.j.j.j.j.j.j.j.j.j.j.j.j.j.j.j.j.j.j.j.j.j.j.j.s.p.n.G.C.>.C J K K K K K L / / Z o } t.t.y.j.x.k.j.j.j.s.z.K.`.}.R.                                                                                                                          ",
"                                                                                                                            !.}.`.K.z.s.j.j.j.x.x.j.t.t.t.s X & 0 0 ; ; ; 3 3 : $ - +.L.H.v.j.j.x.x.x.x.x.x.x.k.k.k.k.k.k.k.k.k.k.k.k.k.k.k.k.k.k.k.k.k.k.k.k.k.k.k.k.k.k.k.k.k.k.k.k.k.k.k.k.k.k.k.k.k.k.k.k.k.k.k.x.x.x.x.x.x.x.j.s.v.C.H.0.V S I K K K K L ~ ( S $ p 1.y.t.h.x.z.j.j.j.s.p.v.P.[.|.                                                                                                                          ",
"                                                                                                                          R.}.[.P.v.s.j.j.j.j.x.k.h.t.t.$., X * 0 0 ; ; ; 3 3 - $ 4 q.U.H.n.c.x.c.c.c.c.c.c.c.c.c.c.c.c.c.c.c.c.c.c.c.c.c.c.c.c.c.c.c.c.c.c.c.c.c.c.c.c.c.c.c.c.c.c.c.c.c.c.c.c.c.c.c.c.c.c.c.c.c.c.c.c.c.c.c.c.c.x.c.n.H.J.S.I C J K K K P K L ( W 8 O | t.w.y.k.x.j.j.j.j.s.f.V.'.{.|.                                                                                                                        ",
"                                                                                                                          }.{./.V.p.s.j.j.j.x.x.j.t.t.r.g . & ; 0 ; ; ; ; 0 0 8 6 M Y.L.B.z.j.x.x.x.x.x.x.x.x.x.x.x.x.x.x.x.x.x.x.x.x.x.x.x.x.x.x.x.x.x.x.x.x.x.x.x.x.x.x.x.x.x.x.x.x.x.x.x.x.x.x.x.x.x.x.x.x.x.x.x.x.x.x.x.x.x.x.x.z.z.B.J.Y.6.C S K K K K P L ( ( V # a 1.r.t.h.x.x.j.j.j.j.s.z.D.`.{.!.                                                                                                                      ",
"                                                                                                                        |.{.`.C.s.s.j.j.j.k.x.x.a.w.t.$., X * 0 0 0 0 0 0 ; - $ - 9.H.M.2.&.=.1.1.1.1.1.1.1.1.1.1.1.1.1.1.1.1.1.1.1.1.1.1.1.1.1.1.1.1.1.1.1.1.1.1.1.1.1.1.1.1.1.1.1.1.1.1.1.1.1.1.1.1.1.1.1.1.1.1.1.1.1.1.1.1.1.1.1.=.&.2.M.G.0.J C J K L L L L / ( P 8 + | t.w.t.k.x.k.j.j.j.j.s.z.L.[.{.!.                                                                                                                    ",
"                                                                                                                      ].{.`.D.z.s.j.j.j.j.x.x.j.t.w.w.z . # : 0 ; ; ; ; ; o . . 2 2.p...k k f f f f f f f f f f f f f f f f f f f f f f f f f f f f f f f f f f f f f f f f f f f f f f f f f f f f f f f f f f f f f f f f f f f f f k k ..3.u.M Z S K L L L L L ( / C X a 1.w.w.h.x.x.k.k.j.j.s.p.v.P.{.gX!.                                                                                                                  ",
"                                                                                                                    ].pX[.K.z.s.s.j.j.j.k.x.x.t.w.t.$., X > 0 w < : o O . . . @ v 2.,.m m m m m m m m m m m m m m m m m m m m m m m m m m m m m m m m m m m m m m m m m m m m m m m m m m m m m m m m m m m m m m m m m m m m m m m m m m m <.4...u e y n H K L L ( ] K * O | w.1.r.j.c.x.j.j.j.j.s.p.N./.pXgX~.                                                                                                                ",
"                                                                                                                !.gXsX[.K.z.p.s.j.j.j.j.x.c.h.w.w.w.g . # 7 0 ; = O . . O u P 7.<XqX3X4X3X9X9X9X3X3X3X3X3X3X3X3X3X3X3X3X3X3X3X3X3X3X3X3X3X3X3X3X3X3X3X3X3X3X3X3X3X3X3X3X3X3X3X3X3X3X3X3X3X3X3X3X3X3X3X3X3X3X3X3X3X3X3X3X3X3X3X3X3X9X9X9X4X4X<X~.Q.' R y u t H I L / ] ( e X 2 =.w.1.y.x.x.k.j.j.j.j.s.p.V./.pXpX~.                                                                                                              ",
"                                                                                                              ~.gXsX[.K.z.s.s.j.j.j.j.k.c.j.r.1.w.| @ X * 0 ; o . . ; ( 7XFXHXKXKXKXKXJXJXJXJXJXJXJXJXJXJXJXJXJXJXJXJXJXJXJXJXJXJXJXJXJXJXJXJXJXJXJXJXJXJXJXJXJXJXJXJXJXJXJXJXJXJXJXJXJXJXJXJXJXJXJXJXJXJXJXJXJXJXJXJXJXJXJXJXJXJXJXJXJXJXJXKXKXKXHXZX4X` G r r H L ( _ J % . x 1.1.w.h.c.x.j.j.j.j.j.s.p.V./.pXsX].                                                                                                            ",
"                                                                                                            ~.fXsX[.K.z.p.s.j.j.j.j.k.x.x.y.1.w.=.2 . & : = . . ; ' NXFXJXJXJXJXJXJXJXJXJXJXJXJXJXJXJXJXJXJXJXJXJXJXJXJXJXJXJXJXJXJXJXJXJXJXJXJXJXJXJXJXJXJXJXJXJXJXJXJXJXJXJXJXJXJXJXJXJXJXJXJXJXJXJXJXJXJXJXJXJXJXJXJXJXJXJXJXJXJXJXJXJXJXJXJXJXJXJXJXLXVX>XH q t L _ ( e . @ O.w.1.r.j.x.x.j.j.j.j.j.s.p.N./.pXsXiX!.                                                                                                        ",
"                                                                                                        ~.iXfXsX`.C.f.s.s.j.j.j.j.k.x.c.a.1.1.1.z . X & o . o I BXJXJXJXJXJXJXJXJXJXJXJXJXJXJXJXJXJXJXJXJXJXJXJXJXJXJXJXJXJXJXJXJXJXJXJXJXJXJXJXJXJXJXJXJXJXJXJXJXJXJXJXJXJXJXJXJXJXJXJXJXJXJXJXJXJXJXJXJXJXJXJXJXJXJXJXJXJXJXJXJXJXJXJXJXJXJXJXJXJXJXJXJXJXJXBX( r y L ' P % . p *.1.1.t.x.c.x.j.j.j.j.j.s.p.v.P.{.dXgX~.                                                                                                      ",
"                                                                                                      yXaXdXpX/.V.g.s.s.j.j.j.j.k.x.c.h.w.-.w.} @ . X O . : *XFXJXJXJXJXJXJXJXJXJXJXJXJXJXJXJXJXJXJXJXJXJXJXJXJXJXJXJXJXJXJXJXJXJXJXJXJXJXJXJXJXJXJXJXJXJXJXJXJXJXJXJXJXJXJXJXJXJXJXJXJXJXJXJXJXJXJXJXJXJXJXJXJXJXJXJXJXJXJXJXJXJXJXJXJXJXJXJXJXJXJXJXJXJXJXJXJXFX=Xt r ( _ V X . z -.-.-.y.c.c.k.j.j.j.j.j.s.p.v.K.[.sXfXiX                                                                                                    ",
"                                                                                                  yXiXfXsX[.P.v.p.s.j.j.j.j.j.j.x.c.j.w.=.1.@.2 . . . . w 2XJXJXJXJXJXJXJXJXJXJXJXJXJXJXJXJXJXJXJXJXJXJXJXJXJXJXJXJXJXJXJXJXJXJXJXJXJXJXJXJXJXJXJXJXJXJXJXJXJXJXJXJXJXJXJXJXJXJXJXJXJXJXJXJXJXJXJXJXJXJXJXJXJXJXJXJXJXJXJXJXJXJXJXJXJXJXJXJXJXJXJXJXJXJXJXJXJXJXJXHX2XH t ( ( w . @ } 1.=.1.h.c.c.k.j.j.j.j.j.s.p.f.C.(.pXdXiX~.                                                                                                ",
"                                                                                              ~.iXzXkXpX/.C.z.p.s.j.j.j.j.j.x.c.c.j.w.=.1.*.p . . . . r BXJXJXJXJXJXJXJXJXJXJXJXJXJXJXJXJXJXJXJXJXJXJXJXJXJXJXJXJXJXJXJXJXJXJXJXJXJXJXJXJXJXJXJXJXJXJXJXJXJXJXJXJXJXJXJXJXJXJXJXJXJXJXJXJXJXJXJXJXJXJXJXJXJXJXJXJXJXJXJXJXJXJXJXJXJXJXJXJXJXJXJXJXJXJXJXJXJXJXJXJXJXJX6XG H ( K * . 1 O.1.*.1.h.c.c.x.j.j.j.j.j.s.p.g.M.P.{.dXfXiXyX                                                                                            ",
"                                                                                          ~.uXzXkXsX_.K.v.p.p.s.j.j.j.j.j.x.c.c.j.w.*.-.*.s O . . . q 6XJXJXJXJXJXJXJXJXJXJXJXJXJXJXJXJXJXJXJXJXJXJXJXJXJXJXJXJXJXJXJXJXJXJXJXJXJXJXJXJXJXJXJXJXJXJXJXJXJXJXJXJXJXJXJXJXJXJXJXJXJXJXJXJXJXJXJXJXJXJXJXJXJXJXJXJXJXJXJXJXJXJXJXJXJXJXJXJXJXJXJXJXJXJXJXJXJXJXJXJXJXJXJXJX4XG I / V X X 5 @.=.*.1.h.c.c.x.k.j.j.j.j.a.s.p.z.H._.sXkXfXyX                                                                                          ",
"                                                                                      yXaXzXlXsX[.P.N.f.p.s.j.j.j.j.j.z.x.c.c.h.1.$.=.$.s O . . . ; 7XJXJXJXJXJXJXJXJXJXJXJXJXJXJXJXJXJXJXJXJXJXJXJXJXJXJXJXJXJXJXJXJXJXJXJXJXJXJXJXJXJXJXJXJXJXJXJXJXJXJXJXJXJXJXJXJXJXJXJXJXJXJXJXJXJXJXJXJXJXJXJXJXJXJXJXJXJXJXJXJXJXJXJXJXJXJXJXJXJXJXJXJXJXJXJXJXJXJXJXJXJXJXJXJXJXHX2XH L / e . X 5 o.*.$.-.y.c.c.x.k.j.j.j.j.j.s.p.g.N.P.[.sXzXaXiX                                                                                      ",
"                                                                                iXuXaXzXkXsX[.P.V.z.p.p.s.j.j.j.j.k.x.x.c.x.t.=.$.*.@.a O . . . o >XJXJXJXJXJXJXJXJXJXJXJXJXJXJXJXJXJXJXJXJXJXJXJXJXJXJXJXJXJXJXJXJXJXJXJXJXJXJXJXJXJXJXJXJXJXJXJXJXJXJXJXJXJXJXJXJXJXJXJXJXJXJXJXJXJXJXJXJXJXJXJXJXJXJXJXJXJXJXJXJXJXJXJXJXJXJXJXJXJXJXJXJXJXJXJXJXJXJXJXJXJXJXJXJXJXJXJXFX-XG / L ; . # 5 O.*.$.*.r.k.c.c.x.k.j.j.j.j.s.s.p.z.C./.{.dXzXaXiXyX                                                                                ",
"                                                                            yXuXzXlXkXpX_.P.V.z.p.p.s.j.j.j.j.k.x.c.c.c.h.w.*.$.*.| p O . . . . ( HXJXJXJXJXJXJXJXJXJXJXJXJXJXJXJXJXJXJXJXJXJXJXJXJXJXJXJXJXJXJXJXJXJXJXJXJXJXJXJXJXJXJXJXJXJXJXJXJXJXJXJXJXJXJXJXJXJXJXJXJXJXJXJXJXJXJXJXJXJXJXJXJXJXJXJXJXJXJXJXJXJXJXJXJXJXJXJXJXJXJXJXJXJXJXJXJXJXJXJXJXJXJXJXJXJXJXJXJXZX] G ( G = . # 5 } $.$.$.w.h.c.c.x.x.k.j.j.j.j.s.p.p.x.C./.{.dXkXaXyX                                                                              ",
"                                                                      yXbXzXxXlXsX{.).K.N.z.p.p.s.a.j.j.k.x.x.c.c.c.j.t.=.$.$.*.} , . . . . . t ZXJXJXJXJXJXJXJXJXJXJXJXJXJXJXJXJXJXJXJXJXJXJXJXJXJXJXJXJXJXJXJXJXJXJXJXJXJXJXJXJXJXJXJXJXJXJXJXJXJXJXJXJXJXJXJXJXJXJXJXJXJXJXJXJXJXJXJXJXJXJXJXJXJXJXJXJXJXJXJXJXJXJXJXJXJXJXJXJXJXJXJXJXJXJXJXJXJXJXJXJXJXJXJXJXJXJXJXJXJXJX6XL K ] F o . # 4 c %.$.#.=.t.x.c.c.x.k.j.j.j.j.j.s.p.p.v.K./.{.dXlXzXuX~.                                                                        ",
"                                                            uXiXuXaXzXzXkXsX{.`.P.C.M.f.p.d.s.s.j.j.k.x.x.c.c.c.k.t.-.$.$.$.O.s @ . . . . . = 2XJXJXJXJXJXJXJXJXJXJXJXJXJXJXJXJXJXJXJXJXJXJXJXJXJXJXJXJXJXJXJXJXJXJXJXJXJXJXJXJXJXJXJXJXJXJXJXJXJXJXJXJXJXJXJXJXJXJXJXJXJXJXJXJXJXJXJXJXJXJXJXJXJXJXJXJXJXJXJXJXJXJXJXJXJXJXJXJXJXJXJXJXJXJXJXJXJXJXJXJXJXJXJXJXJXJXJXJXJXJXJXKX:XH ( _ n o . # : s | $.#.$.1.h.x.c.c.x.x.k.j.j.j.s.s.p.p.x.C./.{.sXlXzXaXiXyX                                                                  ",
"                                                      ,.!.fXcXcXxXlXdXpX[.P.D.N.z.p.p.d.s.a.j.k.x.x.c.c.c.c.j.t.1.*.$.$.@.x 2 X . . . o . . L FXJXJXJXJXJXJXJXJXJXJXJXJXJXJXJXJXJXJXJXJXJXJXJXJXJXJXJXJXJXJXJXJXJXJXJXJXJXJXJXJXJXJXJXJXJXJXJXJXJXJXJXJXJXJXJXJXJXJXJXJXJXJXJXJXJXJXJXJXJXJXJXJXJXJXJXJXJXJXJXJXJXJXJXJXJXJXJXJXJXJXJXJXJXJXJXJXJXJXJXJXJXJXJXJXJXJXJXJXJXJXJXJXZX( H ' ' l o . # * 5 c @.$.#.*.w.h.c.c.c.c.x.k.j.j.j.s.p.p.p.v.C.P.[.sXkXlXvXuXyXyX                                                            ",
"                                                      u.Z._.pXsX{.).P.K.N.z.p.p.p.s.s.j.j.x.c.c.c.c.x.k.h.t.1.*.#.@.@.} a + . . . O o o . o 4XJXJXJXJXJXJXJXJXJXJXJXJXJXJXJXJXJXJXJXJXJXJXJXJXJXJXJXJXJXJXJXJXJXJXJXJXJXJXJXJXJXJXJXJXJXJXJXJXJXJXJXJXJXJXJXJXJXJXJXJXJXJXJXJXJXJXJXJXJXJXJXJXJXJXJXJXJXJXJXJXJXJXJXJXJXJXJXJXJXJXJXJXJXJXJXJXJXJXJXJXJXJXJXJXJXJXJXJXJXJXJXJXJXJX7XH L *X_ n o . X $ < v | @.o.$.=.t.h.x.c.c.c.x.k.j.j.j.s.s.p.p.z.V.L.).{.sXlXxXcXzX].                                                        ",
"                                                      z.s.l.D.K.C.M.f.p.p.p.s.s.j.z.x.c.c.c.c.c.x.j.y.w.*.#.@.#.o.c a @ . . . . O : - o . H FXJXJXJXJXJXJXJXJXJXJXJXJXJXJXJXJXJXJXJXJXJXJXJXJXJXJXJXJXJXJXJXJXJXJXJXJXJXJXJXJXJXJXJXJXJXJXJXJXJXJXJXJXJXJXJXJXJXJXJXJXJXJXJXJXJXJXJXJXJXJXJXJXJXJXJXJXJXJXJXJXJXJXJXJXJXJXJXJXJXJXJXJXJXJXJXJXJXJXJXJXJXJXJXJXJXJXJXJXJXJXJXJXJXJXFX] H ( *X` G : . X $ * 5 z | @.@.#.=.r.h.x.c.c.c.x.x.k.j.j.a.s.p.p.f.c.V.P.`.pXsXpX^.i.=.                                                    ",
"                                                        3.3.d.s.f.p.s.s.s.j.j.x.c.n.n.c.c.x.j.y.w.=.$.$.#.@.| x p @ O . . . . o : 0 ; O O >XJXJXJXJXJXJXJXJXJXJXJXJXJXJXJXJXJXJXJXJXJXJXJXJXJXJXJXJXJXJXJXJXJXJXJXJXJXJXJXJXJXJXJXJXJXJXJXJXJXJXJXJXJXJXJXJXJXJXJXJXJXJXJXJXJXJXJXJXJXJXJXJXJXJXJXJXJXJXJXJXJXJXJXJXJXJXJXJXJXJXJXJXJXJXJXJXJXJXJXJXJXJXJXJXJXJXJXJXJXJXJXJXJXJXJXKX:XH G _ =X*X~ w . . # $ - 5 x | @.@.#.*.w.y.k.c.c.c.c.c.x.k.j.s.s.s.p.p.z.N.K.I.D.l.j.                                                      ",
"                                                      z *.a.d.d.s.j.j.j.k.k.x.x.x.k.h.y.r.w.1.*.$.@.O.| } z p @ X . . . . O = ; 0 0 = . r VXJXJXJXJXJXJXJXJXJXJXJXJXJXJXJXJXJXJXJXJXJXJXJXJXJXJXJXJXJXJXJXJXJXJXJXJXJXJXJXJXJXJXJXJXJXJXJXJXJXJXJXJXJXJXJXJXJXJXJXJXJXJXJXJXJXJXJXJXJXJXJXJXJXJXJXJXJXJXJXJXJXJXJXJXJXJXJXJXJXJXJXJXJXJXJXJXJXJXJXJXJXJXJXJXJXJXJXJXJXJXJXJXJXJXJXJXNXL H ( ' *X*X_ t = . . # 6 3 d x | | o.#.$.1.r.h.x.c.c.c.c.c.k.j.j.s.s.s.p.f.s.3.3.u.                                                      ",
"                                                      @ O.c.j.a.j.j.j.j.k.x.k.y.1.1.-.*.$.o.o.O.| } z p , o X X . . . O o : ; 0 0 : O . ] HXJXJXJXJXJXJXJXJXJXJXJXJXJXJXJXJXJXJXJXJXJXJXJXJXJXJXJXJXJXJXJXJXJXJXJXJXJXJXJXJXJXJXJXJXJXJXJXJXJXJXJXJXJXJXJXJXJXJXJXJXJXJXJXJXJXJXJXJXJXJXJXJXJXJXJXJXJXJXJXJXJXJXJXJXJXJXJXJXJXJXJXJXJXJXJXJXJXJXJXJXJXJXJXJXJXJXJXJXJXJXJXJXJXJXJXJXFX*XH / ] _ *X=X*XL w O . X $ % 3 d z } | | O.#.*.1.t.h.k.c.c.x.k.j.j.j.j.j.s.d.3.w.o.                                                      ",
"                                                      O c x.j.h.k.k.j.j.x.x.h.=.| | o.o.O.| c z p , + X . . . . . . o = ; 0 0 0 ; o . = 2XJXJXJXJXJXJXJXJXJXJXJXJXJXJXJXJXJXJXJXJXJXJXJXJXJXJXJXJXJXJXJXJXJXJXJXJXJXJXJXJXJXJXJXJXJXJXJXJXJXJXJXJXJXJXJXJXJXJXJXJXJXJXJXJXJXJXJXJXJXJXJXJXJXJXJXJXJXJXJXJXJXJXJXJXJXJXJXJXJXJXJXJXJXJXJXJXJXJXJXJXJXJXJXJXJXJXJXJXJXJXJXJXJXJXJXJXJXJX2XK L ( _ _ ' -X=X_ H ; . . X $ 6 : 5 s x | | o.o.@.*.1.w.a.j.x.k.j.k.k.k.j.j.x.w.s                                                       ",
"                                                        z h.h.h.j.j.j.j.x.x.h.-.| x z z s 2 , + O . . . . . . O o = ; 7 0 0 ; ; ; o . r BXJXJXJXJXJXJXJXJXJXJXJXJXJXJXJXJXJXJXJXJXJXJXJXJXJXJXJXJXJXJXJXJXJXJXJXJXJXJXJXJXJXJXJXJXJXJXJXJXJXJXJXJXJXJXJXJXJXJXJXJXJXJXJXJXJXJXJXJXJXJXJXJXJXJXJXJXJXJXJXJXJXJXJXJXJXJXJXJXJXJXJXJXJXJXJXJXJXJXJXJXJXJXJXJXJXJXJXJXJXJXJXJXJXJXJXJXJXJXBXW G ( _ _ _ ' *X=X-X( t : . . X $ % 7 4 d z c } | O.| | *.y.x.x.j.j.j.x.h.k.n.-.2                                                       ",
"                                                        p t.j.h.j.j.j.j.j.j.j.x.1.g , + O . . . . . . . . O o = ; ; 0 0 ; ; ; ; ; o . K ZXJXJXJXJXJXJXJXJXJXJXJXJXJXJXJXJXJXJXJXJXJXJXJXJXJXJXJXJXJXJXJXJXJXJXJXJXJXJXJXJXJXJXJXJXJXJXJXJXJXJXJXJXJXJXJXJXJXJXJXJXJXJXJXJXJXJXJXJXJXJXJXJXJXJXJXJXJXJXJXJXJXJXJXJXJXJXJXJXJXJXJXJXJXJXJXJXJXJXJXJXJXJXJXJXJXJXJXJXJXJXJXJXJXJXJXJXJXJXZX_ H / _ _ _ _ _ *X=X>X*X/ r = O . X # 6 * 3 5 d z x c } $.t.k.x.k.j.k.j.h.j.n.#.,                                                       ",
"                                                        , 1.j.j.j.j.k.j.j.j.c.B.l.s . . . . . . . . O o = : ; 0 0 0 ; ; ; ; ; 3 ; O . ( FXJXJXJXJXJXJXJXJXJXJXJXJXJXJXJXJXJXJXJXJXJXJXJXJXJXJXJXJXJXJXJXJXJXJXJXJXJXJXJXJXJXJXJXJXJXJXJXJXJXJXJXJXJXJXJXJXJXJXJXJXJXJXJXJXJXJXJXJXJXJXJXJXJXJXJXJXJXJXJXJXJXJXJXJXJXJXJXJXJXJXJXJXJXJXJXJXJXJXJXJXJXJXJXJXJXJXJXJXJXJXJXJXJXJXJXJXJXJXFX=XS W _ _ _ _ _ ' ` *X=X;X*X/ t ; . . X # $ $ 8 ; < d #.y.j.j.j.j.j.k.j.h.j.c.}                                                         ",
"                                                          $.j.j.j.j.j.j.j.j.v.B.B.x . . . . . O o o : ; ; 0 0 0 ; ; ; ; ; ; ; : o . . -XJXJXJXJXJXJXJXJXJXJXJXJXJXJXJXJXJXJXJXJXJXJXJXJXJXJXJXJXJXJXJXJXJXJXJXJXJXJXJXJXJXJXJXJXJXJXJXJXJXJXJXJXJXJXJXJXJXJXJXJXJXJXJXJXJXJXJXJXJXJXJXJXJXJXJXJXJXJXJXJXJXJXJXJXJXJXJXJXJXJXJXJXJXJXJXJXJXJXJXJXJXJXJXJXJXJXJXJXJXJXJXJXJXJXJXJXJXJXJXHX:XV R ) ( _ _ ' ' ' ` *X=X>X:X=X] H w o . . X # 6 6 5 e.m.m.j.j.j.j.k.j.h.h.j.z                                                         ",
"                                                          | j.j.j.j.k.j.j.j.x.B.B.O.@ . O o o : ; ; ; ; ; ; ; ; ; ; ; ; ; ; o . . . 0 2XJXJXJXJXJXJXJXJXJXJXJXJXJXJXJXJXJXJXJXJXJXJXJXJXJXJXJXJXJXJXJXJXJXJXJXKXKXKXKXKXJXJXJXKXKXKXKXKXKXKXKXKXJXJXKXJXKXKXKXKXKXKXKXKXJXJXKXJXKXKXKXKXKXKXKXKXKXKXKXKXJXJXJXKXKXJXJXJXJXJXJXJXJXJXJXJXJXJXJXJXJXJXJXJXJXJXJXJXJXJXJXJXJXJXJXJXJXJXJXKX2XY Y ^ Q ) _ _ ' ' ' ' ` *X=X>X:X>X' P r ; o . . X d b.G.m.j.j.j.j.k.j.h.h.t.p                                                         ",
"                                                          c h.j.h.j.x.j.j.j.j.m.B.;., # > ; ; ; 0 0 ; ; ; ; ; ; ; ; ; = o X . X u N 6.6XKXJXJXJXJXJXJXJXJXJXJXJXJXJXJXJXJXJXJXJXJXJXJXJXJXJXJXJXJXJXKXHXFXZXZXVXVXVXVXVXVXVXVXVXVXVXVXVXVXVXVXVXVXVXVXVXVXVXVXVXVXVXVXVXVXVXVXVXVXVXVXVXVXVXVXVXVXVXVXVXVXVXVXVXVXZXZXFXHXJXJXJXJXJXJXJXJXJXJXJXJXJXJXJXJXJXJXJXJXJXJXJXJXJXJXJXJXJXJXGX4X9.!.Q.) Q W ) _ ' ' ' ` ` ` *X=X:X:X>X*X] K u & X z M.B.M.j.j.j.j.j.j.h.j.1.1                                                         ",
"                                                          s t.j.h.j.x.j.j.j.j.n.B.i.d 6 7 0 3 ; ; ; ; ; ; ; ; ; : = o . . . i ( yX/.S.4XGXJXJXJXJXJXJXJXJXJXJXJXJXJXJXJXJXJXJXJXJXJXJXJXJXJXJXJXJXFXNX7X:X=X-X*X*X*X*X*X*X*X*X*X*X*X*X*X*X*X*X*X*X*X*X*X*X*X*X*X*X*X*X*X*X*X*X*X*X*X*X*X*X*X*X*X*X*X*X*X*X*X*X*X*X*X=X:X7XNXFXJXJXJXJXJXJXJXJXJXJXJXJXJXJXJXJXJXJXJXJXJXJXJXJXJXJXJXJXGX7X9.J.{.rXXXE Q ) _ ' ' ` ` ` ` *X-X=X>X:X:X:X#XQ S +.n.m.v.j.j.j.k.j.j.j.j.$.                                                          ",
"                                                          p 1.j.h.j.k.j.j.j.j.n.B.M.v 6 8 3 ; : ; ; ; ; ; ; : o . . . X w Y ,XSX{.H.;.7XGXJXJXJXJXJXJXJXJXJXJXJXJXJXJXJXJXJXJXJXJXJXJXJXJXJXJXFXNX2X>XXX) T J J T T T T T T T T T T T T T T T T T T T T T T T T T J T T T T T T T T T T T T T T T T T T T T T T J J T ) XX>X2XNXHXJXJXJXJXJXJXJXJXJXJXJXJXJXJXJXJXJXJXJXJXJXJXJXJXJXJXGX5X:.Z.'.kXbX<X' ^ ^ ) _ ` ` ` ` ` E.*X=X>X>X:X:X1X=XA.n.n.k.j.j.j.x.j.j.k.j.|                                                           ",
"                                                          , $.j.h.j.j.j.j.j.j.M.m.m.b $ % : ; ; ; ; ; ; ; ; * $ & 3 n W.yXcXSXdXP.s.<.5XGXJXJXJXJXJXJXJXJXJXJXJXJXJXJXJXJXJXJXJXJXJXJXJXJXJXFX6X:XXX) Q T P W / / / / / / / / / / / / / / / / / / / / / / / / / / / / / / / / / / / / / / / / / / / / / / / / / / W E E E ) *X:X6XFXJXJXJXJXJXJXJXJXJXJXJXJXJXJXJXJXJXJXJXJXJXJXJXJXJXGXnX<.3.H.{.kXkXuX<X7.)  X.XXX` 7.*X*X*X*X*X*X=X;X1X8XS.n.c.j.j.j.j.x.j.h.x.j.x                                                           ",
"                                                            | j.j.j.j.j.j.j.j.v.m.B.O.* % - ; ; ; ; ; ; ; = - r ] ,XjXcXcXkX{.P.N.5.<.5XGXJXJXJXJXJXJXJXJXJXJXJXJXJXJXJXJXJXJXJXJXJXJXJXJXFX4X:XXX^ T ( W.<X,X,X,X,X,X,X,X,X,X,X,X,X,X,X,X,X,X,X,X,X,X,X,X,X,X,X,X,X,X,X,X,X,X,X,X,X,X,X,X,X,X,X,X,X,X,X,X,X,X,XwX,X<XW./ T ^ $X:X6XFXJXJXJXJXJXJXJXJXJXJXJXJXJXJXJXJXJXJXJXJXJXJXJXJXGXMX>.4.g.K.[.pXdXkXuX,X;XXX.X` 7.*X*X*X*X*X*X-X;X&XW.b.m.n.j.j.j.j.x.j.h.k.t.a                                                           ",
"                                                            x h.x.j.j.k.j.j.j.x.N.B.;.; $ * ; ; ; ; ; : * # p A.pXcXcXsX[./.C.v.g.3.,.5XGXJXJXJXJXJXJXJXJXJXJXJXJXJXJXJXJXJXJXJXJXJXJXJXFX4X:XXX^ P W.yXjXzXlXlXlXlXlXlXlXlXlXlXlXlXlXlXlXlXlXlXlXlXlXlXlXlXlXlXlXlXlXlXlXlXlXlXlXlXlXlXlXlXlXlXlXlXlXlXlXlXlXkXlXlXzXaX].T.E  X;X2X6XFXJXJXJXJXJXJXJXJXJXJXJXJXJXJXJXJXJXJXJXJXJXJXJXGXnX,.3.p.f.V.P.[.sXkXlXgXQ.Y _ XX*X*X*X*X*X*X=X$XoXR.k.m.c.j.j.j.j.k.j.a.k.1.1                                                           ",
"                                                            s t.c.j.j.k.j.j.j.j.M.B.e.4 6 * ; ; ; ; ; : % $ d b.P._._.P.C.v.p.p.p.3.,.5XGXJXJXJXJXJXJXJXJXJXJXJXJXJXJXJXJXJXJXJXJXJXJXFX0X2X;X^ Y Q.gXsXpX[._.(.(.(.(.(.(.(.(.(.(.(.(.(.(.(.(.(.(.(.(.(.(.(.(.(.(.(.(.(.(.(.(.(.(.(.(.(.(.(.(.(.(.(.(.(.(.(.(.(.(._.{.pXsXgXQ.Y  X1X2XhXHXJXJXJXJXJXJXJXJXJXJXJXJXJXJXJXJXJXJXJXJXJXJXGXnX,.3.p.p.p.z.V.P.[.{.U.Z.>.) oX*X*X*X*X*X-X=X$X$X0.n.n.c.j.j.j.j.j.j.h.k.#.@                                                           ",
"                                                            2 1.n.h.h.k.k.j.j.j.v.B.l.d $ * ; ; ; ; ; ; * 6 5 =.c.N.M.x.g.p.s.s.z.u.:.5XGXJXJXJXJXJXJXJXJXJXJXJXJXJXJXJXJXJXJXJXJXJXHXNX6X1X+XY !.pXpX).K.V.M.v.v.v.v.v.v.v.v.v.v.v.v.v.M.M.v.v.M.M.v.v.v.v.v.v.v.v.v.v.v.v.v.v.v.v.v.v.M.v.v.v.v.v.v.v.v.v.v.v.v.M.C.K._.pX{.!.U +X1X4XVXHXJXJXJXJXJXJXJXJXJXJXJXJXJXJXJXJXJXJXJXJXJXGXnX,.u.j.j.s.p.p.z.C.C.m.j.R.XXoX#X*X*X*X*X-X;X&X*XA.n.n.x.j.j.j.k.j.j.j.j.}                                                             ",
"                                                            , $.c.h.h.k.k.j.j.j.v.B.Z.v $ % ; ; ; ; ; ; ; 6 : } d.p.5.s.s.j.j.j.z.u.:.5XGXJXJXJXJXJXJXJXJXJXJXJXJXJXJXJXJXJXJXJXJXJXFX6XnX&XY !.[.[.P.N.p.p.p.p.s.s.p.p.p.p.p.p.p.p.p.p.p.p.p.p.p.s.p.p.p.p.p.p.p.p.p.p.s.p.p.p.p.p.p.p.p.p.p.p.p.p.p.p.p.s.s.s.s.p.p.g.N.P.[.[.q.( &X5X6XFXJXJXJXJXJXJXJXJXJXJXJXJXJXJXJXJXJXJXJXJXJXGXnX,.u.z.j.j.j.s.p.p.5.3.e.W.$XXX*X*X*X*X*X-X$X&XE.i.n.n.k.j.j.j.k.j.j.x.a.z                                                             ",
"                                                              | x.h.h.k.j.j.j.j.x.B.B.} % % : ; ; ; ; ; ; % & z a.z.a.a.j.k.k.k.z.d.:.5XGXJXJXJXJXJXJXJXJXJXJXJXJXJXJXJXJXJXJXJXJXHXZXnXmX_ q.'.'.K.z.p.p.s.s.s.s.j.j.j.j.j.j.s.j.j.j.s.j.j.j.j.j.j.j.j.j.j.j.j.j.j.j.j.j.j.j.s.j.j.j.s.j.j.j.j.j.j.j.j.j.j.j.j.j.s.s.p.p.v.K.`.'.R..X1X6XVXHXJXJXJXJXJXJXJXJXJXJXJXJXJXJXJXJXJXJXJXJXGXnX,.3.z.j.k.k.j.j.d.5.3.:.( OX-X*X*X*X*X*X-X$X&XW.b.n.v.j.j.j.j.k.h.j.c.r.a                                                             ",
"                                                              x j.h.h.j.j.j.j.j.x.B.B.:.- $ : ; ; ; ; ; ; % # a t.n.h.j.x.k.k.j.z.d.:.5XGXJXJXJXJXJXJXJXJXJXJXJXJXJXJXJXJXJXJXJXJXFXVXMX&XT.Y.U.K.z.p.s.j.j.j.j.j.j.j.j.j.j.j.j.j.j.j.j.j.j.j.j.j.j.j.j.j.j.j.j.j.j.j.j.j.j.j.j.j.j.j.j.j.j.j.j.j.j.j.j.j.j.j.j.j.j.j.j.s.p.z.L.'.Y.T.&XnXNXFXJXJXJXJXJXJXJXJXJXJXJXJXJXJXJXJXJXJXJXJXGXnX,.u.j.j.k.j.x.j.j.z.3.c H .X;X*X*X*X*X*X-X$X%XR.M.m.v.j.j.j.k.k.h.h.n.-.2                                                             ",
"                                                              a t.j.j.j.j.j.j.j.k.N.B.e.3 6 * ; ; ; ; ; ; * $ 1 1.c.h.j.x.k.k.j.z.d.:.5XGXJXJXJXJXJXJXJXJXJXJXJXJXJXJXJXJXJXJXJXKXFXAXnXUXq.U.K.v.s.s.j.j.j.j.j.j.j.j.j.j.j.j.j.j.j.j.j.j.j.j.j.j.j.j.j.j.j.j.j.j.j.j.j.j.j.j.j.j.j.j.j.j.j.j.j.j.j.j.j.j.j.j.j.j.j.j.j.j.s.p.v.L.U.q.` nXAXFXJXJXJXJXJXJXJXJXJXJXJXJXJXJXJXJXJXJXJXJXGXnX,.u.z.j.k.j.x.j.j.c.2.s V OX>X*X@X*X*X*X=X$XXXR.n.m.x.j.j.j.k.k.h.h.c.@.@                                                             ",
"                                                              p w.j.j.j.j.j.j.j.j.n.B.l.d $ % : ; ; ; ; ; * $ @ $.j.a.j.k.k.k.j.z.d.:.5XGXJXJXJXJXJXJXJXJXJXJXJXJXJXJXJXJXJXJXJXHXFXAXmXT.F.J.V.s.j.j.k.j.j.j.j.j.j.j.j.j.j.j.j.j.j.j.j.j.j.j.j.j.j.j.j.j.j.j.j.j.j.j.j.j.j.j.j.j.j.j.j.j.j.j.j.j.j.j.j.j.j.j.j.j.j.j.j.j.j.s.f.V.J.F.T.1XDXFXJXJXJXJXJXJXJXJXJXJXJXJXJXJXJXJXJXJXJXJXGXnX,.u.j.j.k.k.x.j.h.x.2.d R oX=X*X*X*X*X-X=X$X#XA.n.n.x.j.j.j.j.j.h.h.j.}                                                               ",
"                                                              1 =.x.j.h.j.j.j.j.j.v.B.Z.v $ 6 ; ; ; ; ; ; 8 % = | j.h.j.j.k.k.j.z.d.:.5XGXJXJXJXJXJXJXJXJXJXJXJXJXJXJXJXJXJXJXJXHXFXDX1X9.Z.G.v.s.j.j.j.j.j.j.j.j.j.j.j.j.j.j.j.j.j.j.j.j.j.j.j.j.j.j.j.j.j.j.j.j.j.j.j.j.j.j.j.j.j.j.j.j.j.j.j.j.j.j.j.j.j.j.j.j.j.j.j.j.j.j.s.n.H.Z.9.;XDXKXKXJXJXJXJXJXJXJXJXJXJXJXJXJXJXJXJXJXJXJXGX5X,.u.z.j.k.k.x.j.h.j.*.n Q $X-X*X*X*X*X*X;X$XE.i.n.n.k.j.j.j.j.j.j.j.a.z                                                               ",
"                                                                $.x.j.h.j.z.j.j.j.x.B.B.} % 6 ; < ; ; ; ; : * & c a.h.j.j.j.k.j.z.d.:.5XGXJXJXJXJXJXJXJXJXJXJXJXJXJXJXJXJXJXJXKXFXLXDX>X;.c.m.k.j.j.j.j.j.j.j.j.j.j.j.j.j.j.j.j.j.j.j.j.j.j.j.j.j.j.j.j.j.j.j.j.j.j.j.j.j.j.j.j.j.j.j.j.j.j.j.j.j.j.j.j.j.j.j.j.j.j.j.j.j.j.j.j.x.m.c.e.>XPXKXZXZXZXFXFXFXFXFXFXFXFXFXFXFXFXZXZXZXFXJXJXtX,.u.j.j.k.k.k.j.h.a.@.n  X#X*X*X*X*X*X*X$X%XW.b.n.v.j.j.j.j.j.j.j.j.t.a                                                               ",
"                                                                | k.j.h.j.z.j.j.j.x.m.B.:.- 6 ; 3 ; ; ; ; ; * $ s t.j.j.j.k.k.j.z.d.:.5XGXJXJXJXJXJXJXJXJXJXJXJXJXJXJXJXJXJXJXKXHXGXDXW.2.f.c.j.j.j.j.j.j.j.j.j.j.j.j.j.j.j.j.j.j.j.j.j.j.j.j.j.j.j.j.j.j.j.j.j.j.j.j.j.j.j.j.j.j.j.j.j.j.j.j.j.j.j.j.j.j.j.j.j.j.j.j.j.j.j.j.j.j.x.g.3.W.DXPX2X*X=X;X;X;X;X;X;X;X;X;X;X;X;X;X=X*X:XAXGXMX,.3.s.j.k.x.j.j.h.3...H OX-XE.E.*X*X*X*X&X$XR.v.n.v.j.j.j.j.j.j.j.x.1.2                                                               ",
"                                                                z h.j.h.j.j.j.j.j.k.m.B.e.< $ : ; ; ; ; ; 3 8 $ p w.x.j.h.j.k.j.z.d.:.5XGXJXJXJXJXJXJXJXJXJXJXJXJXJXJXJXJXJXJXJXHXGXDXW.4.g.z.j.j.j.j.j.j.j.j.j.j.j.j.j.j.j.j.j.j.j.j.j.j.j.j.j.j.j.j.j.j.j.j.j.j.j.j.j.j.j.j.j.j.j.j.j.j.j.j.j.j.j.j.j.j.j.j.j.j.j.j.j.j.j.j.j.j.j.g.3.6.mXmX) E E E W W E E E E E E E W W W E E E XXnX1X,.3.p.j.k.x.j.j.h.2.v J $X=XE.E.*X*X*X*X&X$X0.n.n.x.j.j.j.k.j.h.j.x.$.                                                                ",
"                                                                p w.j.h.j.j.j.j.j.j.N.B.l.5 $ - ; ; ; ; ; 3 - $ 1 =.x.j.h.j.k.j.z.d.:.5XGXJXJXJXJXJXJXJXJXJXJXJXJXJXJXJXJXJXJXJXKXKXAXT.2.p.j.j.j.j.j.j.j.j.j.j.j.j.j.j.j.j.j.j.j.j.j.j.j.j.j.j.j.j.j.j.j.j.j.j.j.j.j.j.j.j.j.j.j.j.j.j.j.j.j.j.j.j.j.j.j.j.j.j.j.j.j.j.j.j.j.j.j.j.c.l.6. X XE P E E E E E E E E E E E E E W E E K E  X.X0.k.c.j.j.j.j.j.j.2.d R ;X=X*X@X*X*X*X-X%X#XA.m.n.x.j.j.j.k.j.h.j.x.|                                                                 ",
"                                                                , =.k.h.j.j.j.j.j.j.M.B.M.v $ * : ; ; ; ; 3 - $ @ @.x.j.h.j.k.k.z.d.:.5XGXJXJXJXJXJXJXJXJXJXJXJXJXJXJXJXJXJXJXJXJXKXAX6.2.p.j.j.j.j.j.j.j.j.j.j.j.j.j.j.j.j.j.j.j.j.j.j.j.j.j.j.j.j.j.j.j.j.j.j.j.j.j.j.j.j.j.j.j.j.j.j.j.j.j.j.j.j.j.j.j.j.j.j.j.j.j.j.j.j.j.j.s.z.B.P.~.>X>X8X<X<X<X<X<X<X<X<X<X<X<X<X<X<X<X<X<X<X>X=X8X].P.m.j.j.j.h.j.j.*.d Q ;X=X#XXX*X*X*X-X%X7.i.m.n.k.j.j.j.k.j.a.j.j.x                                                                 ",
"                                                                  o.k.j.h.j.k.j.j.j.x.m.m.} % $ : ; ; ; ; ; - 6 & } j.h.h.j.x.x.z.d.:.5XGXJXJXJXJXJXJXJXJXJXJXJXJXJXJXJXJXJXJXJXJXJXZXW.&.u.j.j.j.j.j.j.j.j.j.j.j.j.j.j.j.j.j.j.j.j.j.j.j.j.j.j.j.j.j.j.j.j.j.j.j.j.j.j.j.j.j.j.j.j.j.j.j.j.j.j.j.j.j.j.j.j.j.j.j.j.j.j.j.j.j.j.s.z.K.[.kXzXzXzXlXkXkXkXkXkXkXkXlXkXkXkXkXkXkXkXkXlXzXzXzXkX_.C.f.s.j.h.j.j.@.u Q -X-XE.#X*X*X*X-X$XW.l.n.n.j.j.j.j.j.j.a.j.y.a                                                                 ",
"                                                                  c j.x.h.j.x.j.j.j.z.N.B.:.- $ - 3 ; ; ; ; : * # s t.j.h.j.x.x.z.d.:.5XGXJXJXJXJXJXJXJXJXJXJXJXJXJXJXJXJXJXJXJXJXJXFXW.X.3.j.x.j.j.j.j.j.j.j.j.j.j.j.j.j.j.j.j.j.j.j.j.j.j.j.j.j.j.j.j.j.j.j.j.j.j.j.j.j.j.j.j.j.j.j.j.j.j.j.j.j.j.j.j.j.j.j.j.j.j.j.j.j.j.j.j.s.s.V./.[.{.[.[.[.[.[.[.[.[.[.[.[.[.[.[.[.[.[.[.[.[.[.{.{.[.P.M.s.j.j.h.h.a.} t  X*X*XE.#X*X*X-X$X$XR.c.n.c.j.j.j.k.k.j.h.k.1.1                                                                 ",
"                                                                  z h.c.h.j.x.j.j.j.j.N.G.9.< $ - ; ; ; ; ; ; 7 $ 2 1.j.j.j.x.x.z.d.:.5XGXJXJXJXJXJXJXJXJXJXJXJXJXJXJXJXJXJXJXJXJXJXHX8X .4.j.x.k.j.j.j.j.j.j.j.j.j.j.j.j.j.j.j.j.j.j.j.j.j.j.j.j.j.j.j.j.j.j.j.j.j.j.j.j.j.j.j.j.j.j.j.j.j.j.j.j.j.j.j.j.j.j.j.j.j.j.j.j.j.j.j.j.j.j.v.V.C.C.V.V.V.V.V.V.V.V.V.V.V.V.V.V.V.V.V.V.V.V.C.C.V.v.j.j.j.k.h.a.3.x J OX*XE.E.*X*X*X-X$X$X0.n.n.x.j.j.j.k.j.j.j.x.#.                                                                  ",
"                                                                  p t.c.a.j.x.j.j.j.j.N.G.i.5 $ * ; ; ; ; ; ; 7 $ , $.j.k.j.k.z.z.d.:.5XGXJXJXJXJXJXJXJXJXJXJXJXJXJXJXJXJXJXJXJXJXJXKXnX<.&.a.x.k.j.j.j.j.j.j.j.j.j.j.j.j.j.j.j.j.j.j.j.j.j.j.j.j.j.j.j.j.j.j.j.j.j.j.j.j.j.j.j.j.j.j.j.j.j.j.j.j.j.j.j.j.j.j.j.j.j.j.j.j.j.j.j.j.j.j.s.p.p.p.p.p.p.p.p.s.s.s.s.s.s.s.s.s.s.s.s.s.p.p.p.p.p.s.j.j.k.k.j.a.=.d R $X*X` E.*X*X*X#X%XXXA.n.n.x.j.j.j.k.j.j.x.k.}                                                                   ",
"                                                                  , =.x.a.j.x.j.j.j.j.M.B.Z.v $ * ; ; ; ; ; 3 7 % o } k.x.j.k.x.z.d.:.5XGXJXJXJXJXJXJXJXJXJXJXJXJXJXJXJXJXJXJXJXJXJXJXDX>.X.3.h.x.x.j.j.j.j.j.j.j.j.j.j.j.j.j.j.j.j.j.j.j.j.j.j.j.j.j.j.j.j.j.j.j.j.j.j.j.j.j.j.j.j.j.j.j.j.j.j.j.j.j.j.j.j.j.j.j.j.j.j.j.j.j.j.j.j.j.s.s.s.s.s.s.s.s.s.s.s.s.s.s.s.s.s.s.s.s.s.s.s.s.s.s.s.j.j.k.k.j.k.a.@.l Q ;X*X` 7.*X*X*X#X%XE.i.m.c.k.j.j.j.k.j.h.c.h.z                                                                   ",
"                                                                    o.j.h.j.j.k.j.j.j.M.B.B.b $ % : ; ; ; ; 3 7 % & z j.x.h.j.x.z.d.:.5XGXJXJXJXJXJXJXJXJXJXJXJXJXJXJXJXJXJXJXJXJXJXJXKXW...&.t.k.c.x.j.j.j.j.j.j.j.j.j.j.j.j.j.j.j.j.j.j.j.j.j.j.j.j.j.j.j.j.j.j.j.j.j.j.j.j.j.j.j.j.j.j.j.j.j.j.j.j.j.j.j.j.j.j.j.j.j.j.j.j.j.j.j.j.j.j.j.j.j.j.j.j.j.j.j.j.j.j.j.j.j.j.j.j.j.j.j.j.j.j.j.j.j.k.j.j.x.s. .y ^ ;X*X` ` *X*X*X$XoXW.b.m.c.k.j.j.j.x.h.h.c.t.a                                                                   ",
"                                                                    } h.j.j.j.k.j.j.j.x.B.B.+.* $ - ; ; ; ; < : % # s a.x.h.j.x.z.d.:.5XGXJXJXJXJXJXJXJXJXJXJXJXJXJXJXJXJXJXJXJXJXJXJXJXAXN ..2.h.x.c.x.j.j.j.j.j.j.j.j.j.j.j.j.j.j.j.j.j.j.j.j.j.j.j.j.j.j.j.j.j.j.j.j.j.j.j.j.j.j.j.j.j.j.j.j.j.j.j.j.j.j.j.j.j.j.j.j.j.j.j.j.j.j.j.j.j.j.j.j.j.j.j.j.j.j.j.j.j.j.j.j.j.j.j.j.j.j.j.j.j.j.j.j.j.j.j.z.a.x V  X=X*X` *X*X*X*X$XoXT.M.m.c.j.j.j.j.x.j.h.c.1.1                                                                   ",
"                                                                    z y.k.j.j.k.j.j.j.x.N.B.9.; $ * ; ; ; ; ; ; * $ 2 1.j.h.j.x.z.u.:.5XGXJXJXJXJXJXJXJXJXJXJXJXJXJXJXJXJXJXJXJXJXJXJXJXGX:Xh  .2.h.c.c.x.x.j.j.k.k.k.k.k.k.j.j.k.k.k.k.j.j.j.k.k.k.k.k.k.k.k.k.j.j.k.k.k.k.k.k.k.k.k.k.k.k.k.k.k.k.k.k.k.k.j.j.k.k.k.k.k.k.j.j.x.x.x.x.k.k.k.k.j.j.j.j.j.j.j.j.j.j.j.j.j.j.j.j.j.j.j.j.j.j.j.j.j.j.h.j.u.z S .X=X*X7.E.*X*X-X$XXXR.n.m.c.j.j.j.j.k.j.h.j.#.+                                                                   ",
"                                                                    p r.x.j.h.k.j.j.j.j.n.B.i.5 $ % ; ; ; ; ; ; 8 % @ $.j.h.j.x.z.u.:.5XGXJXJXJXJXJXJXJXJXJXJXJXJXJXJXJXJXJXJXJXJXJXJXJXJXPX6.f ..=.y.x.n.n.c.c.c.c.c.c.c.c.c.c.c.c.c.c.c.c.c.c.c.c.c.c.c.c.c.c.c.c.c.c.c.c.c.c.c.c.c.c.c.c.c.c.c.c.c.c.c.c.c.c.c.c.c.c.c.c.c.c.c.c.c.c.c.c.c.c.x.x.x.z.j.j.j.j.j.j.j.j.j.j.j.j.j.j.j.j.j.j.j.j.k.j.a.a.2.d R OX*XE.` *X*X*X-X$XXXA.n.n.x.j.j.j.k.j.j.j.h.}                                                                     ",
"                                                                    1 -.x.j.h.k.k.j.j.j.v.B.Z.v 6 % ; ; ; ; ; ; 7 % & | h.j.j.x.z.u.:.5XGXJXJXJXJXJXJXJXJXJXJXJXJXJXJXJXJXJXJXJXJXJXJXJXJXJXZXY k { %.w.h.k.x.x.x.x.x.x.x.x.x.x.x.k.x.x.k.x.x.x.x.x.x.x.x.x.x.x.x.x.x.x.x.x.x.x.k.k.x.x.x.x.x.x.x.x.x.x.x.x.x.x.x.x.x.x.x.x.x.x.x.x.x.x.x.k.k.x.x.x.c.x.x.x.k.j.j.j.j.j.j.j.j.j.j.j.j.j.j.j.j.j.j.j.h.a.%.l ^ #X#X7.` *X*X*X$X%XE.i.m.n.k.j.j.j.k.j.j.j.y.z                                                                     ",
"                                                                      o.j.j.h.j.k.j.j.j.v.B.B.+.% $ ; ; ; ; ; ; 7 * # z y.x.j.z.z.u.:.5XGXJXJXJXJXJXJXJXJXJXJXJXJXJXJXJXJXJXJXJXJXJXJXJXJXJXJXZX6.k f .. .%.=.1.1.=.=.=.=.=.1.1.=.=.=.=.1.1.1.1.=.=.=.=.=.=.=.=.1.1.1.=.=.=.=.1.=.=.=.=.=.=.=.=.=.=.=.=.1.=.1.=.=.=.=.=.=.=.1.1.=.=.=.=.=.=.1.1.t.y.j.x.c.c.c.x.k.j.j.j.j.j.j.j.j.j.j.j.j.j.j.k.j.j.j.u. .t  X-X` ` E.*X*X*X$XoXW.l.n.c.j.j.j.j.j.j.j.x.r.a                                                                     ",
"                                                                      c h.h.h.j.k.j.j.j.x.B.B.:.& $ ; ; ; ; ; ; 3 8 # a t.c.j.j.z.u.:.5XGXJXJXJXJXJXJXJXJXJXJXJXJXJXJXJXJXJXJXJXJXJXJXJXJXJXJXJXFX8Xv k k k j h h h h h h h h h h h h h h h h h h h h h h h h h h h h h h h h h h h h h h h h h h h h h h h h h h h h h h h h h h h h h h h j .... .#.=.t.h.x.c.c.x.j.j.j.j.j.j.j.j.j.j.j.j.j.k.j.j.j.r.x V .X=X` ` ` *X*X*X$XoXR.M.n.x.j.j.j.k.j.h.j.x.1.2                                                                     ",
"                                                                      s y.j.h.j.k.j.j.j.x.m.B.e.; $ : ; ; ; ; ; 3 * $ 2 1.c.j.j.z.u.:.5XGXJXJXJXJXJXJXJXJXJXJXJXJXJXJXJXJXJXJXJXJXJXJXJXJXJXJXJXJXKXZX8X6.B v v v v v v v v v v v v v v v v v v v v v v v v v v v v v v v v v v v v v v v v v v v v v v v v v v v v v v v v v v v v v v v v v g s a k j  .$.w.h.x.c.x.k.j.j.j.j.j.j.j.j.j.j.j.k.j.j.j.3.z S XX=X` ` ` *X*X-XoXoX0.n.n.x.j.j.j.k.j.h.j.x.$.                                                                      ",
"                                                                      2 1.j.j.j.k.j.j.j.j.n.B.l.5 $ * : ; ; ; ; < 8 $ @ #.x.j.j.z.u.:.5XGXKXJXJXJXJXJXJXJXJXJXJXJXJXJXJXJXJXJXJXJXJXJXJXJXJXJXJXJXJXJXHXZXhX9X9X9X9X9X9X9X9X9X9X9X9X9X9X9X9X9X9X9X9X9X9X9X9X9X9X9X9X9X9X9X9X9X9X9X9X9X9X9X9X9X9X9X9X9X9X9X9X9X9X9X9X9X9X9X9X9X9X9X9X9X9XhXhXhX,X8X8.Y g k k ..&.t.j.c.c.x.j.j.j.j.j.j.j.j.j.j.k.j.j.j.1.d D XX-X` ` ` *X*X-XoXXXA.n.n.x.j.j.j.k.j.h.j.j.}                                                                       ",
"                                                                      , $.x.k.h.j.j.j.j.j.v.B.V.v $ % : ; ; ; ; ; 7 % & } h.h.j.z.d.:.7XGXKXJXJXJXJXJXJXJXJXJXJXJXJXJXJXJXJXJXJXJXJXJXJXJXJXJXJXJXJXJXJXJXJXJXJXJXJXJXJXJXJXJXJXJXJXJXJXJXJXJXJXJXJXJXJXJXJXJXJXJXJXJXJXJXJXJXJXJXJXJXJXJXJXJXJXJXJXJXJXJXJXJXJXJXJXJXJXJXJXJXJXJXJXJXJXJXJXJXJXKXFXCX9XT.M k f  .=.a.x.c.x.j.j.j.j.j.j.j.j.j.k.h.h.j.$.d Q XX*X` ` E.E.*X-XoX7.i.n.n.x.j.j.j.k.j.h.j.h.z                                                                       ",
"                                                                        | c.x.h.j.k.j.j.j.x.B.B.b % $ : ; ; ; ; ; ; * # g t.j.j.z.p.:.7XGXKXJXJXJXJXJXJXJXJXJXJXJXJXJXJXJXJXJXJXJXJXJXJXJXJXJXJXJXJXJXJXJXJXJXJXJXJXJXJXJXJXJXJXJXJXJXJXJXJXJXJXJXJXJXJXJXJXJXJXJXJXJXJXJXJXJXJXJXJXJXJXJXJXJXJXJXJXJXJXJXJXJXJXJXJXJXJXJXJXJXJXJXJXJXJXJXJXJXJXJXJXJXJXKXVXW.g k ..%.t.k.c.x.j.j.j.j.j.j.j.k.k.j.a.a.o.l  XXX7.` ` ` E.*X$XoXT.k.n.c.j.j.j.j.k.j.j.j.r.p                                                                       ",
"                                                                        z j.j.a.j.k.j.j.j.k.B.G.:.> $ - < ; ; ; ; ; 8 $ p w.j.x.c.p.:.2XPXKXKXJXJXJXJXJXJXJXJXJXJXJXJXJXJXJXJXJXJXJXJXJXJXJXJXJXJXJXJXJXJXJXJXJXJXJXJXJXJXJXJXJXJXJXJXJXJXJXJXJXJXJXJXJXJXJXJXJXJXJXJXJXJXJXJXJXJXJXJXJXJXJXJXJXJXJXJXJXJXJXJXJXJXJXJXJXJXJXJXJXJXJXJXJXJXJXJXJXJXJXJXJXJXJXHXhX6.k j @.r.j.x.x.j.j.j.j.j.j.k.j.h.a.r.} F .X#X` ` ` @XE.*X$XoXR.c.n.v.j.j.j.j.j.j.j.x.=.,                                                                       ",
"                                                                        p t.j.a.j.x.j.j.j.j.m.G.e.< $ - ; ; ; ; ; 3 7 $ , =.x.x.c.f.;.:XDXKXKXJXJXJXJXJXJXJXJXJXJXJXJXJXJXJXJXJXJXJXJXJXJXJXJXJXJXJXJXJXJXJXJXJXJXJXJXJXJXJXJXJXJXJXJXJXJXJXJXJXJXJXJXJXJXJXJXJXJXJXJXJXJXJXJXJXJXJXJXJXJXJXJXJXJXJXJXJXJXJXJXJXJXJXJXJXJXJXJXJXJXJXJXJXJXJXJXJXJXJXJXJXJXJXJXJXFXW.k j X.w.j.c.x.j.j.j.j.j.j.j.j.a.2.v J XX-X` ` ` @XE.#XoXXX0.n.n.x.j.j.j.j.j.h.x.c.o.                                                                        ",
"                                                                        , 1.j.a.j.k.j.j.j.j.m.B.l.d $ * ; ; ; ; ; 3 7 $ = O.x.x.x.z.=.E.DXHXKXKXJXJXJXJXJXJXJXJXJXJXJXJXJXJXJXJXJXJXJXJXJXJXJXJXJXJXJXJXJXJXJXJXJXJXJXJXJXJXJXJXJXJXJXJXJXJXJXJXJXJXJXJXJXJXJXJXJXJXJXJXJXJXJXJXJXJXJXJXJXJXJXJXJXJXJXJXJXJXJXJXJXJXJXJXJXJXJXJXJXJXJXJXJXJXJXJXJXJXJXJXJXJXJXJXJXHX2Xv j X.w.k.c.x.j.j.j.j.k.j.j.j.*.d R $X*X' ` ` @XE.#XoXXXA.m.n.k.j.j.j.z.j.h.x.x.c                                                                         ",
"                                                                        + $.j.h.j.j.k.j.j.j.M.B.N.v $ * : ; ; ; ; 3 : $ & x j.k.x.c.2.8.MXHXHXKXJXJXJXJXJXJXJXJXJXJXJXJXJXJXJXJXJXJXJXJXJXJXJXJXJXJXJXJXJXJXJXJXJXJXJXJXJXJXJXJXJXJXJXJXJXJXJXJXJXJXJXJXJXJXJXJXJXJXJXJXJXJXJXJXJXJXJXJXJXJXJXJXJXJXJXJXJXJXJXJXJXJXJXJXJXJXJXJXJXJXJXJXJXJXJXJXJXJXJXJXJXJXJXJXJXJXKX2Xv j #.r.k.x.x.j.j.j.j.j.j.z.@.l Q -X*X' ` ` *XE.#XoX8.i.m.n.k.j.j.j.x.j.h.k.h.s                                                                         ",
"                                                                          | h.j.j.j.k.j.j.j.v.B.B.+.% % - ; ; ; ; < : % # s t.j.k.c.d.6.nXPXFXHXJXJXJXJXJXJXJXJXJXJXJXJXJXJXJXJXJXJXJXJXJXJXJXJXJXJXJXJXJXJXJXJXJXJXJXJXJXJXJXJXJXJXJXJXJXJXJXJXJXJXJXJXJXJXJXJXJXJXJXJXJXJXJXJXJXJXJXJXJXJXJXJXJXJXJXJXJXJXJXJXJXJXJXJXJXJXJXJXJXJXJXJXJXJXJXJXJXJXJXJXJXJXJXJXJXJXJXKX2Xv { &.y.k.x.x.j.x.j.h.j.z.| y Q -X*X' ` ` *X*X#XoXW.l.m.n.j.j.j.j.k.j.h.j.t.p                                                                         ",
"                                                                          x a.j.j.j.k.j.j.j.z.N.G.9.; $ * ; ; ; ; ; : 8 $ 2 1.h.j.n.x.,.2XDXPXHXJXJXJXJXJXJXJXJXJXJXJXJXJXJXJXJXJXJXJXJXJXJXJXJXJXJXJXJXJXJXJXJXJXJXJXJXJXJXJXJXJXJXJXJXJXJXJXJXJXJXJXJXJXJXJXJXJXJXJXJXJXJXJXJXJXJXJXJXJXJXJXJXJXJXJXJXJXJXJXJXJXJXJXJXJXJXJXJXJXJXJXJXJXJXJXJXJXJXJXJXJXJXJXJXJXJXJXJXKX8Xj ..=.y.x.x.k.x.j.h.j.s.c V  X#XE.` ` ` 7.*X$XOXR.v.m.c.j.j.j.k.k.j.h.j.1.,                                                                         ",
"                                                                          s t.j.h.h.x.k.j.j.j.N.G.i.5 $ * ; ; ; ; ; ; 7 $ @ #.a.z.n.m.9.=XMXDXFXJXJXJXJXJXJXJXJXJXJXJXJXJXJXJXJXJXJXJXJXJXJXJXJXJXJXJXJXJXJXJXJXJXJXJXJXJXJXJXJXJXJXJXJXJXJXJXJXJXJXJXJXJXJXJXJXJXJXJXJXJXJXJXJXJXJXJXJXJXJXJXJXJXJXJXJXJXJXJXJXJXJXJXJXJXJXJXJXJXJXJXJXJXJXJXJXJXJXJXJXJXJXJXJXJXJXJXJXJXLXW.j  .1.h.x.x.x.j.h.a.r.z S .XXX` ` ` ` 7.#X$XXX0.n.n.x.j.j.j.k.j.j.h.j.$.                                                                          ",
"                                                                          2 1.j.h.h.k.k.j.j.j.n.G.Z.v $ * ; ; ; ; ; ; 7 $ o } a.z.m.B.i.8.mXDXFXHXJXJXJXJXJXJXJXJXJXJXJXJXJXJXJXJXJXJXJXJXJXJXJXJXJXJXJXJXJXJXJXJXJXJXJXJXJXJXJXJXJXJXJXJXJXJXJXJXJXJXJXJXJXJXJXJXJXJXJXJXJXJXJXJXJXJXJXJXJXJXJXJXJXJXJXJXJXJXJXJXJXJXJXJXJXJXJXJXJXJXJXJXJXJXJXJXJXJXJXJXJXJXJXJXJXJXJXJXJXPX6.{ %.r.k.c.x.j.h.a.=.d R XXXX` ' ` ` E.#XoX` A.n.n.x.j.j.j.k.j.j.j.h.}                                                                           ",
"                                                                          + $.j.h.h.j.k.j.j.j.M.B.C...$ * ; ; ; ; ; < 7 $ # z y.z.M.B.Z.>.1XDXZXFXJXJXJXJXJXJXJXJXJXJXJXJXJXJXJXJXJXJXJXJXJXJXJXJXJXJXJXJXJXJXJXJXJXJXJXJXJXJXJXJXJXJXJXJXJXJXJXJXJXJXJXJXJXJXJXJXJXJXJXJXJXJXJXJXJXJXJXJXJXJXJXJXJXJXJXJXJXJXJXJXJXJXJXJXJXJXJXJXJXJXJXJXJXJXJXJXJXJXJXJXJXJXJXJXJXJXJXJXJXJXMXN ..=.h.x.x.k.h.y.X.l ^ -X#X' ` ` 7.E.XXoX8.b.m.n.k.j.j.j.k.h.j.x.h.z                                                                           ",
"                                                                            } h.h.h.j.j.j.j.j.v.B.B.:.% % : ; ; ; ; ; ; % # a r.z.j.B.G.9.XXnXAXZXKXJXJXJXJXJXJXJXJXJXJXJXJXJXJXJXJXJXJXJXJXJXJXJXJXJXJXJXJXJXJXJXJXJXJXJXJXJXJXJXJXJXJXJXJXJXJXJXJXJXJXJXJXJXJXJXJXJXJXJXJXJXJXJXJXJXJXJXJXJXJXJXJXJXJXJXJXJXJXJXJXJXJXJXJXJXJXJXJXJXJXJXJXJXJXJXJXJXJXJXJXJXJXJXJXJXJXJXJXJXGX8Xx X.r.j.c.x.j.u.} r ^ -X*X' ` ` ` E.XXoXT.M.m.c.k.j.j.j.k.h.h.x.t.a                                                                           ",
"                                                                            s y.j.j.j.k.k.j.j.x.N.B.i.3 $ - ; ; ; ; ; ; 6 $ 1 =.j.a.N.J.F.6.1XnXVXFXJXJXJXJXJXJXJXJXJXJXJXJXJXJXJXJXJXJXJXJXJXJXJXJXJXJXJXJXJXJXJXJXJXJXJXJXJXJXJXJXJXJXJXJXJXJXJXJXJXJXJXJXJXJXJXJXJXJXJXJXJXJXJXJXJXJXJXJXJXJXJXJXJXJXJXJXJXJXJXJXJXJXJXJXJXJXJXJXJXJXJXJXJXJXJXJXJXJXJXJXJXJXJXJXJXJXJXJXJXJXDX6...=.h.k.x.x.u.x C  X=X7.' ' ` ` *XXXoXR.N.m.c.j.j.j.k.k.h.h.k.1.1                                                                           ",
"                                                                            2 w.x.j.h.k.k.j.j.j.M.B.b.5 $ * : ; ; ; ; ; 8 $ @ O.a.d.M.J.J.0.XXmXNXZXHXJXJXJXJXJXJXJXJXJXJXJXJXJXJXJXJXJXJXJXJXJXJXJXJXJXJXJXJXJXJXJXJXJXJXJXJXJXJXJXJXJXJXJXJXJXJXJXJXJXJXJXJXJXJXJXJXJXJXJXJXJXJXJXJXJXJXJXJXJXJXJXJXJXJXJXJXJXJXJXJXJXJXJXJXJXJXJXJXJXJXJXJXJXJXJXJXJXJXJXJXJXJXJXJXJXJXJXJXJXKX7X..%.u.h.k.x.3.z S .X*X7.' ' ` ` #XoXXXA.n.n.x.j.j.j.k.j.h.h.j.#.+                                                                           ",
"                                                                            , $.c.j.h.k.k.j.j.j.v.B.Z.d $ % ; ; ; ; ; ; 7 % # x y.s.k.C.U.Y.Y 1XnXBXFXJXJXJXJXJXJXJXJXJXJXJXJXJXJXJXJXJXJXJXJXJXJXJXJXJXJXJXJXJXJXJXJXJXJXJXJXJXJXJXJXJXJXJXJXJXJXJXJXJXJXJXJXJXJXJXJXJXJXJXJXJXJXJXJXJXJXJXJXJXJXJXJXJXJXJXJXJXJXJXJXJXJXJXJXJXJXJXJXJXJXJXJXJXJXJXJXJXJXJXJXJXJXJXJXJXJXJXJXJXJXPX>.X.2.t.j.j.=.d D OX*X` ' ' ` ` #XoX` A.n.n.x.j.j.j.k.j.j.h.j.}                                                                             ",
"                                                                              | x.h.a.j.k.j.j.j.v.B.B.b % % : ; ; ; ; ; 9 8 # s r.z.s.N.L.U.q.) mX6XBXFXJXJXJXJXJXJXJXJXJXJXJXJXJXJXJXJXJXJXJXJXJXJXJXJXJXJXJXJXJXJXJXJXJXJXJXJXJXJXJXJXJXJXJXJXJXJXJXJXJXJXJXJXJXJXJXJXJXJXJXJXJXJXJXJXJXJXJXJXJXJXJXJXJXJXJXJXJXJXJXJXJXJXJXJXJXJXJXJXJXJXJXJXJXJXJXJXJXJXJXJXJXJXJXJXJXJXJXJXJXKX8X..&.t.h.a.@.l Q XX` ` ' ' ` ` #XoX8.b.n.n.j.j.j.j.k.j.j.j.y.s                                                                             ",
"                                                                              z j.h.a.j.z.j.j.j.x.B.G.:.- $ : ; ; ; ; ; 0 8 $ 2 -.x.d.j.K.U.Y.6.OXmX6XNXHXJXJXJXJXJXJXJXJXJXJXJXJXJXJXJXJXJXJXJXJXJXJXJXJXJXJXJXJXJXJXJXJXJXJXJXJXJXJXJXJXJXJXJXJXJXJXJXJXJXJXJXJXJXJXJXJXJXJXJXJXJXJXJXJXJXJXJXJXJXJXJXJXJXJXJXJXJXJXJXJXJXJXJXJXJXJXJXJXJXJXJXJXJXJXJXJXJXJXJXJXJXJXJXJXJXJXJXJXJXMX>.X.r.j.u.} t ) #X' ' ' ` ` UXXXoXT.l.m.v.j.j.j.k.k.j.j.x.w.2                                                                             ",
"                                                                              2 t.h.h.j.j.k.j.j.j.B.G.i.4 $ : ; ; ; ; ; 3 - $ @ @.x.a.d.N.P.'.S.Y oX7X6XVXKXJXJXJXJXJXJXJXJXJXJXJXJXJXJXJXJXJXJXJXJXJXJXJXJXJXJXJXJXJXJXJXJXJXJXJXJXJXJXJXJXJXJXJXJXJXJXJXJXJXJXJXJXJXJXJXJXJXJXJXJXJXJXJXJXJXJXJXJXJXJXJXJXJXJXJXJXJXJXJXJXJXJXJXJXJXJXJXJXJXJXJXJXJXJXJXJXJXJXJXJXJXJXJXJXJXJXJXJXPXW. .u.j.2.v V .X-X' ' ' ` 7.XXoXoXR.M.m.v.j.j.j.j.j.h.j.c.*.,                                                                             ",
"                                                                              , -.j.h.j.j.k.j.j.j.N.B.Z.d $ * ; ; ; ; ; ; - $ & } j.a.d.z.C.'.'.q.W oX7X4XZXKXJXJXJXJXJXJXJXJXJXJXJXJXJXJXJXJXJXJXJXJXJXJXJXJXJXJXJXJXJXJXJXJXJXJXJXJXJXJXJXJXJXJXJXJXJXJXJXJXJXJXJXJXJXJXJXJXJXJXJXJXJXJXJXJXJXJXJXJXJXJXJXJXJXJXJXJXJXJXJXJXJXJXJXJXJXJXJXJXJXJXJXJXJXJXJXJXJXJXJXJXJXJXJXJXJXJXJXKX2XO.3.z.=.d S XX-X' ' ' ` 7.#XoXXX0.m.m.x.j.j.j.x.j.h.j.c.|                                                                               ",
"                                                                                @.j.j.j.j.k.j.j.j.v.B.B.b $ $ : 3 ; ; ; ; : % # s y.h.a.s.z.K.`.'.T.^ &X2X2XVXKXJXJXJXJXJXJXJXJXJXJXJXJXJXJXJXJXJXJXJXJXJXJXJXJXJXJXJXJXJXJXJXJXJXJXJXJXJXJXJXJXJXJXJXJXJXJXJXJXJXJXJXJXJXJXJXJXJXJXJXJXJXJXJXJXJXJXJXJXJXJXJXJXJXJXJXJXJXJXJXJXJXJXJXJXJXJXJXJXJXJXJXJXJXJXJXJXJXJXJXJXJXJXJXJXJXJXJXBX>.4.z.*.d D XX*X' ' ' ' 7.#XoX' A.m.n.j.j.j.j.k.j.h.h.j.x                                                                               ",
"                                                                                c j.j.h.j.x.j.j.j.z.B.G.:.- $ - ; ; ; ; ; ; 8 # 2 1.j.j.s.p.v.P.[._.6.Q oX:X2XBXHXJXJXJXJXJXJXJXJXJXJXJXJXJXJXJXJXJXJXJXJXJXJXJXJXJXJXJXJXJXJXJXJXJXJXJXJXJXJXJXJXJXJXJXJXJXJXJXJXJXJXJXJXJXJXJXJXJXJXJXJXJXJXJXJXJXJXJXJXJXJXJXJXJXJXJXJXJXJXJXJXJXJXJXJXJXJXJXJXJXJXJXJXJXJXJXJXJXJXJXJXJXJXJXJXJXJXDX6.&.f.@.r Q XXE.' ' ` ` ` XXoX8.b.m.n.j.j.j.j.x.j.h.h.y.a                                                                               ",
"                                                                                s y.j.h.j.x.j.j.j.z.B.G.9.< $ - < ; ; ; ; 3 7 $ , $.x.k.a.s.f.V./.[.|.Y Q +X:X2X6XFXKXJXJXJXJXJXJXJXJXJXJXJXJXJXJXJXJXJXJXJXJXJXJXJXJXJXJXJXJXJXJXJXJXJXJXJXJXJXJXJXJXJXJXJXJXJXJXJXJXJXJXJXJXJXJXJXJXJXJXJXJXJXJXJXJXJXJXJXJXJXJXJXJXJXJXJXJXJXJXJXJXJXJXJXJXJXJXJXJXJXJXJXJXJXJXJXJXJXJXJXJXJXJXJXJXPXW.&.p.} t ^ XX` ' ' ` ` XXXXoXT.M.m.n.j.j.j.k.k.j.h.h.1.1                                                                               ",
"                                                                                2 1.j.y.j.x.j.j.j.j.N.G.b.d $ - ; ; ; ; ; 3 7 $ o } j.k.h.j.s.g.V.).{.|.T.E  X-X>X2XNXFXKXJXJXJXJXJXJXJXJXJXJXJXJXJXJXJXJXJXJXJXJXJXJXJXJXJXJXJXJXJXJXJXJXJXJXJXJXJXJXJXJXJXJXJXJXJXJXJXJXJXJXJXJXJXJXJXJXJXJXJXJXJXJXJXJXJXJXJXJXJXJXJXJXJXJXJXJXJXJXJXJXJXJXJXJXJXJXJXJXJXJXJXJXJXJXJXJXJXJXJXJXJXJXGX8X&.3.b S .XXX' ' ' ` ` XXoXOX0.n.n.v.j.j.j.x.j.j.j.j.$.@                                                                               ",
"                                                                                @ @.j.h.j.k.j.j.j.j.M.B.V.v $ * ; ; ; ; ; 3 ; $ # z a.j.h.j.j.p.g.C.`.{.}.W.W Q .X-X>X8X6XZXFXKXJXJXJXJXJXJXJXJXJXJXJXJXJXJXJXJXJXJXJXJXJXJXJXJXJXJXJXJXJXJXJXJXJXJXJXJXJXJXJXJXJXJXJXJXJXJXJXJXJXJXJXJXJXJXJXJXJXJXJXJXJXJXJXJXJXJXJXJXJXJXJXJXJXJXJXJXJXJXJXJXJXJXJXJXJXJXJXJXJXJXJXJXJXJXJXJXJXJXJXGX4X;.&.d R XX` _ ' ' ` ` XXoXXXA.m.n.x.j.j.j.k.j.h.j.j.|                                                                                 ",
"                                                                                  c h.j.j.j.k.j.j.j.M.B.C.+.% % : ; ; ; ; < ; 6 # a r.j.h.j.k.j.s.g.C.).pXgXQ.] T Q ^ .X=X:X2X6XBXNXNXVXVXNXNXNXNXVXVXVXNXNXNXNXNXNXNXVXVXNXNXNXNXNXNXNXNXNXVXVXNXVXVXVXNXNXNXNXNXVXVXVXNXNXNXNXNXNXNXVXVXNXNXNXNXNXNXNXNXNXVXNXNXNXVXZXHXJXJXJXJXJXJXJXJXJXJXJXJXJXJXJXJXJXJXJXJXJXJXJXJXJXJXJXJXJXJXGXhX;. .l R #XE._ ' ' ` 7.XXoX' i.m.n.k.j.j.j.x.j.h.j.h.c                                                                                 ",
"                                                                                  g y.x.j.j.k.j.j.j.x.N.G.9.: 6 - ; ; ; ; ; ; * $ , =.j.h.j.k.k.j.s.p.V./.pXsXiXW./ E E E W ^ ) ' XX-X-X-X*X*X*X*X*X*X*X*X*X*X*X*X*X*X*X*X*X*X*X*X*X*X*X*X*X*X*X*X*X*X*X*X*X*X*X*X*X*X*X*X*X*X*X*X*X*X*X*X*X*X*X*X*X*X*X*X*X*X*X#X-X>X2X6XVXFXKXJXJXJXJXJXJXJXJXJXJXJXJXJXJXJXJXJXJXJXJXJXJXJXJXJXJXJXGXBX;...u Q #XE._ ' ' ` 7.XXoX8.b.m.M.k.j.j.j.x.j.h.j.t.a                                                                                 ",
"                                                                                  p w.c.h.h.k.j.j.j.j.N.G.i.5 $ * ; ; ; ; ; ; 7 $ = | h.j.h.j.x.j.j.s.p.v.P.[.sXfXyXQ.' W T J J T E E E E E E E E E E E E E E E E E E E E E E E E E E E E E E E E E E E E E E E E E E E E E E E E E E E E E E E E E E E E E E E E E W ) ' =X2XVXHXJXJXJXJXJXJXJXJXJXJXJXJXJXJXJXJXJXJXJXJXJXJXJXJXJXJXGXCX,.h t ^ XX` _ ' ' ` ` XXoXR.M.m.c.j.j.j.j.x.j.h.j.1.1                                                                                 ",
"                                                                                  1 *.c.a.h.k.k.j.j.j.M.G.Z.d $ % ; ; ; ; ; ; 7 6 # z a.x.h.j.x.j.j.j.s.p.z.C./.pXkXzXaXyXQ.E.] ( / ! ! ! ! ! ! ! ! ! ! ! ! ! ! ! ! ! ! ! ! ! ! ! ! ! ! ! ! / / ! ! ! ! ! ! ! ! ! ! ! ! ! ! ! ! ! ! ! ! ! ! ! ! ! ! ! ! ! ! / / / ! E J R ) -X:X6XFXJXJXJXJXJXJXJXJXJXJXJXJXJXJXJXJXJXJXJXJXJXJXJXJXJXGXCX,.s F  X` ' _ ' ' ' XXOXOX0.n.m.c.j.j.j.j.j.j.h.j.$.@                                                                                 ",
"                                                                                  + | x.y.h.j.k.j.j.j.v.G.C...% % : ; ; ; ; 3 9 * # a t.x.a.j.x.j.j.j.j.s.p.p.v.K.(.{.sXkXzXjXbXyXyXyXeXeXeXeXeXeXeXeXeXeXeXeXeXeXeXeXeXeXeXeXeXeXeXeXeXeXeXeXeXeXeXeXeXeXeXeXeXeXeXeXeXeXeXeXeXeXeXeXeXeXeXeXeXeXeXeXeXeXyXyXyXyXyX<XW./ E ^ #X:X6XFXJXJXJXJXJXJXJXJXJXJXJXJXJXJXJXJXJXJXJXJXJXJXJXKXKXCX..p I .X` ' _ ' ' ` XXoX' A.m.m.x.j.j.j.k.j.j.j.j.}                                                                                   ",
"                                                                                    z h.h.h.j.k.j.j.j.v.B.H.:.- $ : ; ; ; ; ; 3 * $ , -.j.y.h.k.j.j.j.j.j.j.s.s.p.v.C.P.).{.sXdXdXdXdXdXdXdXdXdXdXdXdXdXdXdXdXdXdXdXdXdXdXdXdXdXdXdXdXdXdXdXdXdXdXdXdXdXdXdXdXdXdXdXdXdXdXdXdXdXdXdXdXdXdXdXdXdXdXdXdXdXdXdXdXdXdXkXkXaXyXW.W ^ ;X8X6XFXJXJXJXJXJXJXJXJXJXJXJXJXJXJXJXJXJXJXJXJXJXJXJXJXhXd 5 L #X' _ _ ' ' ` XXoX8.i.m.n.k.j.j.j.k.j.j.k.a.z                                                                                   ",
"                                                                                    p t.h.h.j.k.j.j.j.k.N.G.i.4 $ * : ; ; ; ; ; - $ + o.h.y.h.j.k.j.j.j.j.j.j.j.s.s.p.z.M.C.K.P./.)._._.).).).).).).).).).).).).).).).).).).).).).).).).).).).).).).).).).).).).).).).).).).).).).).).).).).).).).).).).).).).).)._.{.sXdXpXQ.L  X1X2XhXHXJXJXJXJXJXJXJXJXJXJXJXJXJXJXJXJXJXJXJXJXJXJXJXhX5 4 ( *X' _ _ ' ` ` OXoX6.b.m.v.k.j.j.k.x.j.h.c.r.a                                                                                   ",
"                                                                                    2 -.j.j.h.j.j.j.j.j.M.G.Z.d $ % : ; ; ; ; ; : * # x t.h.h.j.k.j.j.j.j.j.j.j.j.s.s.s.s.p.f.z.x.M.M.M.M.M.M.M.M.M.M.M.M.M.M.M.M.M.M.M.M.M.M.M.M.M.M.M.M.M.M.M.M.M.M.M.M.M.M.M.M.M.M.M.M.M.M.M.M.M.M.M.M.M.M.M.M.M.M.M.M.M.M.M.M.N.V.K._.pX{.!.Y +X1X4XVXHXJXJXJXJXJXJXJXJXJXJXJXJXJXJXJXJXJXJXJXKXJXJX6X; w ( *X' _ _ ' ` ` OX.XR.M.m.v.j.j.j.k.k.h.h.c.-.2                                                                                   ",
"                                                                                    @ #.j.j.h.j.k.j.j.j.v.B.H.+.& $ : ; ; ; ; ; ; 7 # a w.j.j.j.k.j.j.j.j.j.j.j.j.j.j.j.s.s.p.p.p.p.p.p.p.p.p.p.p.p.p.p.p.p.p.p.p.p.p.p.p.p.p.p.p.p.p.p.p.p.p.p.p.p.p.p.p.p.p.p.p.p.p.p.p.p.p.p.p.p.p.p.p.p.p.p.p.p.p.p.p.p.p.p.p.p.p.f.N.P.[.[.q.( oX5X6XFXJXJXJXJXJXJXJXJXJXJXJXJXJXJXJXJXJXJXJXJXJXJX6Xw r ] *X' _ ' ' ` XXOX.X0.m.m.x.j.j.j.k.k.h.h.x.@.@                                                                                   ",
"                                                                                      } h.h.a.j.x.j.j.j.v.B.H.9.: $ : ; ; ; ; ; 3 7 $ 1 =.k.j.h.k.j.j.j.j.j.j.j.j.j.j.j.j.j.j.j.s.s.s.s.j.j.j.j.j.j.j.j.j.j.j.j.j.j.j.j.j.j.j.j.j.j.j.j.j.j.j.j.j.j.j.j.j.j.j.j.j.j.j.j.j.j.j.j.j.j.j.j.j.j.j.j.j.j.j.j.j.j.j.j.j.j.s.p.p.z.K.`.'.q.) 1XnXVXLXJXJXJXJXJXJXJXJXJXJXJXJXJXJXJXJXJXJXJXJXJX6Xt F ] ` _ _ _ ' ` XXoX_ i.m.m.x.j.j.j.k.j.h.h.j.c                                                                                     ",
"                                                                                      s t.h.y.j.x.j.j.j.k.V.H.i.4 $ : ; ; ; ; ; 3 7 $ + o.j.h.a.j.j.j.j.j.j.j.j.j.j.j.j.j.j.j.j.j.j.j.j.j.j.j.j.j.j.j.j.j.j.j.j.j.j.j.j.j.j.j.j.j.j.j.j.j.j.j.j.j.j.j.j.j.j.j.j.j.j.j.j.j.j.j.j.j.j.j.j.j.j.j.j.j.j.j.j.j.j.j.j.j.j.j.j.s.p.z.L.'.Y.T.;XnXNXFXJXJXJXJXJXJXJXJXJXJXJXJXJXJXJXJXJXJXJXJXJX6XG K ] ' _ _ _ ' ` OXOX6.l.m.N.k.j.j.j.k.j.h.h.y.s                                                                                     ",
"                                                                                      2 -.h.h.j.k.j.j.j.j.N.C.V.d $ * ; ; ; ; ; < 7 6 X x a.h.h.j.k.j.j.j.j.j.j.j.j.j.j.j.j.j.j.j.j.j.j.j.j.j.j.j.j.j.j.j.j.j.j.j.j.j.j.j.j.j.j.j.j.j.j.j.j.j.j.j.j.j.j.j.j.j.j.j.j.j.j.j.j.j.j.j.j.j.j.j.j.j.j.j.j.j.j.j.j.j.j.j.j.k.k.j.s.p.v.L.U.q.` nXAXFXKXJXJXJXJXJXJXJXJXJXJXJXJXJXJXJXJXJXJXJXJX6XL L ] _ _ _ _ ' ' oX.XR.N.m.M.j.j.j.j.j.j.j.j.1.2                                                                                     ",
"                                                                                      @ @.j.j.h.j.j.j.j.j.M.B.C.b $ % : ; ; ; ; < 7 * # a w.h.h.x.c.x.x.x.x.x.x.x.x.x.x.x.x.x.x.x.x.x.x.k.j.j.j.j.j.j.j.j.j.j.j.j.j.j.j.j.j.j.j.j.j.j.j.j.j.j.j.j.j.j.j.j.j.j.j.j.j.j.j.j.j.j.j.j.j.j.j.j.j.j.j.j.j.j.j.j.j.j.j.j.j.j.j.j.j.s.s.V.L.F.T.1XAXFXHXJXJXJXJXJXJXJXJXJXJXJXJXJXJXJXJXJXJXJXJXIX( ~ ] _ _ _ ' ' ' OX.X0.B.m.v.j.j.j.j.j.h.j.x.$.,                                                                                     ",
"                                                                                        c h.x.h.j.x.j.j.j.v.V.H.:.> $ - ; ; ; ; ; 3 7 $ , $.j.x.x.n.n.c.c.c.c.c.c.c.c.c.c.c.c.c.c.c.c.c.c.x.j.j.j.j.j.j.j.j.j.j.j.j.j.j.j.j.j.j.j.j.j.j.j.j.j.j.j.j.j.j.j.j.j.j.j.j.j.j.j.j.j.j.j.j.j.j.j.j.j.j.j.j.j.j.j.j.j.j.j.j.j.j.j.j.j.s.v.G.Z.9.:XDXFXFXJXJXJXJXJXJXJXJXJXJXJXJXJXJXJXJXJXJXJXJXIX/ / ] _ _ _ ' ' ' +X_ A.B.m.x.j.j.j.x.j.a.j.j.|                                                                                       ",
"                                                                                        s y.c.a.h.x.j.j.j.k.N.H.e.< $ - ; ; ; ; ; 3 7 $ + } j.c.a.h.j.h.j.j.j.j.j.j.j.j.j.j.j.j.j.j.h.j.j.x.k.j.j.j.j.j.j.j.j.j.j.j.j.j.j.j.j.j.j.j.j.j.j.j.j.j.j.j.j.j.j.j.j.j.j.j.j.j.j.j.j.j.j.j.j.j.j.j.j.j.j.j.j.j.j.j.j.j.j.j.j.j.j.j.j.j.x.m.c.e.W.DXLXFXJXJXJXJXJXJXJXJXJXJXJXJXJXJXJXJXJXJXJXJX6X/ / ] _ _ _ _ ' XX+X8.Z.B.m.x.j.j.j.x.j.y.j.y.g                                                                                       ",
"                                                                                        1 1.x.y.h.z.j.j.j.j.N.H.Z.d $ * ; ; ; ; ; 0 : X . g u.d.%.%.%.&.&.&.&.&.&.&.&.&.&.&.&.&.&.%.%.$.1.y.x.x.j.j.j.j.j.j.j.j.j.j.j.j.j.j.j.j.j.j.j.j.j.j.j.j.j.j.j.j.j.j.j.j.j.j.j.j.j.j.j.j.j.j.j.j.j.j.j.j.j.j.j.j.j.j.j.j.j.j.j.j.j.j.j.j.j.c.c.3.W.MXGXLXJXJXJXJXJXJXJXJXJXJXJXJXJXJXJXJXJXJXJXJX6X/ / ] _ _ _ _ ' OX.XR.V.B.N.j.j.j.k.x.j.a.j.1.2                                                                                       ",
"                                                                                        O o.j.a.h.j.j.j.j.j.M.C.C.b $ % ; ; ; ; ; ; : . . 1  .X.h f f f h h h h f f h h h h h h f f f x o.w.k.x.k.j.j.j.j.j.j.j.j.j.j.j.j.j.j.j.j.j.j.j.j.j.j.j.j.j.j.j.j.j.j.j.j.j.j.j.j.j.j.j.j.j.j.j.j.j.j.j.j.j.j.j.j.j.j.j.j.j.j.j.j.j.j.j.k.j.f.3.T.MXGXHXJXJXJXJXJXJXJXJXJXJXJXJXJXJXJXJXJXJXJXJX0X/ / ] _ _ _ ' .XOX_ 0.B.V.v.j.j.j.x.j.j.j.j.@.@                                                                                       ",
"                                                                                          x a.h.h.j.j.j.j.j.x.V.H.:.- $ - ; ; ; : : 0 V V n >.>.N N N N N N N N N N N N N N N N N N N b #.r.j.x.k.j.j.j.j.j.j.j.j.j.j.j.j.j.j.j.j.j.j.j.j.j.j.j.j.j.j.j.j.j.j.j.j.j.j.j.j.j.j.j.j.j.j.j.j.j.j.j.j.j.j.j.j.j.j.j.j.j.j.j.j.j.j.j.k.j.f.3.6.MXGXKXJXJXJXJXJXJXJXJXJXJXJXJXJXJXJXJXJXJXJXJX6X/ / ] _ _ ' ' .X+X_ S.B.N.x.j.j.j.x.j.h.k.h.c                                                                                         ",
"                                                                                          s r.j.j.j.k.j.j.j.z.N.H.i.4 $ * ; ; ; o . r 7XFXZXVXZXZXZXZXZXZXZXZXZXZXZXZXZXZXZXZXZXZXPXtXT.=.u.j.k.j.j.j.j.j.j.j.j.j.j.j.j.j.j.j.j.j.j.j.j.j.j.j.j.j.j.j.j.j.j.j.j.j.j.j.j.j.j.j.j.j.j.j.j.j.j.j.j.j.j.j.j.j.j.j.j.j.j.j.j.j.j.j.j.k.j.s.4.6.AXKXJXJXJXJXJXJXJXJXJXJXJXJXJXJXJXJXJXJXJXJXJX6X/ / ] _ _ _ ' .X X6.Z.B.N.k.j.j.j.x.j.a.x.t.s                                                                                         ",
"                                                                                          2 1.j.j.h.x.k.j.j.j.M.H.Z.v $ % ; ; ; o . r VXJXJXJXJXJXJXJXJXJXJXJXJXJXJXJXJXJXJXJXJXJXJXPXW.&.d.j.k.j.j.j.j.j.j.j.j.j.j.j.j.j.j.j.j.j.j.j.j.j.j.j.j.j.j.j.j.j.j.j.j.j.j.j.j.j.j.j.j.j.j.j.j.j.j.j.j.j.j.j.j.j.j.j.j.j.j.j.j.j.j.j.j.k.j.d.&.T.ZXJXJXJXJXJXJXJXJXJXJXJXJXJXJXJXJXJXJXJXJXJXJX6X/ / ] _ _ _ ' .X.XR.B.B.M.j.j.j.k.x.h.y.j.-.1                                                                                         ",
"                                                                                          + @.j.h.h.k.k.j.j.j.v.C.H.+.% $ : ; ; o . q BXJXJXJXJXJXJXJXJXJXJXJXJXJXJXJXJXJXJXJXJXJXJXFXW.%.3.j.k.j.j.j.j.j.j.j.j.j.j.j.j.j.j.j.j.j.j.j.j.j.j.j.j.j.j.j.j.j.j.j.j.j.j.j.j.j.j.j.j.j.j.j.j.j.j.j.j.j.j.j.j.j.j.j.j.j.j.j.j.j.j.j.k.x.j.3.X.W.FXJXJXJXJXJXJXJXJXJXJXJXJXJXJXJXJXJXJXJXJXJXJX6X/ ~ ] _ _ _ .X.X_ A.B.V.v.j.j.j.k.k.h.a.h.O.O                                                                                         ",
"                                                                                            x y.h.h.j.k.j.j.j.v.B.H.9.- $ : ; ; o . w 6XJXJXJXJXJXJXJXJXJXJXJXJXJXJXJXJXJXJXJXJXJXJXLX8X .4.j.x.k.j.j.j.j.j.j.j.j.j.j.j.j.j.j.j.j.j.j.j.j.j.j.j.j.j.j.j.j.j.j.j.j.j.j.j.j.j.j.j.j.j.j.j.j.j.j.j.j.j.j.j.j.j.j.j.j.j.j.j.j.j.j.x.x.h.4. .8XLXJXJXJXJXJXJXJXJXJXJXJXJXJXJXJXJXJXJXJXJXJXJXIX/ ~ ] _ _ ' .X+X8.Z.B.N.k.j.j.j.k.j.h.h.t.z                                                                                           ",
"                                                                                            a r.h.h.j.k.j.j.j.k.V.H.Z.5 $ * : ; o . w 6XJXJXJXJXJXJXJXJXJXJXJXJXJXJXJXJXJXJXJXJXJXJXKX5X..&.a.k.k.k.j.j.j.j.j.j.j.j.j.j.j.j.j.j.j.j.j.j.j.j.j.j.j.j.j.j.j.j.j.j.j.j.j.j.j.j.j.j.j.j.j.j.j.j.j.j.j.j.j.j.j.j.j.j.j.j.j.j.j.j.j.x.k.a.&...7XKXJXJXJXJXJXJXJXJXJXJXJXJXJXJXJXJXJXJXJXJXJXJXIX/ ~ ] _ _ ' .X XR.B.B.M.j.j.j.k.x.h.j.j.1.p                                                                                           ",
"                                                                                            2 -.h.h.h.j.k.j.j.j.M.C.C.v $ % : ; o . q 6XJXJXJXJXJXJXJXJXJXJXJXJXJXJXJXJXJXJXJXJXJXJXJXDX>.X.3.h.k.x.j.j.j.j.j.j.j.j.j.j.j.j.j.j.j.j.j.j.j.j.j.j.j.j.j.j.j.j.j.j.j.j.j.j.j.j.j.j.j.j.j.j.j.j.j.j.j.j.j.j.j.j.j.j.j.j.j.j.j.j.x.x.h.3.X.>.DXJXJXJXJXJXJXJXJXJXJXJXJXJXJXJXJXJXJXJXJXJXJXJXBX/ L ] _ ' '  X) A.B.B.v.j.j.j.x.k.h.h.j.$.,                                                                                           ",
"                                                                                            @ o.j.j.a.j.k.j.j.j.v.C.J.+.% $ - ; o . w 6XJXJXJXJXJXJXJXJXJXJXJXJXJXJXJXJXJXJXJXJXJXJXJXKX>X..&.t.k.x.x.j.j.j.j.j.j.j.j.j.j.j.j.j.j.j.j.j.j.j.j.j.j.j.j.j.j.j.j.j.j.j.j.j.j.j.j.j.j.j.j.j.j.j.j.j.j.j.j.j.j.j.j.j.j.j.j.j.j.x.c.k.t.&...>XGXJXJXJXJXJXJXJXJXJXJXJXJXJXJXJXJXJXJXJXJXJXJXJX0X/ L ( _ ' .X X] Z.G.V.x.j.j.j.x.j.a.h.h.} O                                                                                           ",
"                                                                                              x j.j.y.j.x.j.j.j.z.B.J.9.< $ - ; o . w 6XJXJXJXJXJXJXJXJXJXJXJXJXJXJXJXJXJXJXJXJXJXJXJXJXAXN ..2.h.x.c.x.j.j.j.j.j.j.j.j.j.j.j.j.j.j.j.j.j.j.j.j.j.j.j.j.j.j.j.j.j.j.j.j.j.j.j.j.j.j.j.j.j.j.j.j.j.j.j.j.j.j.j.j.j.j.j.j.x.c.x.y.=...N AXJXJXJXJXJXJXJXJXJXJXJXJXJXJXJXJXJXJXJXJXJXJXJXJXIX/ L ( _ ' .X XT.C.C.N.j.j.j.j.x.j.a.a.t.g                                                                                             ",
"                                                                                              p t.h.y.j.x.k.j.j.j.V.H.Z.d $ * : o . w 6XJXJXJXJXJXJXJXJXJXJXJXJXJXJXJXJXJXJXJXJXJXJXJXJXKX8Xh  .1.h.c.c.c.x.k.k.k.k.k.k.k.k.k.j.k.k.k.k.k.k.k.j.k.k.k.k.k.k.k.j.k.k.k.k.k.k.k.j.k.k.k.k.k.k.k.j.k.k.k.k.k.k.k.j.k.k.x.c.c.c.y.=...v 2XKXJXJXJXJXJXJXJXJXJXJXJXJXJXJXJXJXJXJXJXJXJXJXJXJXIX/ L ( _ _  X) 0.G.B.v.j.j.j.x.k.h.h.h.-.2                                                                                             ",
"                                                                                              @ *.h.y.j.k.x.j.j.j.M.C.H.b $ 6 - o . w 6XJXJXJXJXJXJXJXJXJXJXJXJXJXJXJXJXJXJXJXJXJXJXJXJXJXFX8.f ..=.y.x.c.c.c.c.c.c.c.c.c.c.c.c.c.c.c.c.c.c.c.x.c.c.c.c.c.c.c.c.c.c.c.c.c.c.c.x.c.c.c.c.c.c.c.c.c.c.c.c.c.c.c.c.c.c.c.c.x.t.*...j 8.LXJXJXJXJXJXJXJXJXJXJXJXJXJXJXJXJXJXJXJXJXJXJXJXJXJXhX/ L ( _ .X X] S.G.B.x.j.j.j.x.j.h.j.j.| +                                                                                             ",
"                                                                                              . | a.h.h.j.x.j.j.j.x.C.J.:.* $ % o . w 6XJXJXJXJXJXJXJXJXJXJXJXJXJXJXJXJXJXJXJXJXJXJXJXJXJXJXZXN k { @.1.y.j.k.x.x.x.x.x.x.x.x.x.x.x.x.x.k.k.k.k.x.x.x.x.x.x.x.x.x.x.x.x.k.k.k.k.x.x.x.x.x.x.x.x.x.x.x.x.k.k.k.x.x.x.j.y.1.X.{ k 6.ZXJXJXJXJXJXJXJXJXJXJXJXJXJXJXJXJXJXJXJXJXJXJXJXJXJXJXBX/ L ( _ .X X6.C.G.N.j.j.j.j.x.j.y.h.h.z                                                                                               ",
"                                                                                                z y.j.h.j.x.j.j.j.z.V.J.i.4 6 % o . q 6XJXJXJXJXJXJXJXJXJXJXJXJXJXJXJXJXJXJXJXJXJXJXJXJXJXJXJXZX6.k k {  .*.1.1.1.1.1.1.1.1.1.1.1.1.1.1.1.1.1.1.1.1.1.1.1.1.1.1.1.1.1.1.1.1.1.1.1.1.1.1.1.1.1.1.1.1.1.1.1.1.1.1.1.1.*. .h k k 8.ZXJXJXJXJXJXJXJXJXJXJXJXJXJXJXJXJXJXJXJXJXJXJXJXJXJXJXJXBX/ L ( _ .X) 0.C.C.M.j.j.j.j.x.j.y.h.1.2                                                                                               ",
"                                                                                                p w.j.h.h.x.k.j.j.j.N.J.D.B $ $ o . q BXJXJXJXJXJXJXJXJXJXJXJXJXJXJXJXJXJXJXJXJXJXJXJXJXJXJXJXJXFX8XN k k f h h h h h h h h h h h h h h h h h h h h h h h h h h h h h h h h h h h h h h h h h h h h h h h h h h h j f k k N <XLXJXJXJXJXJXJXJXJXJXJXJXJXJXJXJXJXJXJXJXJXJXJXJXJXJXJXJXJXBX/ L ( .X X] S.G.V.x.j.j.j.z.j.j.h.a.#.+                                                                                               ",
"                                                                                                @ $.j.y.h.x.k.j.j.j.M.H.K.+.% $ O . u BXJXJXJXJXJXJXJXJXJXJXJXJXJXJXJXJXJXJXJXJXJXJXJXJXJXJXJXJXJXKXZX<X>.v v g v v v v v v v v v v v v v v v v v v v v v v v v v v v v v v v v v v v v v v v v v v v v v v v v v v v >.<XZXJXJXJXJXJXJXJXJXJXJXJXJXJXJXJXJXJXJXJXJXJXJXJXJXJXJXJXJXJXJXBX/ L (  X X6.Z.G.N.k.j.j.j.k.j.h.h.y.c .                                                                                               ",
"                                                                                                . c h.y.h.j.x.j.j.j.x.V.H.i.3 $ X . r 6XJXKXKXJXJXJXJXJXJXJXJXJXJXJXJXJXJXJXJXJXJXJXJXJXJXJXJXJXJXJXJXJXLXZXBXhXBXBXBXBXBXBXBXBXBXBXBXBXBXBXBXBXBXBXBXBXBXBXBXBXBXBXBXBXBXBXBXBXBXBXBXBXBXBXBXBXBXBXBXBXBXBXBXBXBXBXZXLXJXJXJXJXJXJXJXJXJXJXJXJXJXJXJXJXJXJXJXJXJXJXJXJXJXJXJXJXJXJXJXJXBX( L (  X^ 0.H.C.M.j.j.j.k.x.h.a.h.w.p                                                                                                 ",
"                                                                                                  a t.h.j.j.k.j.j.j.j.N.H.D.d $ X . r 6XJXKXKXJXJXJXJXJXJXJXJXJXJXJXJXJXJXJXJXJXJXJXJXJXJXJXJXJXJXJXJXJXJXJXJXJXJXJXJXJXJXJXJXJXJXJXJXJXJXJXJXJXJXJXJXJXJXJXJXJXJXJXJXJXJXJXJXJXJXJXJXJXJXJXJXJXJXJXJXJXJXJXJXJXJXJXJXJXJXJXJXJXJXJXJXJXJXJXJXJXJXJXJXJXJXJXJXJXJXJXJXJXJXJXJXJXJXJXJXJX6X/ L )  X] S.H.C.v.j.j.j.x.x.h.y.h.$.@                                                                                                 ",
"                                                                                                  , *.k.h.h.j.j.j.j.j.v.H.L.b & X . u 6XJXKXKXJXJXJXJXJXJXJXJXJXJXJXJXJXJXJXJXJXJXJXJXJXJXJXJXJXJXJXJXJXJXJXJXJXJXJXJXJXJXJXJXJXJXJXJXJXJXJXJXJXJXJXJXJXJXJXJXJXJXJXJXJXJXJXJXJXJXJXJXJXJXJXJXJXJXJXJXJXJXJXJXJXJXJXJXJXJXJXJXJXJXJXJXJXJXJXJXJXJXJXJXJXJXJXJXJXJXJXJXJXJXJXJXJXJXJXKXHX4X~ W  X X6.C.H.V.z.j.j.j.x.j.h.y.y.c .                                                                                                 ",
"                                                                                                  + | j.a.y.j.x.j.j.s.x.H.L.9.< X . w 7XKXKXKXJXJXJXJXJXJXJXJXJXJXJXJXJXJXJXJXJXJXJXJXJXJXJXJXJXJXJXJXJXJXJXJXJXJXJXJXJXJXJXJXJXJXJXJXJXJXJXJXJXJXJXJXJXJXJXJXJXJXJXJXJXJXJXJXJXJXJXJXJXJXJXJXJXJXJXJXJXJXJXJXJXJXJXJXJXJXJXJXJXJXJXJXJXJXJXJXJXJXJXJXJXJXJXJXJXJXJXJXJXJXJXJXJXJXKXHXFX2XL W  X) 0.H.G.v.j.j.j.k.x.j.h.h.w.p                                                                                                   ",
"                                                                                                    s y.y.y.j.x.j.j.j.k.B.L.F.d # . ; :XHXHXKXJXJXJXJXJXJXJXJXJXJXJXJXJXJXJXJXJXJXJXJXJXJXJXJXJXJXJXJXJXJXJXJXJXJXJXJXJXJXJXJXJXJXJXJXJXJXJXJXJXJXJXJXJXJXJXJXJXJXJXJXJXJXJXJXJXJXJXJXJXJXJXJXJXJXJXJXJXJXJXJXJXJXJXJXJXJXJXJXJXJXJXJXJXJXJXJXJXJXJXJXJXJXJXJXJXJXJXJXJXJXJXJXJXJXKXHXFX:XL !  X] S.H.B.x.j.j.j.x.k.h.h.j.#.,                                                                                                   ",
"                                                                                                    1 1.y.h.j.j.k.j.j.j.M.H.K.N # . = *XFXHXHXKXJXJXJXJXJXJXJXJXJXJXJXJXJXJXJXJXJXJXJXJXJXJXJXJXJXJXJXJXJXJXJXJXJXJXJXJXJXJXJXJXJXJXJXJXJXJXJXJXJXJXJXJXJXJXJXJXJXJXJXJXJXJXJXJXJXJXJXJXJXJXJXJXJXJXJXJXJXJXJXJXJXJXJXJXJXJXJXJXJXJXJXJXJXJXJXJXJXJXJXJXJXJXJXJXJXJXJXJXJXJXJXJXKXKXHXZX>XK ^  XT.C.H.V.j.j.j.j.x.j.a.y.j.c O                                                                                                   ",
"                                                                                                    + #.h.h.j.j.x.j.j.j.v.C.L.9.; X O ( ZXHXHXHXJXJXJXJXJXJXJXJXJXJXJXJXJXJXJXJXJXJXJXJXJXJXJXJXJXJXJXJXJXJXJXJXJXJXJXJXJXJXJXJXJXJXJXJXJXJXJXJXJXJXJXJXJXJXJXJXJXJXJXJXJXJXJXJXJXJXJXJXJXJXJXJXJXJXJXJXJXJXJXJXJXJXJXJXJXJXJXJXJXJXJXJXJXJXJXJXJXJXJXJXJXJXJXJXJXJXJXJXJXJXJXJXKXHXHXVXE.J Q ) 0.H.C.M.j.j.j.k.x.j.y.y.r.p                                                                                                     ",
"                                                                                                    O } h.h.a.j.x.j.j.j.z.B.L.S.d X . K NXHXHXHXJXJXJXJXJXJXJXJXJXJXJXJXJXJXJXJXJXJXJXJXJXJXJXJXJXJXJXJXJXJXJXJXJXJXJXJXJXJXJXJXJXJXJXJXJXJXJXJXJXJXJXJXJXJXJXJXJXJXJXJXJXJXJXJXJXJXJXJXJXJXJXJXJXJXJXJXJXJXJXJXJXJXJXJXJXJXJXJXJXJXJXJXJXJXJXJXJXJXJXJXJXJXJXJXJXJXJXJXJXJXJXJXHXHXFXBX] J  X8.S.H.B.v.j.j.j.x.j.j.a.y.*.,                                                                                                     ",
"                                                                                                      a r.h.y.h.x.j.j.j.j.N.L.K.N X . r 6XFXFXFXJXJXJXJXJXJXJXJXJXJXJXJXJXJXJXJXJXJXJXJXJXJXJXJXJXJXJXJXJXJXJXJXJXJXJXJXJXJXJXJXJXJXJXJXJXJXJXJXJXJXJXJXJXJXJXJXJXJXJXJXJXJXJXJXJXJXJXJXJXJXJXJXJXJXJXJXJXJXJXJXJXJXJXJXJXJXJXJXJXJXJXJXJXJXJXJXJXJXJXJXJXJXJXJXJXJXJXJXJXJXJXJXHXFXFX7X~ R Q R.C.H.N.z.j.j.j.x.j.a.h.h.} O                                                                                                     ",
"                                                                                                      , *.a.t.h.k.k.j.j.j.M.C.L.0.= . ; >XFXFXFXKXJXJXJXJXJXJXJXJXJXJXJXJXJXJXJXJXJXJXJXJXJXJXJXJXJXJXJXJXJXJXJXJXJXJXJXJXJXJXJXJXJXJXJXJXJXJXJXJXJXJXJXJXJXJXJXJXJXJXJXJXJXJXJXJXJXJXJXJXJXJXJXJXJXJXJXJXJXJXJXJXJXJXJXJXJXJXJXJXJXJXJXJXJXJXJXJXJXJXJXJXJXJXJXJXJXJXJXJXJXJXJXFXZXZX>XP Q / A.H.C.M.j.j.j.j.x.h.y.h.t.s                                                                                                       ",
"                                                                                                      + } y.y.h.j.x.j.j.j.z.V.L.S.d . . ( VXZXFXHXJXJXJXJXJXJXJXJXJXJXJXJXJXJXJXJXJXJXJXJXJXJXJXJXJXJXJXJXJXJXJXJXJXJXJXJXJXJXJXJXJXJXJXJXJXJXJXJXJXJXJXJXJXJXJXJXJXJXJXJXJXJXJXJXJXJXJXJXJXJXJXJXJXJXJXJXJXJXJXJXJXJXJXJXJXJXJXJXJXJXJXJXJXJXJXJXJXJXJXJXJXJXJXJXJXJXJXJXJXJXHXFXZX6X_ R  X8.S.J.V.x.j.j.j.x.x.h.t.h.*.,                                                                                                       ",
"                                                                                                        s t.h.h.j.x.j.j.j.j.N.L.I.N o . t 4XZXZXFXJXJXJXJXJXJXJXJXJXJXJXJXJXJXJXJXJXJXJXJXJXJXJXJXJXJXJXJXJXJXJXJXJXJXJXJXJXJXJXJXJXJXJXJXJXJXJXJXJXJXJXJXJXJXJXJXJXJXJXJXJXJXJXJXJXJXJXJXJXJXJXJXJXJXJXJXJXJXJXJXJXJXJXJXJXJXJXJXJXJXJXJXJXJXJXJXJXJXJXJXJXJXJXJXJXJXJXJXJXJXFXZXZX2XL D  XR.H.H.N.j.j.j.j.x.j.h.t.y.c O                                                                                                       ",
"                                                                                                        2 =.j.y.a.x.k.j.j.j.v.H.L.0.< . : *XZXZXZXHXJXJXJXJXJXJXJXJXJXJXJXJXJXJXJXJXJXJXJXJXJXJXJXJXJXJXJXJXJXJXJXJXJXJXJXJXJXJXJXJXJXJXJXJXJXJXJXJXJXJXJXJXJXJXJXJXJXJXJXJXJXJXJXJXJXJXJXJXJXJXJXJXJXJXJXJXJXJXJXJXJXJXJXJXJXJXJXJXJXJXJXJXJXJXJXJXJXJXJXJXJXJXJXJXJXJXJXJXKXZXVXNX-XK D ) A.H.H.M.j.j.j.k.x.h.a.j.w.p .                                                                                                       ",
"                                                                                                        + | j.t.a.k.x.j.j.j.x.C.L.S.d X . G BXVXNXFXJXJXJXJXJXJXJXJXJXJXJXJXJXJXJXJXJXJXJXJXJXJXJXJXJXJXJXJXJXJXJXJXJXJXJXJXJXJXJXJXJXJXJXJXJXJXJXJXJXJXJXJXJXJXJXJXJXJXJXJXJXJXJXJXJXJXJXJXJXJXJXJXJXJXJXJXJXJXJXJXJXJXJXJXJXJXJXJXJXJXJXJXJXJXJXJXJXJXJXJXJXJXJXJXJXJXJXJXFXNXNX4X( R Q 6.S.H.V.x.s.j.j.x.x.h.t.j.$.,                                                                                                         ",
"                                                                                                        . s t.y.a.j.j.j.j.j.j.M.L.L.N # . 3 >XVXNXZXHXJXJXJXJXJXJXJXJXJXJXJXJXJXJXJXJXJXJXJXJXJXJXJXJXJXJXJXJXJXJXJXJXJXJXJXJXJXJXJXJXJXJXJXJXJXJXJXJXJXJXJXJXJXJXJXJXJXJXJXJXJXJXJXJXJXJXJXJXJXJXJXJXJXJXJXJXJXJXJXJXJXJXJXJXJXJXJXJXJXJXJXJXJXJXJXJXJXJXJXJXJXJXJXJXJXJXHXVXBXBX-XK Q ^ R.H.H.N.j.j.j.j.x.j.a.t.y.x .                                                                                                         ",
"                                                                                                          2 =.h.h.h.j.z.j.j.s.v.H.U.q.< . . K hXNXBXZXJXJXJXJXJXJXJXJXJXJXJXJXJXJXJXJXJXJXJXJXJXJXJXJXJXJXJXJXJXJXJXJXJXJXJXJXJXJXJXJXJXJXJXJXJXJXJXJXJXJXJXJXJXJXJXJXJXJXJXJXJXJXJXJXJXJXJXJXJXJXJXJXJXJXJXJXJXJXJXJXJXJXJXJXJXJXJXJXJXJXJXJXJXJXJXJXJXJXJXJXJXJXJXJXJXJXFX6XBX2X~ J Q ] S.J.C.v.j.j.j.k.k.j.a.y.w.p .                                                                                                         ",
"                                                                                                          + | h.h.a.j.x.j.j.j.z.V.L.I.M # . : *XNX6XBXFXJXJXJXJXJXJXJXJXJXJXJXJXJXJXJXJXJXJXJXJXJXJXJXJXJXJXJXJXJXJXJXJXJXJXJXJXJXJXJXJXJXJXJXJXJXJXJXJXJXJXJXJXJXJXJXJXJXJXJXJXJXJXJXJXJXJXJXJXJXJXJXJXJXJXJXJXJXJXJXJXJXJXJXJXJXJXJXJXJXJXJXJXJXJXJXJXJXJXJXJXJXJXJXJXFXBX6X6X_ G Q Q 6.D.H.V.z.j.j.j.x.j.h.h.h.#.,                                                                                                           ",
"                                                                                                          . g t.a.y.j.x.k.j.j.j.M.K.U.0.* . . y 2XNX6XNXHXJXJXJXJXJXJXJXJXJXJXJXJXJXJXJXJXJXJXJXJXJXJXJXJXJXJXJXJXJXJXJXJXJXJXJXJXJXJXJXJXJXJXJXJXJXJXJXJXJXJXJXJXJXJXJXJXJXJXJXJXJXJXJXJXJXJXJXJXJXJXJXJXJXJXJXJXJXJXJXJXJXJXJXJXJXJXJXJXJXJXJXJXJXJXJXJXJXJXJXJXJXJXHXBX6X6X-XI J Q ) q.L.H.M.j.j.j.k.x.j.y.y.y.x .                                                                                                           ",
"                                                                                                            2 =.a.y.h.x.x.j.j.j.z.C.U.S.u # . O L 6XBX4XVXKXJXJXJXJXJXJXJXJXJXJXJXJXJXJXJXJXJXJXJXJXJXJXJXJXJXJXJXJXJXJXJXJXJXJXJXJXJXJXJXJXJXJXJXJXJXJXJXJXJXJXJXJXJXJXJXJXJXJXJXJXJXJXJXJXJXJXJXJXJXJXJXJXJXJXJXJXJXJXJXJXJXJXJXJXJXJXJXJXJXJXJXJXJXJXJXJXJXJXJXJXHXNX4X6X:XL I Q  X] S.L.C.v.s.j.j.k.j.j.t.y.1.p                                                                                                             ",
"                                                                                                            + | y.h.h.j.x.j.j.s.j.V.U.P.N % # . = _ 6X6X7XVXKXJXJXJXJXJXJXJXJXJXJXJXJXJXJXJXJXJXJXJXJXJXJXJXJXJXJXJXJXJXJXJXJXJXJXJXJXJXJXJXJXJXJXJXJXJXJXJXJXJXJXJXJXJXJXJXJXJXJXJXJXJXJXJXJXJXJXJXJXJXJXJXJXJXJXJXJXJXJXJXJXJXJXJXJXJXJXJXJXJXJXJXJXJXJXJXJXJXJXHXNX7X4X:X~ G W ^ Q R.K.L.V.j.j.j.j.x.j.h.a.y.| +                                                                                                             ",
"                                                                                                            . s r.h.y.h.x.j.j.j.j.v.K.U.q.3 $ X . < ` 6X7X2XNXKXJXJXJXJXJXJXJXJXJXJXJXJXJXJXJXJXJXJXJXJXJXJXJXJXJXJXJXJXJXJXJXJXJXJXJXJXJXJXJXJXJXJXJXJXJXJXJXJXJXJXJXJXJXJXJXJXJXJXJXJXJXJXJXJXJXJXJXJXJXJXJXJXJXJXJXJXJXJXJXJXJXJXJXJXJXJXJXJXJXJXJXJXJXJXJXJXHXBX2X4X2X( H L ) Q / S.L.H.v.j.j.j.j.x.j.y.j.t.g .                                                                                                             ",
"                                                                                                              , *.h.t.h.x.j.j.j.j.z.C.U.Y.B $ $ o . w *X6X2X2XBXHXJXJXJXJXJXJXJXJXJXJXJXJXJXJXJXJXJXJXJXJXJXJXJXJXJXJXJXJXJXJXJXJXJXJXJXJXJXJXJXJXJXJXJXJXJXJXJXJXJXJXJXJXJXJXJXJXJXJXJXJXJXJXJXJXJXJXJXJXJXJXJXJXJXJXJXJXJXJXJXJXJXJXJXJXJXJXJXJXJXJXJXJXJXJXFX6X2X2X:X( G K ( ^ Q 6.Y.L.V.z.j.j.j.x.x.h.t.h.1.2                                                                                                               ",
"                                                                                                              . } y.t.h.j.x.j.j.j.s.M.L.'.0.> $ = O . q *X6X2X:X4XZXKXJXJXJXJXJXJXJXJXJXJXJXJXJXJXJXJXJXJXJXJXJXJXJXJXJXJXJXJXJXJXJXJXJXJXJXJXJXJXJXJXJXJXJXJXJXJXJXJXJXJXJXJXJXJXJXJXJXJXJXJXJXJXJXJXJXJXJXJXJXJXJXJXJXJXJXJXJXJXJXJXJXJXJXJXJXJXJXJXJXJXKXVX2X:X2X>X/ G K ( ( Q Q R.L.K.M.j.j.j.k.x.j.a.t.y.| O                                                                                                               ",
"                                                                                                              . s r.a.y.h.x.k.j.j.s.z.C.U.^.n $ & : O . w _ 2X2X:X:X6XFXHXJXJXJXJXJXJXJXJXJXJXJXJXJXJXJXJXJXJXJXJXJXJXJXJXJXJXJXJXJXJXJXJXJXJXJXJXJXJXJXJXJXJXJXJXJXJXJXJXJXJXJXJXJXJXJXJXJXJXJXJXJXJXJXJXJXJXJXJXJXJXJXJXJXJXJXJXJXJXJXJXJXJXJXJXJXJXHXZX6X:X:X:X*XL H K ( ( ^ Q Y D.L.C.v.j.j.j.k.x.h.a.y.r.s .                                                                                                               ",
"                                                                                                                , $.h.t.y.x.x.j.j.j.j.M.P.'.R.> # - ; o . ; L :X2X:X=X2X6XZXFXFXHXHXKXKXKXKXKXKXKXKXKXKXKXKXKXKXKXKXKXKXKXKXKXKXKXKXKXKXKXKXKXKXKXKXKXKXKXKXKXKXKXKXKXKXKXKXKXKXKXKXKXKXKXKXKXKXKXKXKXKXKXKXKXKXKXKXKXKXKXKXKXKXKXKXKXKXKXKXHXHXHXFXZX6X:X>X>X=X_ K H L ( ( ( Q Q T.L.L.V.j.j.j.j.x.x.y.y.h.*.,                                                                                                                 ",
"                                                                                                                . c y.t.y.k.x.j.j.j.s.z.K.'.^.n # & ; ; o O = t _ :X:X>X=X>X2X7X6XBXBXNXBXBXNXNXNXNXNXNXNXNXNXNXNXNXNXNXNXNXNXNXNXNXNXNXNXNXNXNXNXNXNXNXNXNXNXNXNXNXNXNXNXNXNXNXNXNXNXNXNXNXNXNXNXNXNXNXNXNXNXNXNXNXNXNXNXNXNXNXNXNXNXNXBXBXBX6X7X:X=X=X=X=X' / G G L ( ( ( ! Q / S.U.H.v.j.j.j.j.x.j.t.t.t.c .                                                                                                                 ",
"                                                                                                                . p 1.t.y.h.x.x.j.j.s.s.V.U.`.q.- X * 0 ; = o o ; H _ *X=X=X=X=X=X;X>X;X=X=X=X=X=X=X=X=X=X=X=X=X=X=X=X=X=X=X=X=X=X=X=X=X=X=X=X=X=X=X=X=X=X=X=X=X=X=X=X=X=X=X=X=X=X=X=X=X=X=X=X=X=X=X=X=X=X=X=X=X=X=X=X=X=X=X=X=X=X=X=X=X;X;X;X=X=X*XE.' _ / K H K L ( ( ( / Q Q 6.P.L.V.z.s.j.j.x.x.j.y.y.1.p .                                                                                                                 ",
"                                                                                                                  + O.y.y.y.j.x.j.j.j.s.z.D.'.`.N # # : 0 ; : o o = w t L ( _ ` E.` '  X XQ Q T J J T T T J J J J J J T T T T T J J J J J J J T T T T T J J J J T T T T J J J J T T T T J J J J J J J T T T T T J J J J J J J J T R Q Q  X X) _ ] ( ( L K G I K L / ( ( / W Q W !.U.K.v.s.j.j.j.x.j.y.a.a.o.+                                                                                                                   ",
"                                                                                                                  . s r.y.t.j.x.k.j.j.j.s.M.P.[.|.u X & : 0 0 ; : = o o ; q t H I K U Y ( ) ) ) ) ! W W W W W W W W W W W W W W W W W W W W W W W W W W W W W W W W W W W W W W W W W W W W W W W W W W W W W W W W W W W W W / ) ) ) ) ( Y U I K K G H H K L / ~ ~ / / ( Q R 6.P.U.V.z.s.j.j.k.x.j.t.y.t.g .                                                                                                                   ",
"                                                                                                                    @ $.t.t.h.x.x.k.j.j.s.j.C.).{.Q.; X & ; 0 0 ; ; : = = = = : * - p O.i.!.].yXyXyXeXwXwXwXwXwXwXwXwXwXwXwXwXwXwXwXwXwXwXwXwXwXwXwXwXwXwXwXwXwXwXwXwXwXwXwXwXwXwXwXwXwXwXwXwXwXwXwXwXwXwXwXwXwXwXwXwXwXwXeXyXyXyXyX].S.e.@.v t S G I K L L L / L L / ( ! Q E S.U.L.M.s.j.j.k.x.x.h.t.t.*.,                                                                                                                     ",
"                                                                                                                    . x r.t.y.j.x.x.j.j.j.s.v.K.[.{.6.> X > ; 0 0 ; ; ; ; : : = & # @ x u.B.L.'.{.sXdXkXkXkXkXkXkXkXkXkXkXkXkXkXkXkXkXkXkXkXkXkXkXkXkXkXkXkXkXkXkXkXkXkXkXkXkXkXkXkXkXkXkXkXkXkXkXkXkXkXkXkXkXkXkXkXkXkXkXkXdXpX[.'.H.m.u.O.m J J K K L L L L L L ~ / / Q R T.U.U.C.z.s.j.j.k.x.j.a.y.t.c .                                                                                                                     ",
"                                                                                                                    . 1 *.t.t.a.x.x.j.j.j.s.p.M.P.{.}.Y X X - 3 0 ; ; ; ; 0 ; ; ; : 8 3 d %.h.M.D.I.^.)._._._._._._._._.)._.(.(.(.(.(.(.(.(._._.(.(.(.(.(.(.(.(.(.(.(.(.(.(._._.(.(.(.(.(.(.(.(.(.(._.)._._._._._._._._._.(.^.I.Z.v.a.;.>.U W P K P L P L L L L L / / W D L |.'.L.v.s.j.j.j.x.x.h.t.y.1.2 .                                                                                                                     ",
"                                                                                                                      . c t.w.y.j.x.j.j.j.j.s.g.V./.pX].n X X : 3 3 ; ; ; 0 7 3 0 3 * 6 6 : g X.&.&.1.h.N.m.m.N.M.M.M.M.M.M.M.M.M.M.M.M.M.M.M.M.M.M.M.M.M.M.M.M.M.M.M.M.M.M.M.M.M.M.M.M.M.M.M.M.M.M.M.M.M.M.M.M.N.m.m.B.k.t.2.&.X...g l C C V H K L L L L L L ~ ~ / W D T Q.`.'.C.z.s.j.j.k.x.j.y.r.y.| O                                                                                                                       ",
"                                                                                                                      . 2 -.r.t.a.x.x.j.j.j.j.s.f.C.).pX].n X X - < 3 ; ; 0 ; 0 0 < = X X # O p  .%.X.%.4.p.f.g.g.p.p.p.p.p.p.p.s.s.s.s.s.s.s.s.s.s.s.s.s.s.s.s.s.s.s.s.s.s.s.s.s.s.s.s.s.s.s.s.p.p.p.p.p.p.p.g.g.g.p.3.&.X.X.X.x 2 8 8 6 & ; t K L L L L L L ~ ~ W D D W.[.`.I.v.s.j.j.j.x.x.h.t.t.r.a .                                                                                                                       ",
"                                                                                                                        O } y.w.t.j.x.k.j.j.j.s.s.f.D.[.sX].n X X : 3 3 3 ; ; 0 0 0 : o . . . X 2 c #.%.%.=.u.z.z.z.s.s.s.s.s.s.s.s.s.s.s.s.s.s.s.s.s.s.s.s.s.s.s.s.s.s.s.s.s.s.s.s.s.s.s.s.s.s.s.s.s.s.s.j.z.z.z.u.1.%.%.#.| s , # # . . o u K L L K L L L ~ ~ P C D W.}.{./.V.g.s.j.j.j.x.k.y.t.h.$.@                                                                                                                         ",
"                                                                                                                        . 2 1.w.w.a.x.x.j.j.j.j.j.s.z.D.[.sX].n X X - 3 0 0 ; ; 0 0 0 ; o . . . X @ s O.*.$.*.w.h.c.c.x.k.j.j.j.j.j.j.j.j.j.j.j.j.j.j.j.j.j.j.j.j.j.j.j.j.j.j.j.j.j.j.j.j.j.j.j.j.j.j.x.c.c.c.j.r.=.$.$.@.c p > # . . O ; t K L L K K L L L L P C D W.}.{.).C.f.s.j.j.j.k.x.j.t.r.t.g .                                                                                                                         ",
"                                                                                                                        . O c r.w.r.j.c.x.j.j.j.j.j.p.z.K.[.sXiXn X X - ; 0 0 3 ; ; w w 0 : O . . . O 2 } $.$.$.-.y.x.c.c.x.k.j.j.j.j.j.j.j.j.j.j.j.j.j.j.j.j.j.j.j.j.j.j.j.k.j.j.j.j.j.j.j.j.j.j.k.x.c.c.x.y.1.$.#.$.| s @ # X . . = r K L L K K K K L L L J C J Q.gX{.).C.f.s.j.j.j.j.x.j.h.r.t.*., .                                                                                                                         ",
"                                                                                                                          . , $.t.1.y.x.c.k.j.j.j.j.s.p.z.K.[.sXiXU # . & 3 0 3 ; 9 0 w w 0 ; o . . . X , z @.*.$.*.w.j.c.c.x.x.j.j.j.j.j.j.j.j.j.j.j.j.j.j.j.j.j.j.j.j.j.j.j.j.j.j.j.j.j.j.j.j.x.c.c.c.h.w.$.$.$.o.x 5 o # . . O < F L L L K K K K L L P J C T Q.pXpX_.D.f.s.j.j.j.j.j.x.j.t.t.y.z .                                                                                                                           ",
"                                                                                                                          . . s 1.w.1.a.x.x.k.j.j.j.j.s.p.z.D.[.sXaX6.; . & ; 3 < 3 0 0 0 w w 0 = O . . X o 2 c #.$.$.=.r.j.c.c.x.j.j.j.j.j.j.j.j.j.j.j.j.j.j.j.j.j.j.j.j.j.j.j.j.j.j.j.j.j.j.x.c.c.j.r.*.$.#.@.} a = # X . . = u H L L K K K K K L P K V C ~ ~.pXpX).C.f.s.j.j.j.j.j.x.x.h.w.t.*., .                                                                                                                           ",
"                                                                                                                            . + } r.-.w.j.c.x.j.j.j.j.j.s.p.z.D._.sXfXQ.w . o - 3 0 0 0 0 0 w w w ; o . . . X @ s O.$.@.$.1.y.x.c.c.x.j.j.j.j.j.j.j.j.j.j.j.j.j.j.j.j.j.j.j.j.j.j.j.j.j.j.x.c.c.k.y.1.$.@.#.| z , # X . . o 0 F K L K K G K K K K K J C C ] iXsX{./.V.f.p.s.j.j.j.j.k.x.j.t.r.t.z .                                                                                                                             ",
"                                                                                                                            . . 1 #.w.-.w.j.c.x.j.j.j.j.j.s.p.f.C._.sXkX~.r . O : 3 0 0 0 3 0 0 w w ; = . . . . O 2 c #.$.@.*.r.j.c.c.x.x.j.j.j.j.j.j.j.j.j.j.j.j.j.j.j.j.j.j.j.j.j.j.x.c.c.x.h.w.$.@.$.@.x 2 o # X . . = r G K K G G G I K K K G S Z A W.gXsX{.^.V.p.s.j.j.j.j.j.j.x.x.h.w.y.*.1 .                                                                                                                             ",
"                                                                                                                              . . p *.1.=.t.x.c.x.j.j.j.j.j.s.p.g.C./.pXkXyXn X . = 9 0 0 0 0 0 0 w w 0 : o . . . X + a } $.$.#.=.t.k.c.c.x.k.k.j.j.j.j.j.j.j.j.j.j.j.j.j.j.j.j.j.k.c.c.c.j.w.*.#.#.@.} p = # X . . o 0 t K K K G G G G I K I H C C L ~.sXsX[.I.v.p.s.j.j.j.j.j.j.x.c.j.t.w.t.z . .                                                                                                                             ",
"                                                                                                                              . . . s 1.1.=.t.x.c.x.j.j.j.j.j.s.s.p.N.P.pXkXaXY - X & ; 0 0 0 0 0 0 w w w ; = . . . . X , g | #.#.$.1.y.x.c.c.x.j.j.j.j.j.j.j.j.j.j.j.j.j.j.j.x.x.c.c.j.t.=.$.#.@.} s , X X . . O ; r H K K G H H G G G G H V Z A 8.iXdXpX`.D.z.p.s.j.j.j.j.j.j.x.c.x.t.1.t.$., .                                                                                                                               ",
"                                                                                                                                . . O x 1.=.-.t.x.c.x.j.j.j.j.j.j.s.p.v.P.{.kXzXQ.w . X * ; 0 0 0 0 0 w w q w : o . . . X O 2 x @.#.#.*.w.h.x.c.c.x.j.j.j.j.j.j.j.j.j.j.j.k.x.c.c.j.t.1.$.@.#.O.z , X X . . . = q F G G H H H H H G G H V C Z L ~.fXdX{./.V.g.p.s.j.j.j.j.j.j.k.c.c.y.1.w.w.s . .                                                                                                                               ",
"                                                                                                                                  . . + c 1.=.-.y.x.c.x.j.j.j.j.j.j.s.p.z.K.[.dXlXyXn X X o ; 0 0 0 0 0 0 w q q 7 = O . . . X + p } #.$.#.*.w.h.x.c.x.x.j.j.j.j.j.j.j.j.x.c.c.x.a.1.$.@.$.o.x 2 o X X . . o 3 r H G H H H H H H H H F V Z V W.iXkXsX[.K.v.p.s.s.j.j.j.j.j.j.k.c.c.a.-.-.w.} + .                                                                                                                                 ",
"                                                                                                                                    . . + c 1.=.-.t.x.c.x.j.j.j.j.j.j.s.p.f.C./.pXlXaX6.- X X - 0 0 0 0 0 0 w q q w ; = O . . X X @ s } @.$.$.*.w.h.x.c.c.x.j.j.j.j.x.c.c.x.a.w.*.$.$.o.c p @ X X . . O ; q F H H H F F H H H H F V e Z U Q.fXdXpX/.C.z.p.s.j.j.j.j.j.j.j.x.c.c.a.-.=.1.| , .                                                                                                                                   ",
"                                                                                                                                    . . . + } -.*.=.t.x.c.x.j.j.j.j.j.j.s.p.p.M.P.{.kXlXQ.l X X & : 0 0 0 0 0 w w q q 0 ; o . . . X O , s | #.#.$.=.r.h.x.c.c.x.x.c.c.x.h.w.*.#.#.@.} s @ X X . . . = q t H H H F F F F H H F V e e A W.uXkXsX[.P.M.g.p.s.j.j.j.j.j.j.j.x.c.c.y.-.*.1.| 1 . .                                                                                                                                   ",
"                                                                                                                                      . . . @ } =.*.*.t.x.c.x.j.j.j.j.j.j.j.s.p.z.K._.dXxXiXY > X X - 3 0 0 0 w 0 w w q q 0 = O . . . X X , z | #.@.#.=.t.j.x.n.n.c.h.r.=.#.@.#.| s , X X . . . o 0 r F H F F t n F F F F V r e Z U qXkXkXpX/.C.z.p.s.j.j.j.j.j.j.j.j.x.c.x.t.*.*.-.| , . .                                                                                                                                     ",
"                                                                                                                                        . . . + x =.*.*.r.x.c.x.j.j.j.j.j.j.j.s.p.f.V./.pXlXzXQ.y # X & : 0 0 w 0 0 w w q q w ; = O . . . X o 2 z | #.$.$.=.t.j.j.t.=.$.$.$.| s , o X . . . o ; q t F F t t t [ F n S V r e e I Q.uXlXsX[.K.v.p.p.s.j.j.j.j.j.j.j.k.c.c.k.r.$.*.-.} , . . .                                                                                                                                     ",
"                                                                                                                                          . . . + z *.*.*.w.j.c.c.k.j.j.j.j.j.j.s.s.p.v.K.[.kXxXyX6.3 X X - 0 w 0 0 0 w w q q q w ; o . . . . X + 2 z | @.#.*.-.=.*.$.@.| z 1 o X . . . O : q t t F t t t t t l n t r e i V 8.yXkXkX{./.C.z.p.s.j.j.j.j.j.j.j.j.x.c.c.h.1.$.*.*.x @ . . .                                                                                                                                       ",
"                                                                                                                                            . . . O g *.*.*.1.h.c.c.x.j.j.j.j.j.j.j.s.p.f.C./.pXxXlX~.n # X & : 0 w w w w w w q q q 0 : o . . . . X o p x | #.#.$.#.O.x 2 o X X . . . = w r t t t t t t t t t t r e 8 e U ,XzXlXsX).K.v.p.p.s.j.j.j.j.j.j.j.k.x.c.x.y.-.$.*.$.s O . . .                                                                                                                                         ",
"                                                                                                                                              . . . . s *.*.$.-.h.c.c.x.j.j.j.j.j.j.j.s.p.g.v.K.[.dXxXaXT.i X X > ; 0 w w w w w w q q q 0 : o . . . X X + p c o.o.c p + X X . . . o ; u t t t t r r t t t t y e 7 8 A W.aXlXdX[.P.N.g.p.s.j.j.j.j.j.j.j.j.x.c.c.k.t.*.$.=.O.p . . . .                                                                                                                                           ",
"                                                                                                                                                . . . . p o.*.$.*.t.x.c.x.k.j.j.j.j.j.j.s.p.p.z.C./.{.lXxXyXY 7 X X : 0 w w w w w q q q q q 0 : O . . . X O , p p , O X . . . o ; q y t t r r r y t t t y e 7 8 V W.yXlXkX{./.C.z.p.p.s.j.j.j.j.j.j.j.k.x.c.c.h.1.$.$.*.} , . . . .                                                                                                                                             ",
"                                                                                                                                                  . . . . 2 | *.$.*.w.j.c.c.x.j.j.j.j.j.j.j.s.p.p.v.K._.dXcXzXQ.l # X # - 0 w w w w w q q q q q 9 = O . . . X X X X . . . o : q r t t r r r r r t t r e 7 8 e U qXlXlXsX_.K.v.p.p.s.j.j.j.j.j.j.j.j.x.c.c.x.t.=.$.*.$.z + . . . .                                                                                                                                               ",
"                                                                                                                                                    . . . . , c *.*.$.1.h.c.c.x.k.j.j.j.j.j.j.j.s.p.f.V.P.{.kXxXaX8.w X X & : 0 w w w w w q q q u q 3 = O . . . . . . O = 0 u r r r r r r r y y r e 7 8 7 H Q.zXlXdX[.P.N.f.p.s.j.j.j.j.j.j.j.j.k.x.c.c.h.w.*.$.*.O.p . . . . .                                                                                                                                                 ",
"                                                                                                                                                      . . . . + s $.=.$.=.t.x.c.c.k.j.j.j.j.j.j.j.s.p.p.z.C./.pXxXxXyXY 7 X X = 9 w w w w q w q q u q q 0 = O . . O = 0 q r r r r r r r r r r u i 8 8 F W.aXxXkX{./.C.z.p.p.s.j.j.j.j.j.j.j.j.x.c.c.x.t.=.$.*.$.x , . . . . .                                                                                                                                                   ",
"                                                                                                                                                        . . . . . 2 | =.$.*.w.j.c.c.x.j.j.j.j.j.j.j.j.s.p.p.v.K.[.sXxXxX<XI > X X * 0 q w q q q q q q q r q ; o o ; q r r r u q u r r r r q 7 6 6 y 8.yXcXlXpX).D.v.p.p.s.j.j.j.j.j.j.j.j.k.x.c.c.h.1.$.$.*.O.a + . . . .                                                                                                                                                       ",
"                                                                                                                                                            . . . . , c *.$.$.1.y.x.c.x.k.j.j.j.j.j.j.j.s.s.p.f.V.P.[.kXcXvXQ.n & # # - 9 w q q q q q q q r q w w q r r q q q q r r u q 7 8 6 w Y qXlXxXsX[.K.N.g.p.s.j.j.j.j.j.j.j.j.j.x.c.c.k.t.=.$.$.$.c 1 . . . . .                                                                                                                                                         ",
"                                                                                                                                                              . . . . O s @.*.$.*.r.j.c.c.x.j.j.j.j.j.j.j.j.s.s.p.z.C./.{.lXcXjXW.l & X & 7 0 w w q q q q q q r r q q q q q q u q q 0 * % 7 U ,XzXxXsX[.P.V.f.p.s.s.j.j.j.j.j.j.j.j.x.x.c.x.h.1.$.$.*.| a O . . . . .                                                                                                                                                           ",
"                                                                                                                                                                . . . . . 2 } *.$.$.1.h.c.c.x.k.j.j.j.j.j.j.j.j.s.s.p.v.C./.pXlXcXbXW.y # X # : 0 w w q q q q q q q q q q q q q 9 % $ 8 I Q.jXxXdX{.P.C.z.p.p.s.j.j.j.j.j.j.j.j.k.x.c.c.j.r.*.#.*.$.x , . . . . .                                                                                                                                                               ",
"                                                                                                                                                                  . . . . . @ z @.$.$.*.t.j.c.c.x.j.j.j.j.j.j.j.j.j.s.p.g.M.K.).sXxXxXyXW.y & # & - 0 q q q q q q q q q q q 7 * $ * H Q.jXxXkX{./.C.v.p.p.s.j.j.j.j.j.j.j.j.j.x.c.c.x.y.-.$.$.$.} p O . . . . .                                                                                                                                                                 ",
"                                                                                                                                                                      . . . . O p } $.$.$.1.a.x.c.x.x.j.j.j.j.j.j.j.j.s.s.p.f.N.K.).sXxXcXuXW.y & # > 7 9 q q q q u q w 7 - $ % l W.uXxXlXpX/.K.v.g.p.s.j.j.j.j.j.j.j.j.j.x.x.c.c.h.w.*.#.$.O.g , . . . . .                                                                                                                                                                     ",
"                                                                                                                                                                        . . . . . @ g $.*.@.*.r.j.c.c.x.k.j.j.j.j.j.j.j.j.s.s.p.f.N.P.[.sXxXcXuXW.y & # & 7 0 q q q 7 * # $ y W.uXxXlXpX_.K.v.g.p.s.j.j.j.j.j.j.j.j.j.x.x.c.c.j.t.*.@.$.$.} 2 . . . . . .                                                                                                                                                                       ",
"                                                                                                                                                                          . . . . . O 2 } $.$.$.-.y.x.c.c.x.j.j.j.j.j.j.j.j.j.s.p.p.z.V.P.[.sXxXcXuXW.l 6 # # - : & # # q W.yXcXxXsX[.K.N.z.p.s.s.j.j.j.j.j.j.j.j.j.x.c.c.x.y.-.$.$.$.| a + . . . . .                                                                                                                                                                           ",
"                                                                                                                                                                              . . . . . @ z o.$.$.*.w.h.x.c.c.x.j.j.j.j.j.j.j.j.j.s.p.p.z.V.I._.sXcXcXuXW.l 7 # X & q Y qXxXxXdX[.P.V.z.p.p.s.j.j.j.j.j.j.j.j.j.x.c.c.c.h.w.*.$.$.o.z , . . . . . .                                                                                                                                                                             ",
"                                                                                                                                                                                . . . . . . 2 } $.$.#.=.t.j.c.c.x.k.j.j.j.j.j.j.j.j.j.s.p.p.z.V.P.[.sXxXcXuXW.F y U qXxXcXdX[.P.C.z.p.p.s.j.j.j.j.j.j.j.j.j.x.x.c.c.j.r.=.#.$.$.} 2 O . . . . .                                                                                                                                                                                 ",
"                                                                                                                                                                                    . . . . . + a | $.$.$.-.y.x.c.c.x.j.j.j.j.j.j.j.j.j.j.s.p.p.z.N.P.[.sXxXcXbXyXjXxXkX{.P.V.z.p.p.s.s.j.j.j.j.j.j.j.j.k.x.c.c.k.t.=.$.$.$.| a + . . . . . .                                                                                                                                                                                   ",
"                                                                                                                                                                                      . . . . . . 1 z o.$.$.*.w.h.c.c.c.x.j.j.j.j.j.j.j.j.j.j.s.p.p.z.N.K._.sXxXcXkX{./.C.v.p.p.s.s.j.j.j.j.j.j.j.j.j.x.c.c.x.a.1.$.$.$.O.z , . . . . . .                                                                                                                                                                                       ",
"                                                                                                                                                                                          . . . . . O 2 } #.$.$.*.r.h.c.c.x.x.j.j.j.j.j.j.j.j.j.j.s.s.p.z.N.I.).[./.D.v.p.p.s.j.j.j.j.j.j.j.j.j.j.x.c.c.x.h.w.*.$.$.@.x 2 . . . . . .                                                                                                                                                                                           ",
"                                                                                                                                                                                            . . . . . . + a | $.#.#.=.t.j.c.c.x.x.j.j.j.j.j.j.j.j.j.j.s.s.p.z.M.N.v.g.p.s.j.j.j.j.j.j.j.j.j.j.x.x.c.c.j.r.*.#.$.$.} p O . . . . . .                                                                                                                                                                                             ",
"                                                                                                                                                                                                . . . . . . , g O.*.$.$.1.y.x.c.c.x.j.j.j.j.j.j.j.j.j.j.j.s.s.s.s.s.s.s.j.j.j.j.j.j.j.j.j.x.x.c.c.j.t.=.#.$.$.| a + . . . . . .                                                                                                                                                                                                 ",
"                                                                                                                                                                                                    . . . . . O 2 z o.$.$.*.1.y.x.c.c.x.k.j.j.j.j.j.j.j.j.j.j.s.s.j.j.j.j.j.j.j.j.j.j.k.x.c.c.j.t.-.$.#.#.| g , . . . . . .                                                                                                                                                                                                     ",
"                                                                                                                                                                                                      . . . . . . O p c o.@.@.*.w.a.x.c.c.x.k.j.j.j.j.j.j.j.j.j.j.j.j.j.j.j.j.j.j.k.x.c.c.x.y.1.$.@.#.O.z 2 . . . . . . .                                                                                                                                                                                                       ",
"                                                                                                                                                                                                          . . . . . . + a } #.#.#.*.w.h.x.c.c.x.k.j.j.j.j.j.j.j.j.j.j.j.j.j.j.k.x.c.c.x.h.w.$.#.$.#.c 2 O . . . . . .                                                                                                                                                                                                           ",
"                                                                                                                                                                                                              . . . . . . @ a } #.$.#.*.w.h.x.c.x.x.j.j.j.j.j.j.j.j.j.j.j.k.x.c.c.x.h.w.*.$.$.@.c p + . . . . . .                                                                                                                                                                                                               ",
"                                                                                                                                                                                                                . . . . . . . , s | @.#.$.=.w.h.x.c.c.x.k.j.j.j.j.j.j.k.x.c.c.x.h.w.*.#.#.#.} a @ . . . . . .                                                                                                                                                                                                                   ",
"                                                                                                                                                                                                                    . . . . . . . , z O.#.@.#.=.r.h.x.c.c.x.k.j.j.j.x.c.c.c.j.r.=.#.#.$.| g , . . . . . . .                                                                                                                                                                                                                     ",
"                                                                                                                                                                                                                        . . . . . . . , z | #.#.#.*.w.h.x.c.c.x.x.x.c.c.j.t.=.#.#.$.| g , . . . . . . .                                                                                                                                                                                                                         ",
"                                                                                                                                                                                                                            . . . . . . O , s | #.$.$.*.w.h.z.c.n.c.j.t.-.$.$.$.| g 1 O . . . . . .                                                                                                                                                                                                                             ",
"                                                                                                                                                                                                                                . . . . . . . 1 z | @.@.#.*.w.y.h.t.1.$.@.#.O.z 2 . . . . . . .                                                                                                                                                                                                                                 ",
"                                                                                                                                                                                                                                  . . . . . . . . , g | @.@.$.*.=.*.$.#.o.x 2 O . . . . . .                                                                                                                                                                                                                                     ",
"                                                                                                                                                                                                                                        . . . . . . O , s } o.$.*.*.O.x 2 + . . . . . .                                                                                                                                                                                                                                         ",
"                                                                                                                                                                                                                                          . . . . . . . O , s } O.c p + . . . . . . .                                                                                                                                                                                                                                           ",
"                                                                                                                                                                                                                                              . . . . . . . O 1 p , . . . . . . .                                                                                                                                                                                                                                               ",
"                                                                                                                                                                                                                                                    . . . . . . . . . . . . .                                                                                                                                                                                                                                                   ",
"                                                                                                                                                                                                                                                        . . . . . . . . .                                                                                                                                                                                                                                                       ",
"                                                                                                                                                                                                                                                            . . . . .                                                                                                                                                                                                                                                           ",
"                                                                                                                                                                                                                                                              . . .                                                                                                                                                                                                                                                             "
};
